!!!COM: Scriabin, Alexander
!!!OTL@@FR: Sonate no 10
!!!OTL@@EN: Sonata No. 10
!!!OPS: 70
!!!ODT: 1913
!!!AGN: Sonata
**kern	**kern	**dynam	**kern	**dynam
*staff3	*staff2	*staff2/3	*staff1	*staff1/2
*Ipiano	*Ipiano	*	*Ipiano	*
*clefF4	*clefG2	*	*clefG2	*
*k[]	*k[]	*	*k[]	*
*X:	*X:	*	*X:	*
*M9/16	*M9/16	*	*M9/16	*
=1	=1	=1	=1	=1
[4.g-X	8r	p <	4.r	.
.	16dd	[	.	.
.	[4.b-X	.	.	.
8.g-]	.	.	8.r	.
=2	=2	=2	=2	=2
[4.e-X	8b-L]	.	4.r	.
.	16b--Jk	>	.	.
.	4.g-X	]	.	.
8.e-_	.	.	8.r	.
=3	=3	=3	=3	=3
*	*^	*	*	*
4.e-_	16b-XLL	8.r	>	4.r	.
.	16cc	.	.	.	.
.	16b--JJ	.	.	.	.
.	[4.a-X	8r	]	.	.
.	.	16ccc	.	.	.
!	!	!LO:T:lv	!	!	!
8.e-_	.	[8cc [8ff#X [8ddd	.	8.r	.
.	.	16r	.	.	.
*	*v	*v	*	*	*
=4	=4	=4	=4	=4
4.e-_	4.a-_\	.	4.r	.
8.e-]	8.a-\]	.	8.r	.
=5	=5	=5	=5	=5
*	*^	*	*	*
[4.GGG-X [4.GG-X	[4.B-X	8r	pp	4.r	.
.	.	16dd	.	.	.
.	.	[4.b-X	.	.	.
8.GGG-] 8.GG-]	8.B-]	.	.	8.r	.
=6	=6	=6	=6	=6	=6
[4.EEE-X [4.EE-X	[4.c-X	8b-L]	.	16%9r	.
.	.	16b--Jk	.	.	.
.	.	4.g-X	.	.	.
8.EEE-] 8.EE-]	8.c-]	.	.	.	.
!!LO:LB:g=original
=7	=7	=7	=7	=7	=7
*	*	*	*	*^	*
[4.EEE-X [4.EE-X	[4.cn	16b-XLL	.	4.r	8.r	.
.	.	16cc	.	.	.	.
.	.	16b--JJ	.	.	.	.
.	.	[4.a-X	.	.	8r	.
*	*	*	*	*	*8va	*
.	.	.	.	.	16cccc	.
8.EEE-_ 8.EE-_	8.c_	.	.	16.r	8ccc 8fff#X 8dddd	.
*	*	*	*	*	*X8va	*
.	.	.	.	32aa-X	.	.
.	.	.	.	16bb-X	16ryy	.
*	*	*	*	*v	*v	*
=8	=8	=8	=8	=8	=8
4.EEE-_ 4.EE-_	4.c_	4.a-_	.	[4.ee-X	.
16EEE-] 16EE-]	8.c]	8.a-]	.	8.ee-]	.
*^	*	*	*	*	*
16AA-LL	8AA-X	.	.	.	.	.
16EE-XJJ	.	.	.	.	.	.
*	*	*v	*v	*	*	*
*v	*v	*	*	*	*
=9	=9	=9	=9	=9
*M3/8	*M3/8	*	*M3/8	*
*^	*^	*	*	*
*	*^	*	*	*	*	*
24ryy	24r	4G	4.c	16e-XLL	<	4.r	.
24AA-\LL	[12AA-X/	.	.	.	.	.	.
.	.	.	.	16enJJ	.	.	.
[24EE-XJJ	.	.	.	.	[	.	.
8EE-] 8AA-\]	8ryy	.	.	8.f	.	.	.
24ryy	24r	8G-X	.	.	>	.	.
24AA-\LL	12AA-/	.	.	.	.	.	.
.	.	.	.	[16e	.	.	.
24EE-JJ	.	.	.	.	]	.	.
=10	=10	=10	=10	=10	=10	=10	=10
24ryy	24r	4F	4.c	16eLL]	<	4.r	.
24AA-\LL	[12AA-X/	.	.	.	.	.	.
.	.	.	.	16fJJ	.	.	.
[24EE-XJJ	.	.	.	.	[	.	.
8EE-] 8AA-\]	8ryy	.	.	8.g-X	.	.	.
24ryy	24r	8F-X	.	.	>	.	.
24AA-\LL	12AA-/	.	.	.	.	.	.
.	.	.	.	16fn	.	.	.
24EE-JJ	.	.	.	.	]	.	.
*	*v	*v	*	*	*	*	*
!!LO:LB:g=original
=11	=11	=11	=11	=11	=11	=11
*	*	*	*	*	*^	*
[8qEE-X [8qAA-X [8qE-X	.	.	.	.	.	.	.
4.EE-_ 4.AA-_	4.E-_	8c	16fLL	<	8cc	24bb-XLL	.
.	.	.	.	.	.	24ccc	.
.	.	.	16g-X	.	.	.	.
.	.	.	.	.	.	24bb--JJ	.
.	.	[4c	16gn	[	16r	[4aa-X	.
.	.	.	16g-X	.	32ff-XLLL	.	.
.	.	.	.	.	32ccJJJ	.	.
*	*	*	*	*	*^	*	*
.	.	.	16gn	.	16r	16r	.	.
.	.	.	16g-XJJ	.	[16ff-	32ff-LLL	.	.
.	.	.	.	.	.	[32ccJJJ	.	.
*	*	*	*	*	*	*v	*v	*
=12	=12	=12	=12	=12	=12	=12	=12
4.EE-] 4.AA-]	4.E-]	4c]	16gnLL	.	4.ff-] 4.cc]	4.aa-]	.
.	.	.	16g-X	.	.	.	.
.	.	.	16f	.	.	.	.
.	.	.	16f-X	>	.	.	.
.	.	8r	16c	.	.	.	.
.	.	.	16A-XJJ	]	.	.	.
*	*	*	*	*	*v	*v	*
*	*	*v	*v	*	*	*
=13	=13	=13	=13	=13	=13
*	*^	*	*	*	*
24ryy	24r	4G-	16B--LL	.	4.r	.
24AA-\LL	[12AA-X/	.	.	.	.	.
.	.	.	16B-XJJ	.	.	.
[24EE-XJJ	.	.	.	.	.	.
8EE-] 8AA-\]	8ryy	.	8.c-X	.	.	.
24ryy	24r	8Fn	.	.	.	.
24AA-\LL	12AA-/	.	.	.	.	.
.	.	.	[16B-	.	.	.
24EE-JJ	.	.	.	.	.	.
=14	=14	=14	=14	=14	=14	=14
24ryy	24r	4F-X	16B-LL]	.	4.r	.
24AA-\LL	[12AA-X/	.	.	.	.	.
.	.	.	16BnJJ	.	.	.
[24EE-XJJ	.	.	.	.	.	.
8EE-] 8AA-\]	8ryy	.	8.c	.	.	.
24ryy	24r	8E-X	.	.	.	.
24AA-\LL	12AA-/	.	.	.	.	.
.	.	.	16B	.	.	.
24EE-JJ	.	.	.	.	.	.
*	*v	*v	*	*	*	*
!!LO:LB:g=original
=15	=15	=15	=15	=15	=15
*	*	*^	*	*^	*
[8qEE-X [8qAA-X	.	.	.	.	.	.	.
4.EE-_ 4.AA-_	8G-X	8G-X	16BLL	.	8g-X	24ff-XLL	.
.	.	.	.	.	.	24gg-X	.
.	.	.	16c	.	.	.	.
.	.	.	.	.	.	24ee-XJJ	.
.	8r	[4G-	16d-X	.	16r	[4ddn	.
.	.	.	16c	.	32b-XLLL	.	.
.	.	.	.	.	32g-JJJ	.	.
*	*	*	*	*	*^	*	*
.	8r	.	16d-	.	16r	16r	.	.
.	.	.	16cJJ	.	[16b-	32b-LLL	.	.
.	.	.	.	.	.	[32g-JJJ	.	.
*	*	*	*	*	*	*v	*v	*
*v	*v	*	*	*	*	*	*
=16	=16	=16	=16	=16	=16	=16
4.EE-] 4.AA-]	4G-]	16d-XLL	.	4.b-] 4.g-]	4.dd]	.
.	.	16cJJ	.	.	.	.
.	.	16c-X\LL	.	.	.	.
.	.	16B-X<	.	.	.	.
.	8ryy	16G-X<	.	.	.	.
.	.	16Dn<JJ	.	.	.	.
*	*	*	*	*v	*v	*
=17	=17	=17	=17	=17	=17
*^	*	*	*	*	*
[4.EE-X [4.AA-X	16FLL	8cn	24b-XLL	.	4.r	.
.	.	.	24cc	.	.	.
.	16G-X	.	.	.	.	.
.	.	.	24b--JJ	.	.	.
.	16Gn	16r	[4a-X	.	.	.
.	16G-X	32f-XLLL	.	.	.	.
.	.	32cJJJ	.	.	.	.
*	*	*^	*	*	*	*
.	16Gn	16r	16r	.	.	.	.
.	16G-XJJ	[16f-	32f-LLL	.	.	.	.
.	.	.	[32cJJJ	.	.	.	.
*	*	*v	*v	*	*	*	*
=18	=18	=18	=18	=18	=18	=18
4.EE-] 4.AA-]	40%3GnL	4.f-] 4.c]	4.a-]	.	4.r	.
.	40%3G-X	.	.	.	.	.
.	40%3F	.	.	.	.	.
.	40%3F-X	.	.	.	.	.
.	40%3CJ	.	.	.	.	.
!!LO:LB:g=original
=19	=19	=19	=19	=19	=19	=19
[4.EE-X [4.AA-X	16FnLL	8c	24b-XLL	.	4.r	.
.	.	.	24cc	.	.	.
.	16G-X	.	.	.	.	.
.	.	.	24b--JJ	.	.	.
.	16Gn	16r	[4a-X	.	.	.
.	16G-X	32f-XLLL	.	.	.	.
.	.	32cJJJ	.	.	.	.
*	*	*^	*	*	*	*
.	16Gn	16r	16r	.	.	.	.
.	16G-XJJ	[16f-	32f-LLL	.	.	.	.
.	.	.	[32cJJJ	.	.	.	.
*	*	*v	*v	*	*	*	*
=20	=20	=20	=20	=20	=20	=20
4.EE-] 4.AA-]	32%3GnL	4.f-] 4.c]	4.a-]	.	4.r	.
.	32%3G-X	.	.	.	.	.
.	32%3F	.	.	.	.	.
.	32%3EnJ	.	.	.	.	.
=21	=21	=21	=21	=21	=21	=21
*M3/4	*M3/4	*M6/8	*M6/8	*	*M3/4	*
[2.EE- [2.AA-	4F	2.c	8a-L	>	2.r	.
.	.	.	8b-	.	.	.
.	4F-	.	8gnJ	.	.	.
.	.	.	[4.g-	.	.	.
.	4E-	.	.	]	.	.
=22	=22	=22	=22	=22	=22	=22
2.EE-] 2.AA-]	4D	2.c-X	4.g-]	.	2.r	.
.	4E-X	.	.	.	.	.
.	.	.	4.gn	<	.	.
.	4En	.	.	[	.	.
=23	=23	=23	=23	=23	=23	=23
[2.EE- [2.AA-	4F	2.cn	8a-L	>	2.r	.
.	.	.	8b-	.	.	.
.	4F-	.	8gJ	.	.	.
.	.	.	[4.g-	.	.	.
.	4E-	.	.	]	.	.
=24	=24	=24	=24	=24	=24	=24
2.EE-] 2.AA-]	4D	2.c-X	4.g-]	.	2.r	.
.	4E-X	.	.	.	.	.
.	.	.	4.gn	<	.	.
.	4En	.	.	[	.	.
!!LO:LB:g=original
=25	=25	=25	=25	=25	=25	=25
*M2/4	*M2/4	*M2/4	*M2/4	*	*M2/4	*
[2EE- [2AA-	4F	2cn	12a-L	.	2r	.
.	.	.	12b-	>	.	.
.	.	.	12gJ	.	.	.
.	4F-	.	4g-	.	.	.
=26	=26	=26	=26	=26	=26	=26
2EE-] 2AA-]	4E-X	2c-	12fnL	.	2r	.
.	.	.	12gn	.	.	.
.	.	.	12f-J	.	.	.
.	4F-X	.	[4e-	.	.	.
=27	=27	=27	=27	=27	=27	=27
[2EE- [2AA-	[2Fn	[2c-	12e-L]	pp	2r	.
.	.	.	12fn	.	.	.
.	.	.	12dJ	.	.	.
.	.	.	[4d-	.	.	.
=28	=28	=28	=28	=28	=28	=28
2EE-] 2AA-]	2F]	2c-]	2d-]	.	2r	.
*	*	*v	*v	*	*	*
*v	*v	*	*	*	*
=29	=29	=29	=29	=29
*M9/16	*M9/16	*	*M9/16	*
[4.g-X	8r	pp	4.r	.
.	16ddn	.	.	.
.	[4.b-X	<	.	.
8.g-X]	.	[	8.r	.
=30	=30	=30	=30	=30
[4.e-X	8b-L]	>	4.r	.
.	16b--Jk	.	.	.
.	4.g-X	]	.	.
8.e-_	.	.	8.r	.
!!LO:LB:g=original
=31	=31	=31	=31	=31
*	*	*	*^	*
4.e-_X	16b-XLL	>	4.r	8.r	.
.	16cc	.	.	.	.
.	16b--JJ	.	.	.	.
*	*	*	*	*8va	*
.	[4.a-X	]	.	8r	.
.	.	.	.	16cccc	.
8.e-_	.	.	16.r	8ccc 8fff#X 8dddd	.
*	*	*	*	*X8va	*
.	.	.	32aa-X	.	.
.	.	.	16bb-X	16ryy	.
*	*	*	*v	*v	*
=32	=32	=32	=32	=32
4.e-]	4.a-]	.	4.ee-	.
16.r	16r	.	8.r	.
.	32a-LLL	<	.	.
16.e-	32cc	.	.	.
.	32dd	.	.	.
.	32ggJJJ	[	.	.
=33	=33	=33	=33	=33
*	*tremolo	*	*	*
8.A-	32gg-LLL	>	4.r	.
.	32ggn	.	.	.
.	32gg-	.	.	.
.	32ggn	.	.	.
.	32gg-	.	.	.
.	32ggn	.	.	.
8.r	32gg-	.	.	.
.	32ggn	.	.	.
.	32gg-	.	.	.
.	32ggn	.	.	.
.	32gg-	.	.	.
.	32ggnJJJ	.	.	.
8.r	32gg-LLL	.	8.r	.
.	32ggn	.	.	.
.	32gg-	.	.	.
.	32ggn	.	.	.
.	32gg-	.	.	.
.	32ggnJJJ	.	.	.
=34	=34	=34	=34	=34
8.r	32gg-LLL	.	4.r	.
.	32ggn	.	.	.
.	32gg-	.	.	.
.	32ggn	.	.	.
.	32gg-	.	.	.
.	32ggn	.	.	.
8.r	32gg-	.	.	.
.	32ggn	.	.	.
.	32gg-	.	.	.
.	32ggn	.	.	.
.	32gg-	.	.	.
.	32ggnJJJ	]	.	.
*	*Xtremolo	*	*	*
16.r	16r	.	8.r	.
.	32A-LLL	<	.	.
16.E-	32c	.	.	.
.	32d	.	.	.
.	32gJJJ	[	.	.
=35	=35	=35	=35	=35
*	*tremolo	*	*	*
8.AA-	32g-LLL	>	4.r	.
.	32gn	.	.	.
.	32g-	.	.	.
.	32gn	.	.	.
.	32g-	.	.	.
.	32gn	.	.	.
8.r	32g-	.	.	.
.	32gn	.	.	.
.	32g-	.	.	.
.	32gn	.	.	.
.	32g-	.	.	.
.	32gnJJJ	.	.	.
8.r	32g-LLL	.	8.r	.
.	32gn	.	.	.
.	32g-	.	.	.
.	32gn	.	.	.
.	32g-	.	.	.
.	32gnJJJ	.	.	.
=36	=36	=36	=36	=36
8.r	32g-LLL	.	4.r	.
.	32gn	.	.	.
.	32g-	.	.	.
.	32gn	.	.	.
.	32g-	.	.	.
.	32gn	.	.	.
8.r	32g-	.	.	.
.	32gn	.	.	.
.	32g-	.	.	.
.	32gn	.	.	.
.	32g-	.	.	.
.	32gnJJJ	]	.	.
*	*Xtremolo	*	*	*
8.r	8.r	.	8.r	.
!!LO:LB:g=original
=37	=37	=37	=37	=37
8.r	8r	.	4.r	.
.	32anLLL	<	.	.
.	32ccJJJ	.	.	.
*^	*	*	*	*
[8qCC [8qFF [8qC	.	.	.	.	.
4.CC] 4.FF] 4.C]	4.An 4.c 4.e 4.g	[8.ee	[ >	.	.
.	.	8ee]	]	8.r	.
.	.	32aLLL	<	.	.
.	.	32ccJJJ	.	.	.
=38	=38	=38	=38	=38	=38
4.r	4.A 4.c 4.e 4.g	[8.ee	[ >	4.r	.
.	.	8ee]	]	.	.
.	.	32aLLL	<	.	.
.	.	32ccJJJ	[	.	.
8.r	8.A 8.c 8.e 8.g	8.ee	.	8.r	.
*v	*v	*	*	*	*
=39||	=39||	=39||	=39||	=39||
*	*^	*	*	*
8.r	16r	8eeL	p	4.r	.
.	16aLL	.	.	.	.
.	16fJJ	[16ee-XJk	.	.	.
16.ALL	16r	8ee-L]	.	.	.
.	16aLL	.	.	.	.
16.C	.	.	.	.	.
.	16fJJ	16eenJk	.	.	.
16.FF	16r	16ee-XLL	.	8.r	.
.	16aLL	16dd	.	.	.
16.CCJJ	.	.	.	.	.
.	16fJJ	16dd-XJJ	.	.	.
=40	=40	=40	=40	=40	=40
16.AAA-XLL	16r	4.cc	.	4.r	.
.	16a-XLL	.	.	.	.
16.DD-X	.	.	.	.	.
.	16f-XJJ	.	.	.	.
16.AA-X	16r	.	.	.	.
.	16a-LL	.	.	.	.
16.D-XJJ	.	.	.	.	.
.	16f-JJ	.	.	.	.
16.A-X	8.r	8.cc-X	.	8.r	.
16.r	.	.	.	.	.
!!LO:LB:g=original
=41	=41	=41	=41	=41	=41
8.r	16r	8eeL	.	4.r	.
.	16anLL	.	.	.	.
.	16fnJJ	[16ee-XJk	.	.	.
16.AnLL	16r	8ee-L]	.	.	.
.	16aLL	.	.	.	.
16.C	.	.	.	.	.
.	16fJJ	16eenJk	.	.	.
16.FF	16r	16ee-XLL	.	8.r	.
.	16aLL	16dd	.	.	.
16.CCJJ	.	.	.	.	.
.	16fJJ	16dd-XJJ	.	.	.
=42	=42	=42	=42	=42	=42
16.AAA-XLL	16r	[8.cc	.	4.r	.
.	16a-XLL	.	.	.	.
16.DD-X	.	.	.	.	.
.	16f-XJJ	.	.	.	.
16.AA-X	16r	8ccL]	.	.	.
.	16a-LL	.	.	.	.
16.D-XJJ	.	.	.	.	.
.	16f-JJ	16cc-J	.	.	.
16.A-X	8.r	8.a-	.	8.r	.
16.r	.	.	.	.	.
=43	=43	=43	=43	=43	=43
8.r	16r	8ccnL	.	4.r	.
.	16fnLL	.	.	.	.
.	16d-JJ	[16cc-Jk	.	.	.
16.FLL	16r	8cc-L]	.	.	.
.	16fLL	.	.	.	.
16.AA-	.	.	.	.	.
.	16d-JJ	16ccJk	.	.	.
16.DD-	16r	16cc-XLL	.	8.r	.
.	16fLL	16b-	.	.	.
16.AAA-JJ	.	.	.	.	.
.	16d-JJ	16b--XJJ	.	.	.
=44	=44	=44	=44	=44	=44
16.EEELL	16r	8g#L	.	4.r	.
.	16eLL	.	.	.	.
16.AAAn	.	.	.	.	.
.	16cnJJ	[16gJk	.	.	.
16.EE	16r	8gL]	.	.	.
.	16eLL	.	.	.	.
16.AAnJJ	.	.	.	.	.
.	16cJJ	16g#Jk	.	.	.
16.E	8.r	16gXLL	.	8.r	.
.	.	16f#	.	.	.
16.r	.	.	.	.	.
.	.	16fXJJ	.	.	.
!!LO:LB:g=original
=45	=45	=45	=45	=45	=45
16.CLL	16r	[8.e	.	4.r	.
.	16cLL	.	.	.	.
16.FF	.	.	.	.	.
.	16A-JJ	.	.	.	.
16.CC	16r	8eL]	.	.	.
.	16cLL	.	.	.	.
16.FFFJJ	.	.	.	.	.
.	16A-JJ	16e-Jk	.	.	.
8.r	8.r	[8.c	.	8.r	.
=46	=46	=46	=46	=46	=46
16.AAA-LL	16r	8.c_	.	4.r	.
.	16A-LL	.	.	.	.
16.DD-	.	.	.	.	.
.	16F-JJ	.	.	.	.
16.AA-	16r	8cL]	.	.	.
.	16A-LL	.	.	.	.
16.D-JJ	.	.	.	.	.
.	16F-JJ	16c-Jk	.	.	.
8.r	8.r	[8.en	.	8.r	.
=47	=47	=47	=47	=47	=47
16.CnLL	16r	8.e_	.	4.r	.
.	16cnLL	.	.	.	.
16.FFn	.	.	.	.	.
.	16A-JJ	.	.	.	.
16.CC	16r	8eL]	.	.	.
.	16cLL	.	.	.	.
16.FFFJJ	.	.	.	.	.
.	16A-JJ	16e-Jk	.	.	.
8.r	8.r	[8.c	.	8.r	.
=48	=48	=48	=48	=48	=48
16.AAA-LL	16r	8.c_	.	4.r	.
.	16A-LL	.	.	.	.
16.DD-	.	.	.	.	.
.	16F-JJ	.	.	.	.
16.AA-	16r	8cL]	.	.	.
.	16A-LL	.	.	.	.
16.D-JJ	.	.	.	.	.
.	16F-JJ	16c-Jk	.	.	.
8.r	8.r	8.f-	.	8.r	.
!!LO:LB:g=original
=49	=49	=49	=49	=49	=49
16.AAA-LL	16r	[8.cn	.	4.r	.
.	16A-LL	.	.	.	.
16.DD-	.	.	.	.	.
.	16F-JJ	.	.	.	.
16.AA-	16r	8cL]	.	.	.
.	16A-LL	.	.	.	.
16.D-JJ	.	.	.	.	.
.	16F-JJ	16c-Jk	.	.	.
[8.A-	8.r	[8.f-	.	8.r	.
*	*v	*v	*	*	*
=50	=50	=50	=50	=50
8.A-L]	8f-L]	<	4.r	.
.	16e-XJk	.	.	.
8.cn	8a-XL	.	.	.
.	16a--Jk	.	.	.
8.f-XJ	8ccnL	.	8.r	.
.	16cc-XJk	[	.	.
=51	=51	=51	=51	=51
*	*^	*	*	*
8.r	16r	8eenL	p	4.r	.
.	16anLL	.	.	.	.
.	16fnJJ	[16ee-XJk	.	.	.
16.AnLL	16r	8ee-L]	.	.	.
.	16aLL	.	.	.	.
16.C	.	.	.	.	.
.	16fJJ	16eenJk	.	.	.
16.FF	16r	16ee-XLL	.	8.r	.
.	16aLL	16dd	.	.	.
16.CCJJ	.	.	.	.	.
.	16fJJ	16dd-XJJ	.	.	.
=52	=52	=52	=52	=52	=52
16.AAA-XLL	16r	4.cc	.	4.r	.
.	16a-XLL	.	.	.	.
16.DD-X	.	.	.	.	.
.	16f-XJJ	.	.	.	.
16.AA-X	16r	.	.	.	.
.	16a-LL	.	.	.	.
16.D-XJJ	.	.	.	.	.
.	16f-JJ	.	.	.	.
8.A-X	8.r	8.cc-X	.	8.r	.
*	*v	*v	*	*	*
!!LO:LB:g=original
=53	=53	=53	=53	=53
8.r	8r	.	4.r	.
.	32g#XLLL	<	.	.
.	32bJJJ	.	.	.
8.BBBL	4.dd#X	[	.	.
8.EEJ	.	.	8.r	.
=54	=54	=54	=54	=54
*	*^	*	*	*
8.BBL	4.r	8r	.	4.r	.
.	.	32g#XLLL	<	.	.
.	.	32bJJJ	.	.	.
8.G#J	.	4.dd#X	[	.	.
8.r	16f#LL	.	>	8.r	.
.	16g#	.	.	.	.
.	16fnJJ	.	]	.	.
=55	=55	=55	=55	=55	=55
8.r	16r	8dd#L	.	4.r	.
.	16g#LL	.	.	.	.
.	16eJJ	[16ddnXJk	.	.	.
16.G#LL	16r	8ddL]	.	.	.
.	16g#LL	.	.	.	.
16.BB	.	.	.	.	.
.	16eJJ	16dd#Jk	.	.	.
16.EE	16r	16ddnXLL	.	8.r	.
.	16g#LL	16cc#	.	.	.
16.BBBJJ	.	.	.	.	.
.	16eJJ	16ccnXJJ	.	.	.
=56	=56	=56	=56	=56	=56
16.GGGnLL	16r	4.b	.	4.r	.
.	16gnXLL	.	.	.	.
16.CC	.	.	.	.	.
.	16e-XJJ	.	.	.	.
16.GG	16r	.	.	.	.
.	16gLL	.	.	.	.
16.CJJ	.	.	.	.	.
.	16e-JJ	.	.	.	.
8.G	8.r	8.b-	.	8.r	.
*	*v	*v	*	*	*
!!LO:LB:g=original
=57	=57	=57	=57	=57
8.r	8r	.	4.r	.
.	32gLLL	<	.	.
.	32b-JJJ	.	.	.
8.BBB-L	4.ddX	[ >	.	.
8.EE-J	.	]	8.r	.
=58	=58	=58	=58	=58
*^	*	*	*	*
8.BB-L	4.r	8r	.	4.r	.
.	.	32gLLL	<	.	.
.	.	32b-JJJ	.	.	.
8.GJ	.	4.ddX	[ >	.	.
8.r	[8.f	.	]	8.r	.
=59	=59	=59	=59	=59	=59
*M3/8	*M3/8	*M3/8	*	*M3/8	*
*	*	*	*^	*	*
8BBB-X 8EE-X 8BB-X 8G	24fLL]	8r	.	.	4.r	.
!	!	!	!LO:HP:a=3	!	!	!
.	24g	.	>	.	.	.
.	24f-XJJ	.	.	.	.	.
!	!	!	!	!LO:HP:b=2	!	!
.	.	16qgLL	.	<	.	.
.	.	16qb-XJJ	.	.	.	.
4r	[4e-X	4dd	]	[	.	.
=60	=60	=60	=60	=60	=60	=60
!	!	!	!	!LO:HP:b=2	!	!
4r	8e-]	24dd-XLL	.	>	4.r	.
.	.	24ee-X	.	.	.	.
.	.	24ccJJ	.	.	.	.
!	!	!	!LO:HP:a=3	!	!	!
.	16qGLL	.	<	.	.	.
.	16qB-XJJ	.	.	.	.	.
.	4dn	[4bn	[	]	.	.
8r	.	.	.	.	.	.
=61	=61	=61	=61	=61	=61	=61
8AAA 8EEn 8En	8c#X	24bLL]	.	.	4.r	.
.	.	24cc#X	.	.	.	.
.	.	24b-XJJ	.	.	.	.
*	*	*^	*	*	*	*
!	!	!	!	!	!LO:HP:a=2	!	!
.	.	.	16qcc#LL	.	<	.	.
.	.	.	16qeeJJ	.	.	.	.
4r	4r	4a	4gg#X	.	[	.	.
*v	*v	*	*	*	*	*	*
!!LO:LB:g=original
=62	=62	=62	=62	=62	=62	=62
4.r	8r	24ggnLL	.	.	4.r	.
.	.	24aa	.	.	.	.
.	.	24ff#XJJ	.	.	.	.
!	!	!	!	!LO:HP:b=2	!	!
.	16qc#XLL	.	.	<	.	.
.	16qeJJ	.	.	.	.	.
!	!	!	!	!LO:HP:b=2	!	!
.	4g#X	[4ffn	.	[ >	.	.
=63	=63	=63	=63	=63	=63	=63
*^	*	*	*	*	*	*
8BBB-X 8EE-X 8E-X\	8ryy	4.gn	24ffLL]	.	]	4.r	.
!	!	!	!	!	!LO:HP:b=2	!	!
.	.	.	24gg	.	>	.	.
.	.	.	24ff-XJJ	.	.	.	.
!	!	!	!	!LO:HP:a=3	!	!	!
.	16qGLL	.	.	<	.	.	.
.	16qB-XJJ	.	.	.	.	.	.
4r	4d	.	[4ee-X	[	]	.	.
*	*	*	*	*v	*v	*	*
*	*	*v	*v	*	*	*
=64	=64	=64	=64	=64	=64
4.r	24d-XLL	8ee-]	>	4.r	.
.	24e-X	.	.	.	.
.	24cJJ	.	.	.	.
!	!	!	!LO:HP:b=2	!	!
.	.	16qgLL	<	.	.
.	.	16qb-XJJ	.	.	.
.	[4Bn	4dd	[ > ]	.	.
=65	=65	=65	=65	=65	=65
8AAA 8EEn 8En	24BLL]	8cc#X	.	4.r	.
.	24c#X	.	.	.	.
.	24B-XJJ	.	.	.	.
*	*	*^	*	*	*
!	!	!	!	!LO:HP:b=2	!	!
.	.	[8qc#\	16qc#XLL	<	.	.
.	.	.	16qeJJ	.	.	.
4r	4A	4c#]	4g#X	[	.	.
*v	*v	*	*	*	*	*
=66	=66	=66	=66	=66	=66
!	!	!	!LO:HP:b=2	!	!
8BBB-XL	4.d-X	24gnLL	>	4.r	.
.	.	24a	.	.	.
.	.	24g-XJJ	.	.	.
8EE-X	.	4f	]	.	.
8E-XJ	.	.	.	.	.
!!LO:LB:g=original
=67	=67	=67	=67	=67	=67
8EnL	8ryy	8r	.	4.r	.
!	!	!	!LO:HP:b=2	!	!
.	[8qc#\	16qc#XLL	<	.	.
.	.	16qeJJ	.	.	.
8EEn	4c#]	4g#X	[	.	.
8AAAJ	.	.	.	.	.
=68	=68	=68	=68	=68	=68
!	!	!	!LO:HP:b=2	!	!
8BBB-XL	4.d-X	24gnLL	>	4.r	.
.	.	24a	.	.	.
.	.	24g-XJJ	.	.	.
8EE-X	.	4f	]	.	.
8E-XJ	.	.	.	.	.
*	*v	*v	*	*	*
=69	=69	=69	=69	=69
8EnL	8r	.	4.r	.
.	16qc#XLL	.	.	.
.	16qeJJ	.	.	.
8EEn	4g#X	.	.	.
[8AAAJ	.	.	.	.
=70	=70	=70	=70	=70
8AAAL]	8r	.	4.r	.
.	16qc#XLL	.	.	.
.	16qeJJ	.	.	.
8EE	4g#X	.	.	.
8EJ	.	.	.	.
=71	=71	=71	=71	=71
4r	4r	.	4.r	.
.	16qc#XLL	<	.	.
.	16qeJJ	.	.	.
[8AA [8E	[8g#X	[ >	.	.
=72	=72	=72	=72	=72
8AA] 8E]	8g#]	]	4.r	.
.	16qe#XLL	<	.	.
.	16qg#XJJ	.	.	.
4GG#X 4E#X 4c#X	4b#X	[ > ]	.	.
!!LO:LB:g=original
=73||	=73||	=73||	=73||	=73||
*M3/4	*M3/4	*	*M3/4	*
.	16qa#XLL	<	.	.
.	16qddJJ	[	.	.
4GG#X 4En 4d	4ff#X	f >	2.r	.
12r	4.A#X	] p	.	.
12f#XL	.	.	.	.
12dJ	.	.	.	.
*^	*	*	*	*
12EL	6E	.	<	.	.
12GG#J	.	.	.	.	.
.	.	[8B	.	.	.
12r	12E	.	[	.	.
=74	=74	=74	=74	=74	=74
16r	4E	24BKL]	mf	2.r	.
.	.	12c	.	.	.
16GGnLL	.	.	.	.	.
16E	.	24eL	.	.	.
.	.	24f#X	.	.	.
16cJJ	.	.	.	.	.
.	.	24bJJ	.	.	.
*v	*v	*	*	*	*
*	*^	*^	*	*
8f#	4.b-X	8r	.	.	.	.
!	!	!	!	!LO:DY:b=2	!	!
.	.	16qccLL	.	<	.	.
.	.	16qeeJJ	.	.	.	.
*	*	*tremolo	*	*	*	*
!	!	!	!LO:DY:c	!LO:DY:b=2	!	!
8r	.	32ff#LLL	>	[ >	.	.
.	.	32gg 32aa	.	.	.	.
.	.	32ff#	.	.	.	.
.	.	32ggJJJ 32aa	.	.	.	.
4r	.	32ff#LLL	.	.	.	.
.	.	32gg 32aa	.	.	.	.
.	.	32ff#	.	.	.	.
.	.	32gg 32aa	.	.	.	.
.	8a	32ff#	.	.	.	.
.	.	32gg 32aa	.	.	.	.
.	.	32ff#	.	.	.	.
.	.	32ggJJJ 32aa	]	]	.	.
*	*	*Xtremolo	*	*	*	*
*	*	*	*v	*v	*	*
=75	=75	=75	=75	=75	=75
16r	4r	32ff#XLLL	p	2.r	.
.	.	32ggJJJ 32aa	.	.	.
16BB-XLL	.	16r	.	.	.
16E-X	.	8r	.	.	.
16B-XJJ	.	.	.	.	.
8g	4cc	4r	.	.	.
8r	.	.	.	.	.
*^	*	*	*	*	*
4r	8r	4a	16r	.	.	.
.	.	.	16gg	.	.	.
.	24.r	.	8ee-X 8aa	.	.	.
.	48e-XKLL	.	.	.	.	.
.	24fJJ	.	.	.	.	.
!!LO:LB:g=original
=76	=76	=76	=76	=76	=76	=76
.	[8qB-X	.	.	.	.	.
16B-LL	4B-]	6a	4e-X 4g 4dd-X	.	2.r	.
16E-XJJ	.	.	.	.	.	.
8r	.	.	.	.	.	.
.	.	12b-X	.	.	.	.
*	*	*v	*v	*	*	*
*v	*v	*	*	*	*
.	16qenLL	<	.	.
.	16qgJJ	.	.	.
4C 4G	4bn\	[ > ]	.	.
.	16qg#XLL	<	.	.
.	16qbJJ	.	.	.
4BBn 4G#X 4en	4dd#X	[ > ]	.	.
=77	=77	=77	=77	=77
*	*	*^	*	*
!	!	!	!LO:HP:b=2	!	!
.	16qcc#XLL	.	<	.	.
.	16qffJJ	.	.	.	.
!	!	!	!LO:HP:b=2	!	!
4BB 4Gn 4f	4aaX	f >	[ > ]	2.r	.
12r	4.c#X	] p	.	.	.
12aL	.	.	.	.	.
12fJ	.	.	.	.	.
*^	*	*	*	*	*
12GL	6G	.	<	.	.	.
12BBJ	.	.	.	.	.	.
.	.	[8d	.	.	.	.
12r	12G	.	.	.	.	.
=78	=78	=78	=78	=78	=78	=78
16r	4G	24dKL]	mf	.	2.r	.
.	.	12e-	.	.	.	.
16BB-LL	.	.	.	.	.	.
16G	.	24gL	.	.	.	.
.	.	24a	.	.	.	.
16e-JJ	.	.	.	.	.	.
.	.	24ddJJ	.	.	.	.
*v	*v	*	*	*	*	*
*	*^	*	*	*	*
8a	4.dd-X	8r	.	.	.	.
!	!	!	!LO:DY:c	!LO:DY:a=2	!	!
.	.	16qee-LL	>	<	.	.
.	.	16qggJJ	.	.	.	.
*	*	*tremolo	*	*	*	*
!	!	!	!	!LO:DY:a=2	!	!
8r	.	32aaLLL	.	[ >	.	.
.	.	32bb- 32ccc	.	.	.	.
.	.	32aa	.	.	.	.
.	.	32bb-JJJ 32ccc	.	.	.	.
4r	.	32aaLLL	.	.	.	.
.	.	32bb- 32ccc	.	.	.	.
.	.	32aa	.	.	.	.
.	.	32bb- 32ccc	.	.	.	.
.	8cc	32aa	.	.	.	.
.	.	32bb- 32ccc	.	.	.	.
.	.	32aa	.	.	.	.
.	.	32bb-JJJ 32ccc	]	]	.	.
*	*	*Xtremolo	*	*	*	*
*	*	*	*v	*v	*	*
!!LO:LB:g=original
=79	=79	=79	=79	=79	=79
16r	4r	32aaLLL	p	2.r	.
.	.	32bb-JJJ 32ccc	.	.	.
16BB-XLL	.	16r	.	.	.
16E-X	.	8r	.	.	.
16d-XJJ	.	.	.	.	.
8g	4ee-	4r	.	.	.
8r	.	.	.	.	.
*	*	*^	*	*	*
4r	8rc	4cc	16raa	.	.	.
.	.	.	16gg	.	.	.
.	24.rc	.	8ee- 8aa	>	.	.
.	48gXK\LL	.	.	.	.	.
.	24aJJ	.	.	]	.	.
=80	=80	=80	=80	=80	=80	=80
4AA 4G 4c#	4eX 4g\	6a	4eenX	.	2.r	.
.	.	12b-X	.	.	.	.
*	*	*v	*v	*	*	*
*	*v	*v	*	*	*
.	16qeLL	<	.	.
.	16qgJJ	.	.	.
4Cn 4G	4bn\	[ > ]	.	.
.	16qg#XLL	<	.	.
.	16qbJJ	.	.	.
4BBn 4G#X 4e	4dd#X	[ > ]	.	.
=81	=81	=81	=81	=81
*	*	*^	*	*
.	16qcc#XLL	.	<	.	.
.	16qffJJ	.	.	.	.
4BB 4Gn 4f	4aaX	f >	[ > ]	2.r	.
12r	4.c#X	mp	.	.	.
12aL	.	.	.	.	.
12fJ	.	.	.	.	.
*^	*	*	*	*	*
12GL	6G	.	.	.	.	.
12BBJ	.	.	.	.	.	.
.	.	[8d	.	.	.	.
12r	12G	.	.	.	.	.
*	*	*	*v	*v	*	*
!!LO:LB:g=original
=82	=82	=82	=82	=82	=82
16r	4G	24dKL]	.	2.r	.
.	.	12e-	.	.	.
16BB-LL	.	.	.	.	.
16G	.	24gL	.	.	.
.	.	24a	.	.	.
16e-JJ	.	.	.	.	.
.	.	24ddJJ	.	.	.
*v	*v	*	*	*	*
*	*^	*	*	*
8a	[2dd-X	8r	.	.	.
!	!	!	!LO:HP:b=2	!	!
.	.	16qee-LL	<	.	.
.	.	16qggJJ	.	.	.
*	*	*tremolo	*	*	*
!	!	!	!LO:HP:b=2	!	!
8r	.	32aaLLL	[ >	.	.
.	.	32bb- 32ccc	.	.	.
.	.	32aa	.	.	.
.	.	32bb-JJJ 32ccc	.	.	.
4r	.	32aaLLL	.	.	.
.	.	32bb- 32ccc	.	.	.
.	.	32aa	.	.	.
.	.	32bb- 32ccc	.	.	.
.	.	32aa	.	.	.
.	.	32bb- 32ccc	.	.	.
.	.	32aa	.	.	.
.	.	32bb-JJJ 32ccc	]	.	.
=83	=83	=83	=83	=83	=83
2.r	2dd-]	32aaLLL	.	2.r	.
.	.	32bb- 32ccc	.	.	.
.	.	32aa	.	.	.
.	.	32bb- 32ccc	.	.	.
.	.	32aa	.	.	.
.	.	32bb- 32ccc	.	.	.
.	.	32aa	.	.	.
.	.	32bb-JJJ 32ccc	.	.	.
.	.	32aaLLL	.	.	.
.	.	32bb- 32ccc	.	.	.
.	.	32aa	.	.	.
.	.	32bb- 32ccc	.	.	.
.	.	32aa	.	.	.
.	.	32bb- 32ccc	.	.	.
.	.	32aa	.	.	.
.	.	32bb-JJJ 32ccc	.	.	.
.	4cc	32aa	.	.	.
.	.	32bb- 32ccc	.	.	.
.	.	32aa	.	.	.
.	.	32bb- 32ccc	.	.	.
.	.	32aa	.	.	.
.	.	32bb- 32ccc	.	.	.
.	.	32aa	.	.	.
.	.	32bb-JJJ 32ccc	.	.	.
*	*	*Xtremolo	*	*	*
=84	=84	=84	=84	=84	=84
*M3/8	*M3/8	*M3/8	*	*M3/8	*
4.BB-X 4.E-X	4.d-X 4.g	8r	p	4.r	.
.	.	8ee-XL	.	.	.
.	.	8ccJ	.	.	.
=85	=85	=85	=85	=85	=85
4.GG 4.C 4.B-X	8dn 8f#X	8eenL	.	4.r	.
.	4e-X 4b-X	8ff#X	.	.	.
.	.	8ee-XJ	.	.	.
=86	=86	=86	=86	=86	=86
*	*	*^	*	*	*
4.EEn 4.AA 4.G 4.c#X	4.d#X\	8bn	8ggL	.	4.r	.
.	.	4b-X	8ff#X	.	.	.
.	.	.	8dd#XJ	.	.	.
*	*	*v	*v	*	*	*
!!LO:LB:g=original
=87	=87	=87	=87	=87	=87
8EE 8AA 8G 8c#X	8d#X 8bn	8ggL	.	4.r	.
4GG 4Cn 4B-X	4e	8ddn 8bb-X	.	.	.
.	.	8dd-XJ 8gg	.	.	.
*	*v	*v	*	*	*
=88	=88	=88	=88	=88
*^	*	*	*	*
24GLL	8dnL	24r	pp	4.r	.
24AA	.	24bbnLL	.	.	.
24EEJJ	.	[24ffJJ	.	.	.
4r	8c#X	16ffLL]	.	.	.
.	.	[16eeJJ	.	.	.
.	8cnJ	12eeL]	.	.	.
.	.	24dd#XJk	.	.	.
=89	=89	=89	=89	=89	=89
*	*	*^	*	*	*
4.DD#X 4.AA 4.G	4c	8b 8dd#X	4.gg	.	4.r	.
.	.	16qd#XLL	.	<	.	.
.	.	16qgJJ	.	[	.	.
.	.	4b	.	.	.	.
.	8c	.	.	.	.	.
=90	=90	=90	=90	=90	=90	=90
24GLL	[4.c#X	12r	8r	.	4.r	.
24AA	.	.	.	.	.	.
24EEJJ	.	24dd#X	.	<	.	.
4r	.	[4b	8ff#XL	[	.	.
.	.	.	8dd#J	.	.	.
=91	=91	=91	=91	=91	=91	=91
*	*	*	*^	*	*	*
8r	8c#]	8d#X\	12bL]	8ggL	>	4.r	.
.	.	.	24b-XJk	.	.	.	.
4GG 4Cn	4B-X	4ryy	4e 4g	8ddn 8bb-X	] pp	.	.
.	.	.	.	8dd-XJ 8gg	.	.	.
*	*	*	*v	*v	*	*	*
*	*	*v	*v	*	*	*
!!LO:LB:g=original
=92	=92	=92	=92	=92	=92
24GLL	8dnL	24r	pp	4.r	.
.	.	8qbn	.	.	.
24AA	.	24bbnLL	.	.	.
24EEJJ	.	[24ffJJ	.	.	.
4r	8c#X	16ffLL]	.	.	.
.	.	[16eeJJ	.	.	.
.	8cnJ	12eeL]	.	.	.
.	.	24dd#XJk	.	.	.
=93	=93	=93	=93	=93	=93
*	*	*^	*	*	*
4.DD#X 4.AA 4.G	4c	8b 8dd#X	4.gg	.	4.r	.
.	.	16qd#XLL	.	<	.	.
.	.	16qgJJ	.	[	.	.
.	.	4b	.	.	.	.
.	8c	.	.	.	.	.
=94	=94	=94	=94	=94	=94	=94
24GLL	8dnL	8ryy	16r	.	4.r	.
24AA	.	.	.	.	.	.
.	.	.	[16b/	.	.	.
24EEJJ	.	.	.	.	.	.
4r	8c#X	4b]	16ffLL	.	.	.
.	.	.	16eeJJ	.	.	.
.	8cnJ	.	[8ee-X	.	.	.
=95	=95	=95	=95	=95	=95	=95
*	*^	*	*	*	*	*
24B\LL	16B/LL	8ryy	8ryy	16ee-LL]	.	4.r	.
24C	.	.	.	.	.	.	.
.	[16B-XJJ	.	.	[16dd	.	.	.
24GGJJ	.	.	.	.	.	.	.
4r	4B-]	16eKL	4dd]	16aa-X	.	.	.
.	.	8e-X	.	16ggJJ	.	.	.
.	.	.	.	[8gg-X	.	.	.
.	.	16dJk	.	.	.	.	.
!!LO:LB:g=original
=96	=96	=96	=96	=96	=96	=96	=96
24d\LL	16d/LL	8ryy	24gg-KL]	24r	.	4.r	.
24E-X	.	.	[12ffJ	24fffLL	.	.	.
.	[16d-XJJ	.	.	.	.	.	.
24BB-XJJ	.	.	.	[24ccc-XJJ	.	.	.
4rAA	4d-]	8gL	4ff]	16ccc-LL]	.	.	.
.	.	.	.	[16bb-XJJ	.	.	.
.	.	8g-XJ	.	12bb-LL]	.	.	.
.	.	.	.	24aanJJk	.	.	.
*	*v	*v	*	*	*	*	*
=97	=97	=97	=97	=97	=97	=97
4.AA 4.E-X 4.d-X	4g-X	8ff 8aa	4.ddd-X	.	4.r	.
.	.	16qaLL	.	.	.	.
.	.	16qdd-XJJ	.	.	.	.
.	.	4ff	.	.	.	.
.	8g-	.	.	.	.	.
=98	=98	=98	=98	=98	=98	=98
24d-XLL	[4.gn	12r	8r	.	4.r	.
24E-X	.	.	.	.	.	.
24BB-XJJ	.	24aa	.	<	.	.
4r	.	[4ff	8cccL	[	.	.
.	.	.	8aaJ	.	.	.
=99	=99	=99	=99	=99	=99	=99
*	*	*	*^	*	*	*
4.r	4g]	4.a\	12ffL]	8ddd-XL	>	4.r	.
.	.	.	24ff-XJk	.	.	.	.
.	.	.	4dd-X	8fff-X	]	.	.
.	8r	.	.	8ddd-J	.	.	.
*	*	*	*v	*v	*	*	*
*v	*v	*	*	*	*	*
!!LO:LB:g=original
=100||	=100||	=100||	=100||	=100||	=100||
*M3/4	*M3/4	*M3/4	*	*M3/4	*
.	16qcc#XLL	.	.	.	.
.	16qffnJJ	.	.	.	.
4BB 4Gn 4f	4aaX	4fffn	.	2.r	.
*	*v	*v	*	*	*
12r	4.c#X	p	.	.
12aL	.	.	.	.
12fJ	.	.	.	.
*^	*	*	*	*
12GL	6G	.	<	.	.
12BBJ	.	.	.	.	.
.	.	[8d	.	.	.
12r	12G	.	.	.	.
=101	=101	=101	=101	=101	=101
16r	4G	24dKL]	.	2.r	.
.	.	12e-	.	.	.
16BB-LL	.	.	.	.	.
16G	.	24gL	.	.	.
.	.	24a	.	.	.
16e-JJ	.	.	.	.	.
.	.	24ddJJ	.	.	.
*v	*v	*	*	*	*
*	*^	*	*	*
8a	[2dd-X	8r	.	.	.
!	!	!	!LO:HP:a=2	!	!
.	.	16qee-LL	<	.	.
.	.	16qggJJ	.	.	.
*	*	*tremolo	*	*	*
8r	.	32aaLLL	[	.	.
.	.	32bb- 32ccc	.	.	.
.	.	32aa	>	.	.
.	.	32bb-JJJ 32ccc	.	.	.
4r	.	32aaLLL	.	.	.
.	.	32bb- 32ccc	.	.	.
.	.	32aa	.	.	.
.	.	32bb- 32ccc	.	.	.
.	.	32aa	.	.	.
.	.	32bb- 32ccc	.	.	.
.	.	32aa	.	.	.
.	.	32bb-JJJ 32ccc	.	.	.
=102	=102	=102	=102	=102	=102
2.r	2dd-]	32aaLLL	.	2.r	.
.	.	32bb- 32ccc	.	.	.
.	.	32aa	.	.	.
.	.	32bb- 32ccc	.	.	.
.	.	32aa	.	.	.
.	.	32bb- 32ccc	.	.	.
.	.	32aa	.	.	.
.	.	32bb-JJJ 32ccc	.	.	.
.	.	32aaLLL	.	.	.
.	.	32bb- 32ccc	.	.	.
.	.	32aa	.	.	.
.	.	32bb- 32ccc	.	.	.
.	.	32aa	.	.	.
.	.	32bb- 32ccc	.	.	.
.	.	32aa	.	.	.
.	.	32bb-JJJ 32ccc	.	.	.
.	4cc	32aa	.	.	.
.	.	32bb- 32ccc	.	.	.
.	.	32aa	.	.	.
.	.	32bb- 32ccc	.	.	.
.	.	32aa	.	.	.
.	.	32bb- 32ccc	.	.	.
.	.	32aa	.	.	.
.	.	32bb-JJJ 32ccc	]	.	.
*	*	*Xtremolo	*	*	*
!!LO:LB:g=original
=103||	=103||	=103||	=103||	=103||	=103||
*M3/8	*M3/8	*M3/8	*	*M3/8	*
4.BB-X 4.E-X	4.d-X 4.g	8r	p	4.r	.
.	.	8ee-XL	.	.	.
.	.	8ccJ	.	.	.
=104	=104	=104	=104	=104	=104
4.GG 4.C 4.B-X	8dn 8f#X	8eenL	.	4.r	.
.	4e-X 4b-X	8ff#X	.	.	.
.	.	8ee-XJ	.	.	.
=105	=105	=105	=105	=105	=105
*	*	*^	*	*	*
4.EEn 4.AA 4.G 4.c#X	4.d#X\	8bn	8ggL	.	4.r	.
.	.	4b-X	8ff#X	.	.	.
.	.	.	8dd#XJ	.	.	.
*	*	*v	*v	*	*	*
=106	=106	=106	=106	=106	=106
8EE 8AA 8G 8c#X	8d#X 8bn	8ggL	.	4.r	.
4GG 4Cn 4B-X	4e	8ddn 8bb-X	.	.	.
.	.	8dd-XJ 8gg	.	.	.
*	*v	*v	*	*	*
=107	=107	=107	=107	=107
*^	*	*	*	*
24GLL	8dnL	24r	pp	4.r	.
.	.	8qbn	.	.	.
24AA	.	24bbnLL	.	.	.
24EEJJ	.	[24ffJJ	.	.	.
4r	8c#X	16ffLL]	.	.	.
.	.	[16eeJJ	.	.	.
.	8cnJ	12eeL]	<	.	.
.	.	24dd#XJk	[	.	.
=108	=108	=108	=108	=108	=108
*	*	*^	*	*	*
4.DD#X 4.AA 4.G	4c	8b 8dd#X	4.gg	.	4.r	.
.	.	16qd#XLL	.	<	.	.
.	.	16qgJJ	.	.	.	.
.	.	4b	.	[	.	.
.	8c	.	.	.	.	.
!!LO:LB:g=original
=109	=109	=109	=109	=109	=109	=109
24GLL	4.c#X	8r	12r	.	4.r	.
24AA	.	.	.	.	.	.
!	!	!	!	!LO:HP:a=2	!	!
24EEJJ	.	.	24ddd#X	<	.	.
4r	.	8f#XL	[4bb	[	.	.
.	.	8d#XJ	.	.	.	.
*v	*v	*	*	*	*	*
=110	=110	=110	=110	=110	=110
!	!	!	!LO:HP:a=2	!	!
4.r	8gL	12bbL]	>	4.r	.
.	.	24bb-XJk	.	.	.
.	8b-X	4gg	]	.	.
.	8gJ	.	.	.	.
=111	=111	=111	=111	=111	=111
*^	*	*	*	*	*
24GLL	8dnL	[4.bn	24r	.	4.r	.
24AA	.	.	24bbnLL	.	.	.
24EEJJ	.	.	[24ffJJ	.	.	.
8r	8c#X	.	16ffLL]	.	.	.
.	.	.	[16eeJJ	.	.	.
8r	8cnJ	.	12eeL]	.	.	.
.	.	.	[24dd#XJk	.	.	.
=112	=112	=112	=112	=112	=112	=112
4.GG 4.C	4B	8b] 8dd#]	8gg	.	4.r	.
*	*	*v	*v	*	*	*
.	.	8.d#XL	.	.	.
.	8B-X	.	.	.	.
.	.	16eJk	.	.	.
=113	=113	=113	=113	=113	=113
*M2/8	*M2/8	*M2/8	*	*M2/8	*
*	*	*^	*	*	*
4EE 4AA 4G	12dnL	8gL	12r	.	4r	.
.	12c#X	.	24bb	.	.	.
.	.	8bJ	24ffLL	.	.	.
.	12cnJ	.	24ee	.	.	.
.	.	.	48r	.	.	.
.	.	.	[48dd#XJJ	.	.	.
*	*	*v	*v	*	*	*
=114	=114	=114	=114	=114	=114
8GG 8C 8B	8B/L	8b 8dd#] 8gg	.	4r	.
8GG 8C	16.B>L	16.d#XLL	.	.	.
.	32B-X>JJk	32eJJk	.	.	.
*v	*v	*	*	*	*
!!LO:LB:g=original
=115	=115	=115	=115	=115
8r	8r	.	4r	.
*^	*^	*	*	*
24GGLL	[8C	24BnLL	[8d#	pp	.	.
24FF#	.	24A#	.	.	.	.
24FFnJJ	.	24AnJJ	.	.	.	.
=116||	=116||	=116||	=116||	=116||	=116||	=116||
*M9/16	*M9/16	*M9/16	*M9/16	*	*M9/16	*
[4.EE	4.C]	[4.G#X	8d#]	.	4.r	.
.	.	.	16b#X	<	.	.
.	.	.	[4.g#X	[	.	.
8.EE]	8.r	8.G#]	.	.	8.r	.
*v	*v	*	*	*	*	*
=117	=117	=117	=117	=117	=117
[4.CCC#X [4.CC#X	[4.A	8g#L]	>	4.r	.
.	.	16gnJk	.	.	.
.	.	4.e	.	.	.
8.CCC#] 8.CC#]	8.A]	.	]	8.r	.
=118	=118	=118	=118	=118	=118
*	*	*	*	*^	*
[4.CCC#X [4.CC#X	[4.A#X	16g#XLL	>	4.r	8.r	.
.	.	16a#X	.	.	.	.
.	.	16gnJJ	.	.	.	.
.	.	[4.f#X	]	.	8r	.
*	*	*	*	*	*8va	*
.	.	.	.	.	16aaa#X	p
8.CCC#_ 8.CC#_	8.A#_	.	.	16.r	8aa#X 8eee 8bbb#X	.
*	*	*	*	*	*X8va	*
.	.	.	.	32ff#X	.	.
.	.	.	.	16gg#X	16ryy	.
*	*	*	*	*v	*v	*
=119	=119	=119	=119	=119	=119
4.CCC#_ 4.CC#_	4.A#_	4.f#_	.	[4.cc#X	.
8.CCC#] 8.CC#]	8.A#]	8.f#]	.	8.cc#]	.
*	*clefF4	*clefF4	*	*	*
!!LO:LB:g=original
=120	=120	=120	=120	=120	=120
[4.EEE [4.EE	[4.GG#	8r	.	4.r	.
!	!	!	!LO:HP:a=2	!	!
.	.	16B#	<	.	.
.	.	[4.G#	[	.	.
8.EEE] 8.EE]	8.GG#]	.	.	8.r	.
=121	=121	=121	=121	=121	=121
!	!	!	!LO:HP:a=2	!	!
[4.CCC#X [4.CC#X	[4.AA	8G#L]	>	4.r	.
.	.	16GnJk	.	.	.
.	.	4.E	]	.	.
8.CCC#] 8.CC#]	8.AA]	.	.	8.r	.
=122	=122	=122	=122	=122	=122
!	!	!	!LO:HP:a=2	!	!
[4.CCC#X [4.CC#X	[4.AA#X	16G#XLL	>	8.r	.
.	.	16A#X	.	.	.
.	.	16GnJJ	.	.	.
.	.	[4.F#/	]	8.rf<	.
*	*	*	*	*^	*
.	.	.	.	.	16qa#XLL	.
.	.	.	.	.	16qcc#XJJ	.
8.CCC#] 8.CC#]	8.AA#_	.	.	N[8.dn<	8ee#XL	.
.	.	.	.	.	[16eenJk	.
*	*	*	*	*v	*v	*
=123	=123	=123	=123	=123	=123
*^	*	*	*	*	*
4.CCC# 4.CC#	8.r	8.AA#]	8.F#] 8.dN]	.	8ee]	.
.	.	.	.	.	16r	.
*	*	*v	*v	*	*	*
*	*	*clefG2	*	*	*
.	4.F# 4.A#	4.d	.	16r	.
*	*	*	*	*^	*
.	.	.	.	8a#	16ee#LL	>
.	.	.	.	.	16eenJJ	]
*^	*	*	*	*	*	*
16ryy	16r	.	.	.	16ryy	16r	.
16FF#\LL	[8FF#/	.	.	.	8a#	16ee#LL	.
[16CC#JJ	.	.	.	.	.	16eenJJ	.
*v	*v	*	*	*	*	*	*
!!LO:LB:g=original
=124	=124	=124	=124	=124	=124	=124
*	*	*	*	*	*	*^
8qCC#] 8qFF#]	.	.	.	.	.	.	.
!	!	!	!	!	!	!LO:DY:b=2	!
8.ryy	8.E#X 8.A#X/	16.c#XLL	p	16ryy	16r	p	.
!	!	!	!	!	!	!LO:HP:b=2	!
.	.	.	.	8a#X	16ff#XLL	<	p
.	.	16.c##XJJ	.	.	.	.	.
.	.	.	.	.	16ee#XJJ	.	.
!	!	!	!	!	!	!LO:HP:b=2	!
8r	4.En 4.A#	[8.d#X	.	16ryy	16r	[ >	.
.	.	.	.	8a#	16ggLL	.	.
[16FF#X	.	.	.	.	16ff#JJ	.	.
8.CC#X 8.FF#]	.	16.d#LL]	.	16ryy	16r	.	.
.	.	.	.	8a#	16ggLL	.	.
.	.	16.c##JJ	.	.	.	]	.
.	.	.	.	.	16ff#JJ	.	.
*	*	*	*	*	*	*v	*v
=125	=125	=125	=125	=125	=125	=125
*^	*	*	*	*	*	*
!	!	!	!	!	!	!	!LO:HP:b=2
8.ryy	8.r	8.EL 8.A#X	16.c##XLL	.	16ryy	16r	<
.	.	.	.	.	8a#X	16ggLL	.
.	.	.	16.d#XJJ	.	.	.	[
.	.	.	.	.	.	16ff#XJJ	.
16ryy	16r	8.D#X 8.A#X	[4e	.	16ryy	16r	.
!	!	!	!	!	!	!	!LO:HP:b=2
16FF#\LL	8FF#/	.	.	.	8a#	16ggLL	>
16CC#JJ	.	.	.	.	.	16ff#JJ	.
16ryy	16r	8.DnJ 8.A#X	.	.	16ryy	16r	.
16FF#\LL	8FF#/	.	32eLL_	.	8a#	16gg#LL	]
.	.	.	32.e]	.	.	.	.
16CC#JJ	.	.	.	.	.	16ggnJJ	.
.	.	.	32.d#XJJ	.	.	.	.
*v	*v	*	*	*	*	*	*
=126	=126	=126	=126	=126	=126	=126
8r	[4.C#X [4.A#X	[4.d#X	.	[4.a#X	[4.gg#X	.
[16FF#X	.	.	.	.	.	.
4.CC#X 4.FF#]	.	.	.	.	.	.
.	8.C#] 8.A#]	16.d#LL]	.	8.a#]	8gg#L]	.
.	.	16.eJJ	.	.	.	.
.	.	.	.	.	16ggnJk	.
*v	*v	*	*	*	*	*
=127	=127	=127	=127	=127	=127
8.C#L 8.A#/	16.d#LL	.	16ryy	16r	.
.	.	.	8a#	16gg#LL	.
.	16.e	.	.	.	.
.	.	.	.	16ggnJJ	.
8.A#	16.d#	.	16ryy	16r	.
.	.	.	8a#	16gg#LL	.
.	16.e	.	.	.	.
.	.	.	.	16ggnJJ	.
8.A#J	16.d#	.	16ryy	16r	.
.	.	.	8a#	16gg#LL	.
.	16.eJJ	.	.	.	.
.	.	.	.	16ggnJJ	.
*	*	*	*v	*v	*
!!LO:LB:g=original
=128	=128	=128	=128	=128
*M3/8	*M3/8	*	*M3/8	*
.	.	.	16qddnLL	.
.	.	.	16qffnJJ	.
8Dn 8B-X/	8fn	.	8aanL	.
8FFFL	8r	.	8aa-X	.
8BBB-XJ	8r	.	8ggJ	.
=129	=129	=129	=129	=129
.	.	.	16qb-XLL	.
.	.	.	16qddJJ	.
8FFL	4.r	.	8gg-XL	.
8D	.	.	8ff	.
8B-XJ	.	.	8eeJ	.
=130	=130	=130	=130	=130
*	*	*	*^	*
.	16qdLL	.	.	.	.
.	16qfJJ	.	.	.	.
4.r	8aL	mf	[4.dd	24cccLL	.
.	.	.	.	24ddd	.
.	.	.	.	24ccc-XJJ	.
.	8a-X	>	.	[8bb-X	.
.	8gJ	.	.	24bb-LL]	.
.	.	.	.	24cccn	.
.	.	.	.	24aanJJ	.
=131	=131	=131	=131	=131	=131
4.r	8g-XL	.	4.dd]	[8aa-X	.
.	8f	.	.	24aa-LL]	.
.	.	.	.	24bb-X	.
.	.	.	.	24ggJJ	.
.	8eJ	.	.	8gg-X	.
*	*	*	*v	*v	*
!!LO:LB:g=original
=132	=132	=132	=132	=132
*M9/16	*M9/16	*	*M9/16	*
*	*^	*	*	*
[4.AAA-X [4.AA-X	[4.c	8r	p	4.r	.
!	!	!	!LO:HP:a=2	!	!
.	.	16ee	<	.	.
.	.	[4.cc	[	.	.
8.AAA-] 8.AA-]	8.c]	.	.	8.r	.
=133	=133	=133	=133	=133	=133
!	!	!	!LO:HP:a=2	!	!
[4.FFF [4.FF	[4.d-	8ccL]	>	4.r	.
.	.	16cc-Jk	.	.	.
.	.	4.a-X	]	.	.
8.FFF] 8.FF]	8.d-]	.	.	8.r	.
=134	=134	=134	=134	=134	=134
*^	*	*	*^	*	*
!	!	!	!	!LO:HP:b=2	!LO:HP:a=2	!	!
[4.FF [4.BB-	8.An	[4.dn	16ccnLL	>	>	4.r	.
.	.	.	16dd	.	.	.	.
.	.	.	16cc-JJ	.	.	.	.
.	16A-LL	.	[4.b-	.	]	.	.
.	16B-	.	.	.	.	.	.
.	16GJJ	.	.	.	.	.	.
8.FF_ 8.BB-_	8.G-	8.d]	.	.	.	8.r	.
*	*	*	*	*v	*v	*	*
=135	=135	=135	=135	=135	=135	=135
*	*	*	*^	*	*	*
4.FF_ 4.BB-_	[8.F	[4.d\	16a-LL	4.b-_	.	4.r	.
.	.	.	16b-	.	.	.	.
.	.	.	16gJJ	.	.	.	.
.	16FL]	.	[8.g-	.	.	.	.
.	[8EJ	.	.	.	.	.	.
8.FF] 8.BB-]	8EL]	8.d\]	8g-L]	8.b-]	.	8.r	.
.	16FJ	.	16fJ	.	.	.	.
*	*	*	*v	*v	*	*	*
*v	*v	*	*	*	*	*
*	*clefF4	*clefF4	*	*	*
=136	=136	=136	=136	=136	=136
[4.AAA-X [4.AA-X	[4.C	8r	pp	4.r	.
.	.	16e	.	.	.
.	.	[4.c	.	.	.
8.AAA-] 8.AA-]	8.C]	.	.	8.r	.
=137	=137	=137	=137	=137	=137
[4.FFF [4.FF	[4.D-	8cL]	.	4.r	.
.	.	16c-Jk	.	.	.
.	.	4.A-X	.	.	.
8.FFF] 8.FF]	8.D-]	.	.	8.r	.
*	*v	*v	*	*	*
!!LO:LB:g=original
=138	=138	=138	=138	=138
*	*^	*	*	*
*	*	*^	*	*	*
[4.FFF [4.FF	[4.Dn\	16cn/LL	4.ra	.	4.r	.
.	.	16d	.	.	.	.
.	.	16c-JJ	.	.	.	.
.	.	[4.B-/	.	.	.	.
.	.	.	.	.	16qddLL	p <
.	.	.	.	.	16qffJJ	.
8.FFF] 8.FF]	8.D_\	.	[8.g-	.	8aanL	[ >
.	.	.	.	.	[16aa-J	]
*	*	*v	*v	*	*	*
=139	=139	=139	=139	=139	=139
*^	*	*	*	*	*
4.FFF 4.FF	8.r	8.D]	8.B-] 8.g-]	.	8.aa-]	.
*	*	*v	*v	*	*	*
*	*	*clefG2	*	*	*
.	4.B- 4.d	4.g-X	.	16r	.
*	*	*	*	*^	*
.	.	.	.	8dd	16aanLL	.
.	.	.	.	.	16aa-JJ	.
*^	*	*	*	*	*	*
16r	16r	.	.	.	16ryy	16r	.
16BB-\LL	[8BB-/	.	.	.	8dd	16aaLL	.
[16FFJJ	.	.	.	.	.	16aa-JJ	.
*v	*v	*	*	*	*	*	*
=140	=140	=140	=140	=140	=140	=140
*	*	*	*	*	*	*^
8qFF] 8qBB-]	.	.	pp	.	.	.	.
!	!	!	!	!	!	!LO:HP:b=2	!
8.r	8.An 8.d	16.fLL	.	16ryy	16r	p <	.
.	.	.	.	8dd	16bb-LL	.	pp
.	.	16.f#XJJ	.	.	.	[	.
.	.	.	.	.	16aanJJ	.	.
8r	4.A- 4.d	[8.g	.	16ryy	16r	.	.
!	!	!	!	!	!	!LO:HP:b=2	!
.	.	.	.	8dd	16ccc-LL	>	.
[16BB-X	.	.	.	.	16bb-JJ	.	.
8.FFn 8.BB-]	.	16.gLL]	.	16ryy	16r	.	.
.	.	.	.	8dd	16ccc-LL	.	.
.	.	16.f#JJ	.	.	.	]	.
.	.	.	.	.	16bb-JJ	.	.
*	*	*	*	*	*	*v	*v
=141	=141	=141	=141	=141	=141	=141
*^	*	*	*	*	*	*
!	!	!	!	!	!	!	!LO:HP:b=2
8.ryy	8.r	8.A-L 8.d	16.f#XLL	.	16ryy	16r	<
.	.	.	.	.	8dd	16ccc-LL	.
.	.	.	16.gJJ	.	.	.	[
.	.	.	.	.	.	16bb-JJ	.
16ryy	16r	8.G 8.d	[4a-	.	16ryy	16r	.
!	!	!	!	!	!	!	!LO:HP:b=2
16BB-\LL	8BB-/	.	.	.	8dd	16ccc-LL	>
16FFJJ	.	.	.	.	.	16bb-JJ	.
16ryy	16r	8.G-J 8.d	.	.	16ryy	16r	.
16BB-\LL	8BB-/	.	32a-LL_	.	8dd	16cccnLL	.
.	.	.	32.a-]	.	.	.	.
16FFJJ	.	.	.	.	.	16ccc-JJ	.
.	.	.	32.gnJJ	.	.	.	]
*v	*v	*	*	*	*	*	*
!!LO:LB:g=original
=142	=142	=142	=142	=142	=142	=142
!	!	!	!LO:HP:b=3	!	!	!
8r	[4.F [4.d	[4.g	<	16ryy	16r	<
.	.	.	.	[8dd	[8cccn	.
[16BB-X	.	.	.	.	.	.
4.FF 4.BB-]	.	.	.	8.dd_	8.ccc_	.
.	8.F] 8.d]	16.gLL]	.	8.dd]	8cccL]	.
.	.	16.a-XJJ	.	.	.	.
.	.	.	.	.	16ccc-XJk	.
=143	=143	=143	=143	=143	=143	=143
16%9r	8.FL 8.d	16.gLL	.	16ryy	16r	.
.	.	.	.	8dd	16cccnLL	.
.	.	16.a-X	.	.	.	.
.	.	.	.	.	16ccc-XJJ	.
.	8.d	16.g	.	16ryy	16r	.
.	.	.	.	8dd	16cccnLL	.
.	.	16.a-	.	.	.	.
.	.	.	.	.	16ccc-XJJ	.
.	8.dJ	16.g	.	16ryy	16r	.
.	.	.	.	8dd	16cccnLL	.
.	.	16.a-JJ	.	.	.	.
.	.	.	.	.	16ccc-XJJ	.
*v	*v	*	*	*	*	*
*	*	*	*v	*v	*
=144	=144	=144	=144	=144
*M3/8	*M3/8	*	*M3/8	*
*	*	*	*	*^
!	!	!	!	!	!LO:HP:b=1
.	.	.	16qff#XLL	.	<
.	.	.	16qaaJJ	.	[
!	!	!LO:DY:b=3	!	!	!
!	!	!	!	!	!LO:HP:b=1
8F#X 8d	8an	f	8ccc#XL	f	>
!	!	!	!	!	!LO:HP:b=1
.	.	.	16qff#LL	.	] <
.	.	.	16qaaJJ	.	[
!	!	!	!	!	!LO:HP:b=1
16AAALL	8r	.	8ccc#	.	>
16DD	.	.	.	.	.
!	!	!	!	!	!LO:HP:b=1
.	.	.	16qff#LL	.	] <
.	.	.	16qaaJJ	.	[
!	!	!	!	!	!LO:HP:b=1
16AA	8r	.	8ccc#J	.	>
16F#JJ	.	.	.	.	]
*	*	*	*	*v	*v
=145	=145	=145	=145	=145
.	.	.	16qff#XLL	.
.	.	.	16qaaJJ	.
8r	4.r	.	8ccc#XL	.
.	.	.	16qff#LL	.
.	.	.	16qaaJJ	.
16AALL	.	.	8ccc#	.
16D	.	.	.	.
.	.	.	16qff#LL	.
.	.	.	16qaaJJ	.
16A	.	.	8ccc#J	.
16f#JJ	.	.	.	.
*clefG2	*	*	*	*
!!LO:LB:g=original
=146	=146	=146	=146	=146
*	*	*^	*	*
.	16qff#XLL	.	.	.	.
.	16qaaJJ	.	.	.	.
!	!	!LO:DY:b=3	!	!	!
24eeLL	8ccc#XL	f	.	4.r	.
24ff#X	.	.	.	.	.
!	!	!LO:HP:b=3	!	!	!
24ee-XJJ	.	>	.	.	.
!	!	!	!LO:HP:b=2	!	!
[8dd	8cccn	.	>	.	.
24ddLL]	8bbJ	.	.	.	.
24een	.	.	.	.	.
24cc#XJJ	.	.	.	.	.
*	*	*v	*v	*	*
=147	=147	=147	=147	=147
[8ccn	8bb-XL	.	4.r	.
24ccLL]	8aa	.	.	.
24dd	.	.	.	.
24bnJJ	.	.	.	.
8b-X	8gg#XJ	.	.	.
*clefF4	*	*	*	*
=148	=148	=148	=148	=148
*	*^	*	*	*
*	*	*^	*	*	*
8A 8d 8a	8ryy	[4.ff#X	24eeeLL	mp	4.r	.
.	.	.	24fff#X	.	.	.
.	.	.	24eee-XJJ	.	.	.
.	16qf#X\LL	.	.	.	.	.
.	16qaJJ	.	.	.	.	.
8r	4cc#X\	.	[4ddd	.	.	.
8r	.	.	.	.	.	.
*	*	*v	*v	*	*	*
=149	=149	=149	=149	=149	=149
4.r	24ccnLL	8ff#] 8ddd]	.	4.r	.
.	24dd	.	.	.	.
.	24bJJ	.	.	.	.
.	.	16qff#XLL	.	.	.
.	.	16qaaJJ	.	.	.
.	[4b-X	4ccc#X	.	.	.
.	.	.	.	.	.
!!LO:LB:g=original
=150	=150	=150	=150	=150	=150
4AA-X 4E-X 4A-X	24b-LL]	8cccn	.	4.r	.
.	24cc	.	.	.	.
.	24b--JJ	.	.	.	.
.	.	16qccLL	.	.	.
.	.	16qee-XJJ	.	.	.
.	4a-X	4gg	.	.	.
8r	.	.	.	.	.
=151	=151	=151	=151	=151	=151
4.r	8rf	24gg-XLL	.	4.r	.
.	.	24aa-X	.	.	.
.	.	24ffJJ	.	.	.
.	16qc\LL	.	.	.	.
.	16qe-XJJ	.	.	.	.
.	4gn	[4een	.	.	.
=152	=152	=152	=152	=152	=152
4AAAn 4DD 4AAn	8f#X	24eeLL]	.	4.r	.
.	.	24ff#X	.	.	.
.	.	24ee-XJJ	.	.	.
.	16qF#X\LL	.	.	.	.
.	16qAJJ	.	.	.	.
.	8c#XL	[4dd	.	.	.
.	16qF#\LL	.	.	.	.
.	16qAJJ	.	.	.	.
8r	8c#J	.	.	.	.
=153	=153	=153	=153	=153	=153
4CCn 4FFn 4Cn	8fn 8a	24ddLL]	.	4.r	.
.	.	24een	.	.	.
.	.	24dd-XJJ	.	.	.
.	16qA\LL	.	.	.	.
.	16qcnJJ	.	.	.	.
.	8eL	[4cc	.	.	.
.	16qA\LL	.	.	.	.
.	16qcJJ	.	.	.	.
8r	8eJ	.	.	.	.
*	*v	*v	*	*	*
!!LO:LB:g=original
=154	=154	=154	=154	=154
*M9/16	*M9/16	*	*M9/16	*
*	*	*	*^	*
4.EE-X 4.AA-X 4.E-X	16cc/LL]	f	4.r	8.r	.
.	16ddn	.	.	.	.
.	16cc-XJJ	.	.	.	.
.	64%3cnLL 64%3e-X 64%3a-X 64%3b-X	.	.	8r	.
.	64%3c 64%3e- 64%3a- 64%3b-	.	.	.	.
.	64%3c 64%3e- 64%3a- 64%3b-	.	.	.	.
.	.	.	.	16ccc	f
.	64%3cJJ 64%3e- 64%3a- 64%3b-	.	.	.	.
8.r	64%3cLL 64%3e- 64%3a- 64%3b-	.	16.r	8cc 8gg-X 8ddd	.
.	64%3c 64%3e- 64%3a- 64%3b-	.	.	.	.
*	*	*	*clefF4	*	*
.	64%3c 64%3e- 64%3a- 64%3b-	.	32A-X	.	.
.	.	.	16B-X	16ryy	.
.	64%3cJJ 64%3e- 64%3a- 64%3b-	.	.	.	.
*	*	*	*v	*v	*
=155	=155	=155	=155	=155
16%9r	64%3cLL 64%3e-X 64%3a-X 64%3b-X	.	4.E-X	.
.	64%3c 64%3e- 64%3a- 64%3b-	.	.	.
.	64%3c 64%3e- 64%3a- 64%3b-	.	.	.
.	64%3cJJ 64%3e- 64%3a- 64%3b-	.	.	.
.	64%3cLL 64%3e- 64%3a- 64%3b-	.	.	.
.	64%3c 64%3e- 64%3a- 64%3b-	.	.	.
.	64%3c 64%3e- 64%3a- 64%3b-	.	.	.
.	64%3cJJ 64%3e- 64%3a- 64%3b-	.	.	.
.	64%3cLL 64%3e- 64%3a- 64%3b-	.	8.r	.
.	64%3c 64%3e- 64%3a- 64%3b-	.	.	.
.	64%3c 64%3e- 64%3a- 64%3b-	.	.	.
.	64%3cJJ 64%3e- 64%3a- 64%3b-	.	.	.
!!LO:LB:g=original
=156	=156	=156	=156	=156
*	*	*	*^	*
4.EE-X 4.AA-X 4.E-X	16cc/LL	.	4.r	8.r	.
.	16dd	.	.	.	.
.	16cc-XJJ	.	.	.	.
.	64%3cnLL 64%3e-X 64%3a-X 64%3b-X	.	.	8r	.
.	64%3c 64%3e- 64%3a- 64%3b-	.	.	.	.
.	64%3c 64%3e- 64%3a- 64%3b-	.	.	.	.
*	*	*	*	*clefG2	*
.	.	.	.	16ccc	.
.	64%3cJJ 64%3e- 64%3a- 64%3b-	.	.	.	.
8.r	64%3cLL 64%3e- 64%3a- 64%3b-	.	16.r	8cc 8gg-X 8ddd	.
.	64%3c 64%3e- 64%3a- 64%3b-	.	.	.	.
*	*	*	*clefF4	*	*
.	64%3c 64%3e- 64%3a- 64%3b-	.	32A-X	.	.
.	.	.	16B-X	16ryy	.
.	64%3cJJ 64%3e- 64%3a- 64%3b-	.	.	.	.
*	*	*	*v	*v	*
=157	=157	=157	=157	=157
16%9r	64%3cLL 64%3e-X 64%3a-X 64%3b-X	.	8.E-X	.
.	64%3c 64%3e- 64%3a- 64%3b-	.	.	.
.	64%3c 64%3e- 64%3a- 64%3b-	.	.	.
.	64%3cJJ 64%3e- 64%3a- 64%3b-	.	.	.
*	*	*	*clefG2	*
.	64%3cLL 64%3e- 64%3a- 64%3b-	.	8ggL	.
.	64%3c 64%3e- 64%3a- 64%3b-	<	.	<
.	64%3c 64%3e- 64%3a- 64%3b-	.	.	.
.	.	.	16gg-J	.
.	64%3cJJ 64%3e- 64%3a- 64%3b-	.	.	.
.	64%3cLL 64%3e- 64%3a- 64%3b-	.	8ggnL	.
.	64%3c 64%3e- 64%3a- 64%3b-	.	.	.
.	64%3c 64%3e- 64%3a- 64%3b-	.	.	.
.	.	.	16gg-J	.
.	64%3cJJ 64%3e- 64%3a- 64%3b-	[	.	[
!!LO:LB:g=original
=158	=158	=158	=158	=158
*	*^	*	*	*
8.r	16r	8ggnL	p	4.r	.
.	16ccLL	.	.	.	.
.	16a-XJJ	[16gg-XJk	.	.	.
16.cLL	16r	8gg-L]	.	.	.
.	16ccLL	.	.	.	.
16.E-X	.	.	.	.	.
.	16a-JJ	16ggnJk	.	.	.
16.AA-X	16r	16gg-XLL	.	8.r	.
.	16ccLL	16ff	.	.	.
16.EE-XJJ	.	.	.	.	.
.	16a-JJ	16ff-XJJ	.	.	.
=159	=159	=159	=159	=159	=159
*^	*	*	*	*	*
4.BBB 4.EEn 4.BB	8r	16r	4.dd#X	.	4.r	.
.	.	16bLL	.	.	.	.
.	16B	16gJJ	.	.	.	.
.	[8.G	16r	.	.	.	.
.	.	16bLL	.	.	.	.
.	.	16gJJ	.	.	.	.
8.r	8GL]	16r	8.ddn	.	8.r	.
.	.	16bLL	.	.	.	.
.	16G-XJk	16gnJJ	.	.	.	.
*v	*v	*	*	*	*	*
=160	=160	=160	=160	=160	=160
8.E-X	8gL	16r	.	4.r	.
.	.	16ccLL	.	.	.
.	[16g-XJk	16a-XJJ	.	.	.
16.cLL	8g-L]	16r	.	.	.
.	.	16ccLL	.	.	.
16.E-	.	.	.	.	.
.	16gnJk	16a-JJ	.	.	.
16.AA-X	16g-XLL	16r	.	8.r	.
.	16f	16ccLL	.	.	.
16.EE-XJJ	.	.	.	.	.
.	16enJJ	16a-JJ	.	.	.
!!LO:LB:g=original
=161	=161	=161	=161	=161	=161
*^	*	*	*	*	*
4.BBB 4.EEn 4.BB	8r	[4.d#	16r	.	4.r	.
.	.	.	16bLL	.	.	.
.	16Gn	.	16gnJJ	.	.	.
.	[8.D#	.	16r	.	.	.
.	.	.	16bLL	.	.	.
.	.	.	16gJJ	.	.	.
8.r	8D#L]	8d#L]	16r	.	8.r	.
.	.	.	16bLL	.	.	.
.	16DnJk	16eJ	16gJJ	.	.	.
*v	*v	*	*	*	*	*
=162	=162	=162	=162	=162	=162
8.BB	16r	8dd#L	.	4.r	.
.	16g#LL	.	.	.	.
.	16eJJ	[16ddnXJk	.	.	.
16.G#LL	16r	8ddL]	.	.	.
.	16g#LL	.	.	.	.
16.BB	.	.	.	.	.
.	16eJJ	16dd#Jk	.	.	.
16.EE	16r	16ddnXLL	.	8.r	.
.	16g#LL	16cc#	.	.	.
16.BBBJJ	.	.	.	.	.
.	16eJJ	16ccnXJJ	.	.	.
=163	=163	=163	=163	=163	=163
*	*	*^	*	*	*
16.GGGnLL	8rF	16rd	4.b	.	4.r	.
.	.	16gnX/LL	.	.	.	.
16.CC	.	.	.	.	.	.
.	16e-\	16e-XJJ	.	.	.	.
16.GGn	[8.B\	16rf	.	.	.	.
.	.	16g/LL	.	.	.	.
16.CJJ	.	.	.	.	.	.
.	.	16e-JJ	.	.	.	.
8.G	8B\L]	16rf	8.rff	.	8.r	.
.	.	16g/LL	.	.	.	.
.	16B-J	16e-JJ	.	.	.	.
!!LO:LB:g=original
=164	=164	=164	=164	=164	=164	=164
16.E-LL	8.G\	16rf	8rff	.	4.r	.
.	.	16e-LL	.	.	.	.
16.AA-	.	.	.	.	.	.
.	.	16c-JJ	16cc-	.	.	.
16.EE-	8.ryy	16rB	[8g.	.	.	.
.	.	16e-LL	.	.	.	.
16.AAA-JJ	.	.	.	.	.	.
.	.	16c-JJ	.	.	.	.
8.r	8.ryy	16rB	8gL]	.	8.r	.
.	.	16e-LL	.	.	.	.
.	.	16c-JJ	16g-J	.	.	.
*	*	*v	*v	*	*	*
=165	=165	=165	=165	=165	=165
16.BBBLL	16r	8d#L	.	4.r	.
.	16BLL	.	.	.	.
16.EEn	.	.	.	.	.
.	16GnJJ	[16d#J	.	.	.
16.BB	16r	8d#L]	.	.	.
.	16BLL	.	.	.	.
16.EnJJ	.	.	.	.	.
.	16GJJ	16dnJ	.	.	.
8.r	8.r	[8.g	.	8.r	.
.	.	.	.	.	.
.	.	.	.	.	.
=166	=166	=166	=166	=166	=166
16.E-LL	16r	8g]	.	4.r	.
.	16e-LL	.	.	.	.
16.AA-	.	.	.	.	.
.	16c-JJ	16cc-	.	.	.
16.EE-	16r	[8.g	.	.	.
.	16e-LL	.	.	.	.
16.AAA-JJ	.	.	.	.	.
.	16c-JJ	.	.	.	.
8.r	16r	8gL]	.	8.r	.
.	16e-LL	.	.	.	.
.	16c-JJ	16g-J	.	.	.
!!LO:LB:g=original
=167	=167	=167	=167	=167	=167
16.BBBLL	16r	8d#L	.	4.r	.
.	16BLL	.	.	.	.
16.EEn	.	.	.	.	.
.	16GnJJ	[16d#J	.	.	.
16.BB	16r	8d#L]	.	.	.
.	16BLL	.	.	.	.
16.EnJJ	.	.	.	.	.
.	16GJJ	16dnJ	.	.	.
8.r	8.r	[8.g	.	8.r	.
.	.	.	.	.	.
.	.	.	.	.	.
=168	=168	=168	=168	=168	=168
16.BBBLL	16r	8gL]	.	4.r	.
.	16BLL	.	.	.	.
16.EEn	.	.	.	.	.
.	16GnJJ	[16d#J	.	.	.
16.BB	16r	8d#L]	.	.	.
.	16BLL	.	.	.	.
16.EnJJ	.	.	.	.	.
.	16GJJ	16dnJ	.	.	.
[8.B	8.r	[8.g	.	8.r	.
.	.	.	.	.	.
.	.	.	.	.	.
*	*v	*v	*	*	*
=169	=169	=169	=169	=169
8.BL]	8gL]	<	4.r	.
.	16g-XJk	.	.	.
8.d#	8cc-XL	.	.	.
.	16b-Jk	.	.	.
8.gnJ	8ee-L	.	8.r	.
.	16ddnXJk	[	.	.
!!LO:LB:g=original
=170	=170	=170	=170	=170
*	*^	*	*	*
8.r	16r	8ggnL	f	4.r	.
.	16ccLL	.	.	.	.
.	16a-XJJ	[16gg-XJk	.	.	.
16.c/LL	16r	8gg-L]	.	.	.
.	16ccLL	.	.	.	.
16.E-X	.	.	.	.	.
.	16a-JJ	16ggnJk	.	.	.
16.AA-X	16r	16gg-XLL	.	8.r	.
.	16ccLL	16ff	.	.	.
16.EE-XJJ	.	.	.	.	.
.	16a-JJ	16ff-XJJ	.	.	.
=171	=171	=171	=171	=171	=171
16.BBBXLL	16r	4.dd#	.	4.r	.
.	16bLL	.	.	.	.
16.EEnX	.	.	.	.	.
.	16gnJJ	.	.	.	.
16.BBX	16r	.	.	.	.
.	16bLL	.	.	.	.
16.EnJJ	.	.	.	.	.
.	16gnJJ	.	.	.	.
8.B	8.r	8.ddn	.	8.r	.
*	*v	*v	*	*	*
=172	=172	=172	=172	=172
*^	*	*	*	*
80%9BBBL	8r	8r	.	4.r	.
80%9EE	.	.	.	.	.
.	[16G [16B	16g	.	.	.
.	4.G_ 4.B_	[4.d#X	.	.	.
80%9FF#X	.	.	.	.	.
80%9GG	.	.	.	.	.
.	.	.	.	8.r	.
80%9BBJ	.	.	.	.	.
!!LO:LB:g=original
=173	=173	=173	=173	=173	=173
*	*	*^	*	*	*
4.DDn 4.GG 4.Dn	4.G] 4.B]	8d#L]	8.r	.	4.r	.
.	.	16dnJk	.	.	.	.
!	!	!	!	!LO:HP:a=2	!	!
.	.	.	16qbLL	<	.	.
.	.	.	16qddnJJ	.	.	.
.	.	4.B	8.ff#X	[	.	.
!	!	!	!	!LO:HP:a=2	!	!
.	.	.	16qbLL	<	.	.
.	.	.	16qddJJ	.	.	.
*v	*v	*	*	*	*	*
8.r	.	8.ff#	[	8.r	.
=174	=174	=174	=174	=174	=174
8.r	16r	8ff#L	.	4.r	.
.	16bLL	.	.	.	.
.	16gJJ	[16ffnJk	.	.	.
16.BLL	16r	8ffL]	.	.	.
.	16bLL	.	.	.	.
16.D	.	.	.	.	.
.	16gJJ	16ff#Jk	.	.	.
16.GG	16r	16ffnLL	.	8.r	.
.	16bLL	16ee	.	.	.
16.DDJJ	.	.	.	.	.
.	16gJJ	16ee-XJJ	.	.	.
=175	=175	=175	=175	=175	=175
16.BBB-LL	16r	4.ddn	.	4.r	.
.	16b-XLL	.	.	.	.
16.EE-	.	.	.	.	.
.	16g-XJJ	.	.	.	.
16.BB-	16r	.	.	.	.
.	16b-LL	.	.	.	.
16.E-JJ	.	.	.	.	.
.	16g-JJ	.	.	.	.
8.B-	8.r	8.dd-	.	8.r	.
*	*v	*v	*	*	*
=176	=176	=176	=176	=176
*^	*	*	*	*
80%9BBB-L	8r	8r	.	4.r	.
80%9EE-	.	.	.	.	.
.	[16G- [16B-	16g-	.	.	.
.	4.G-_ 4.B-_	[4.dn	.	.	.
80%9FF	.	.	.	.	.
80%9GG-	.	.	.	.	.
.	.	.	.	8.r	.
80%9BB-J	.	.	.	.	.
!!LO:LB:g=original
=177	=177	=177	=177	=177	=177
*	*	*^	*	*	*
4.DD- 4.GG- 4.D-	4.G-] 4.B-]	8dL]	8.r	.	4.r	.
.	.	16d-Jk	.	.	.	.
!	!	!	!	!LO:HP:a=2	!	!
.	.	.	16qb-LL	<	.	.
.	.	.	16qdd-JJ	.	.	.
.	.	4.B-	8.ffX	[	.	.
!	!	!	!	!LO:HP:a=2	!	!
.	.	.	16qb-LL	<	.	.
.	.	.	16qdd-JJ	.	.	.
*v	*v	*	*	*	*	*
8.r	.	8.ff	[	8.r	.
*	*clefF4	*clefF4	*	*	*
=178	=178	=178	=178	=178	=178
80%9D-L	16r	[8.f	p	4.r	.
.	16B-LL	.	.	.	.
80%9BB-	.	.	.	.	.
.	16G-JJ	.	.	.	.
.	16r	16.fLL]	.	.	.
80%9AA-	.	.	.	.	.
.	16B-LL	.	.	.	.
.	.	16.f-JJ	.	.	.
.	16G-JJ	.	.	.	.
80%9GG-	.	.	.	.	.
.	16r	16.e-LL	.	8.r	.
.	16B-LL	.	.	.	.
80%9DD-J	.	.	.	.	.
.	.	16.e--JJ	.	.	.
.	16G-JJ	.	.	.	.
=179	=179	=179	=179	=179	=179
*	*	*^	*	*	*
16.AAAnLL	16r	8.ryy	[8.c#X	.	4.r	.
.	16A\LL	.	.	.	.	.
16.DDn	.	.	.	.	.	.
.	16FnJJ	.	.	.	.	.
16.EEn	16r	16ryy	8c#L]	.	.	.
.	16A\LL	[8A/	.	.	.	.
16.FFnJJ	.	.	.	.	.	.
.	[16FJJ	.	16cnJk	.	.	.
*	*	*v	*v	*	*	*
[8.C	8.F] 8.A]	[8.e	.	8.r	.
!!LO:LB:g=original
=180	=180	=180	=180	=180	=180
80%9CL]	16r	8.e_	.	4.r	.
.	16ALL	.	.	.	.
80%9AA	.	.	.	.	.
.	16FJJ	.	.	.	.
.	16r	16.eLL]	.	.	.
80%9GG	.	.	.	.	.
.	16ALL	.	.	.	.
.	.	16.e-JJ	.	.	.
.	16FJJ	.	.	.	.
80%9FF	.	.	.	.	.
.	16r	16.dLL	.	8.r	.
.	16ALL	.	.	.	.
80%9CCJ	.	.	.	.	.
.	.	16.d-JJ	.	.	.
.	16FJJ	.	.	.	.
=181	=181	=181	=181	=181	=181
16.AAA-LL	16r	[8.c	.	4.r	.
.	16A-LL	.	.	.	.
16.DD-	.	.	.	.	.
.	16F-JJ	.	.	.	.
16.EE-	16r	8cL]	.	.	.
.	16A-LL	.	.	.	.
16.FF-JJ	.	.	.	.	.
.	16F-JJ	16c-Jk	.	.	.
[8.Cn	8.Fn 8.An	[8.en	.	8.r	.
=182	=182	=182	=182	=182	=182
80%9CL]	16r	8.e_	.	4.r	.
.	16ALL	.	.	.	.
80%9AAn	.	.	.	.	.
.	16FJJ	.	.	.	.
.	16r	16.eLL]	.	.	.
80%9GG	.	.	.	.	.
.	16ALL	.	.	.	.
.	.	16.e-JJ	.	.	.
.	16FJJ	.	.	.	.
80%9FFn	.	.	.	.	.
.	16r	16.dLL	.	8.r	.
.	16ALL	.	.	.	.
80%9CCJ	.	.	.	.	.
.	.	16.d-JJ	.	.	.
.	16FJJ	.	.	.	.
!!LO:LB:g=original
=183	=183	=183	=183	=183	=183
64%9AAA-L	16r	[8.c	.	4.r	.
.	16A-LL	.	.	.	.
.	16F-JJ	.	.	.	.
64%9DD-	.	.	.	.	.
.	16r	8cL]	.	.	.
.	16A-LL	.	.	.	.
64%9EE-	.	.	.	.	.
.	16F-JJ	[16c-J	.	.	.
.	16r	8.c-]	.	8.r	.
64%9FF-J	.	.	.	.	.
.	16A-LL	.	.	.	.
.	16F-JJ	.	.	.	.
=184	=184	=184	=184	=184	=184
[4.AAA-X [4.AA-X	[4.Cn	8r	.	4.r	.
.	.	16en	.	.	.
.	.	[4.cn	.	.	.
8.AAA-] 8.AA-]	8.C]	.	.	8.r	.
=185	=185	=185	=185	=185	=185
[4.FFF [4.FF	[4.D-X	8cL]	.	4.r	.
.	.	16c-XJk	.	.	.
.	.	4.A-X	.	.	.
8.FFF] 8.FF]	8.D-]	.	.	8.r	.
=186	=186	=186	=186	=186	=186
[4.FFF [4.FF	[4.Dn	16cnLL	.	4.r	.
.	.	16d	.	.	.
.	.	16c-XJJ	.	.	.
.	.	[4.B-X	.	.	.
8.FFF_ 8.FF_	8.D_	.	.	8.r	.
=187	=187	=187	=187	=187	=187
4.FFF_ 4.FF_	4.D]	4.B-]	>	4.r	.
8.FFF] 8.FF]	8.D-X	8.Bn	]	8.r	.
!!LO:LB:g=original
=188	=188	=188	=188	=188	=188
[4.EEE [4.EE	[4.GG#X	8r	ppp	4.r	.
.	.	16B#X	.	.	.
.	.	[4.G#X	.	.	.
8.EEE] 8.EE]	8.GG#]	.	.	8.r	.
=189	=189	=189	=189	=189	=189
[4.CCC#X [4.CC#X	[4.AA	8G#L]	.	4.r	.
.	.	16GnJk	.	.	.
.	.	4.E	.	.	.
8.CCC#] 8.CC#]	8.AA]	.	.	8.r	.
=190	=190	=190	=190	=190	=190
[4.CCC#X [4.CC#X	[4.AA#X	16G#XLL	.	4.r	.
.	.	16A#X	.	.	.
.	.	16GnJJ	.	.	.
.	.	[4.F#X	.	.	.
8.CCC#_ 8.CC#_	8.AA#_	.	.	8.r	.
=191	=191	=191	=191	=191	=191
4.CCC#_ 4.CC#_	4.AA#]	4.F#]	.	4.r	.
8.CCC#] 8.CC#]	8.AAn	8.G	.	8.r	.
*	*v	*v	*	*	*
*	*clefG2	*	*	*
=192	=192	=192	=192	=192
*M3/8	*M3/8	*	*M3/8	*
*^	*^	*	*	*
8r	24A-XLL	4.c	16e-XLL	.	4.r	.
.	24B-X	.	.	<	.	.
.	.	.	16enJJ	.	.	.
.	24GJJ	.	.	[	.	.
16G-LL	4G-X	.	8.f	.	.	.
16AA-X	.	.	.	>	.	.
16EE-X	.	.	.	.	.	.
16AAA-XJJ	.	.	[16f-X	]	.	.
!!LO:LB:g=original
=193	=193	=193	=193	=193	=193	=193
8r	24GnLL	4.c	16f-LL]	.	4.r	.
.	24A-X	.	.	<	.	.
.	.	.	16fnJJ	.	.	.
.	24FJJ	.	.	[	.	.
16F-LL	4F-X	.	8.g-X	.	.	.
16AA-X	.	.	.	>	.	.
16EE-X	.	.	.	.	.	.
16AAA-XJJ	.	.	16fn	]	.	.
=194	=194	=194	=194	=194	=194	=194
*	*	*	*	*	*^	*
*	*	*	*	*	*	*^	*
[8qAAA- [8qEE- [8qAA-\	[8qE-	.	.	.	.	.	.	.
*v	*v	*	*	*	*	*	*	*
4.AAA-_ 4.EE-_ 4.AA-_ 4.E-_	4.c	16fLL	.	8cc\	8ryy	24bb-LL	p
.	.	.	.	.	.	24ccc	.
.	.	16g-JJ	.	.	.	.	.
.	.	.	.	.	.	24bb--JJ	.
.	.	16qcLL	<	.	.	.	.
.	.	16qe-JJ	.	.	.	.	.
.	.	16gnLL	[	16r	8ryy	[4aa-	.
.	.	16g-JJ	.	32ff-\LL	.	.	.
.	.	.	.	32ccJJ	.	.	.
.	.	16qcLL	<	.	.	.	.
.	.	16qe-JJ	.	.	.	.	.
.	.	16gnLL	[	16r	16ryy	.	.
.	.	16g-JJ	.	32ff-\LL	[16ff-/	.	.
.	.	.	.	[32ccJJ	.	.	.
*	*	*	*	*	*v	*v	*
*	*v	*v	*	*	*	*
=195	=195	=195	=195	=195	=195
.	16qcLL	<	.	.	.
.	16qe-JJ	.	.	.	.
4.AAA-] 4.EE-] 4.AA-] 4.E-]	16gLL	[	8cc] 8ff-]	8aa-]	.
.	16g-	.	.	.	.
*	*	*	*v	*v	*
.	16ffn	.	4r	.
.	16ff-	.	.	.
.	16cc	.	.	.
.	16a-JJ	.	.	.
!!LO:LB:g=original
=196	=196	=196	=196	=196
*^	*^	*	*	*
8r	24e--LL	4.g-X	16b--LL	.	4.r	.
.	24f-X	.	.	<	.	.
.	.	.	16b-XJJ	.	.	.
.	24d-XJJ	.	.	.	.	.
24d--LL	4d--	.	8.cc-X	[	.	.
24G-X	.	.	.	>	.	.
24AA-X	.	.	.	.	.	.
24EE-X	.	.	.	.	.	.
24AAA-XJJ	.	.	.	]	.	.
.	.	.	[16b-	.	.	.
24r	.	.	.	.	.	.
=197	=197	=197	=197	=197	=197	=197
8r	24d--LL	4.g-X	16b-LL]	.	4.r	.
.	24e--	.	.	<	.	.
.	.	.	16cc-XJJ	.	.	.
.	24c-XJJ	.	.	.	.	.
24c--LL	4c--	.	8.dd--	[	.	.
24G-X	.	.	.	>	.	.
24AA-X	.	.	.	.	.	.
24EE-X	.	.	.	.	.	.
24AAA--JJ	.	.	.	]	.	.
.	.	.	16cc-X	.	.	.
24r	.	.	.	.	.	.
!!LO:LB:g=original
=198	=198	=198	=198	=198	=198	=198
*	*	*	*	*	*^	*
*	*	*	*	*	*	*^	*
[8qAAA-X [8qEE-X [8qAA-X\	[8qG-X [8qB-X/	.	.	.	.	.	.	.
*	*	*	*	*	*8va	*8va	*8va	*
4.AAA-_ 4.EE-_ 4.AA-_\	4.G-_ 4.B-_/	4.g-X	16cc-XLL	.	8gg-X\	8ryy	24fff-XLL	.
.	.	.	.	.	.	.	24ggg-X	.
.	.	.	16ccnJJ	.	.	.	.	.
.	.	.	.	.	.	.	24eee-XJJ	.
.	.	.	16qg-LL	.	.	.	.	.
.	.	.	16qb--JJ	.	.	.	.	.
.	.	.	16dd-XLL	.	16r	8ryy	[4dddn	.
.	.	.	16ccJJ	.	32bb-X\LLL	.	.	.
.	.	.	.	.	32gg-JJJ	.	.	.
.	.	.	16qg-LL	.	.	.	.	.
.	.	.	16qb--JJ	.	.	.	.	.
.	.	.	16dd-LL	.	16r	16r	.	.
.	.	.	16ccJJ	.	32bb-\LLL	[16bb-/	.	.
.	.	.	.	.	[32gg-JJJ	.	.	.
*	*	*	*	*	*	*v	*v	*
*	*	*v	*v	*	*	*	*
=199	=199	=199	=199	=199	=199	=199
.	.	16qg-XLL	.	.	.	.
.	.	16qb--JJ	.	.	.	.
4.AAA-] 4.EE-] 4.AA-]	4.G-] 4.B-]	16dd-XLL	.	8gg-] 8bb-]	4.ddd]	.
.	.	16cc	.	.	.	.
*	*	*	*	*X8va	*X8va	*
.	.	16ccc-X	.	8r	.	.
.	.	16bb-X	.	.	.	.
.	.	16gg-X	.	8r	.	.
.	.	16ddnJJ	.	.	.	.
*	*	*	*	*v	*v	*
=200	=200	=200	=200	=200	=200
*	*	*^	*	*	*
8r	24A-XLL	4.cn 4.ccn	16e-XLL 16ee-X	.	4.r	.
.	24B-X	.	.	.	.	.
.	.	.	16enJJ 16een	<	.	.
.	24GnJJ	.	.	.	.	.
12G-L	4G-X	.	8.f 8.ff	[ >	.	.
24AA-XJk	.	.	.	.	.	.
24EE-XLL	.	.	.	]	.	.
24AAA-XJJ	.	.	.	.	.	.
.	.	.	16f-X 16ff-X	.	.	.
24r	.	.	.	.	.	.
!!LO:LB:g=original
=201	=201	=201	=201	=201	=201	=201
8r	24G-XLL	4.c 4.cc	16f-XLL 16ff-X	.	4.r	.
.	24A-X	.	.	.	.	.
.	.	.	16fnJJ 16ffn	<	.	.
.	24FJJ	.	.	.	.	.
12F-L	4F-X	.	8.g-X 8.gg-X	[ >	.	.
24AA-XJk	.	.	.	.	.	.
24EE-XLL	.	.	.	]	.	.
24AAA-XJJ	.	.	.	.	.	.
.	.	.	16fn 16ffn	.	.	.
24r	.	.	.	.	.	.
=202	=202	=202	=202	=202	=202	=202
8E-	4.E-X	4.c 4.cc	16fLL 16ff	.	4.r	.
.	.	.	16g-XJJ 16gg-X	.	.	.
.	.	.	16qccLL	.	.	.
.	.	.	16qee-XJJ	.	.	.
16AAA-X/LL	.	.	4ggn	.	.	.
16EE-X	.	.	.	.	.	.
16AA-X	.	.	.	.	.	.
16E-JJ	.	.	.	.	.	.
*v	*v	*	*	*	*	*
=203	=203	=203	=203	=203	=203
8r	24b-XLL	8r	.	4.r	.
.	24cc	.	.	.	.
.	24b--JJ	.	.	.	.
.	8.qa-\	16qa-XLL	.	.	.
.	.	16qcc	.	.	.
.	.	16qee-XJJ	.	.	.
16AA-XLL	8ryy	8gg/L	.	.	.
16E-X	.	.	.	.	.
.	.	16qccLL	.	.	.
.	.	16qee-JJ	.	.	.
16A-X	8ryy	8ggJ	.	.	.
16e-XJJ	.	.	.	.	.
!!LO:LB:g=original
=204	=204	=204	=204	=204	=204
*^	*	*	*	*	*
8r	24cLL	4.en 4.een	16gLL 16gg	.	4.r	.
.	24d	.	.	.	.	.
.	.	.	16g#XJJ 16gg#X	.	.	.
.	24BnJJ	.	.	.	.	.
24B-LL	4B-X	.	8.a 8.aa	.	.	.
24C	.	.	.	.	.	.
24GG	.	.	.	.	.	.
24CC	.	.	.	.	.	.
24GGGJJ	.	.	.	.	.	.
.	.	.	16a-X 16aa-X	.	.	.
24r	.	.	.	.	.	.
=205	=205	=205	=205	=205	=205	=205
8r	24B-XLL	4.e 4.ee	16a-XLL 16aa-X	.	4.r	.
.	24c	.	.	.	.	.
.	.	.	16anJJ 16aan	.	.	.
.	24AJJ	.	.	.	.	.
24A-LL	4A-X	.	8.b-X 8.bb-X	.	.	.
24C	.	.	.	.	.	.
24GG	.	.	.	.	.	.
24CC	.	.	.	.	.	.
24GGGJJ	.	.	.	.	.	.
.	.	.	16an 16aan	.	.	.
24r	.	.	.	.	.	.
=206	=206	=206	=206	=206	=206	=206
8r	4.G	4.e 4.ee	16aLL 16aa	.	4.r	.
.	.	.	16b-XJJ 16bb-X	.	.	.
.	.	.	16qeeLL	.	.	.
.	.	.	16qggJJ	.	.	.
16GGGLL	.	.	4bbn	.	.	.
16CC	.	.	.	.	.	.
16GG	.	.	.	.	.	.
16EJJ	.	.	.	.	.	.
*v	*v	*	*	*	*	*
=207	=207	=207	=207	=207	=207
8r	24ddLL	8r	.	4.r	.
.	24ee	.	.	.	.
.	24dd-XJJ	.	.	.	.
.	8.qcc\	16qccLL	.	.	.
.	.	16qee	.	.	.
.	.	16qggJJ	.	.	.
16GGLL	8ryy	8bb/L	.	.	.
16C	.	.	.	.	.
.	.	16qeeLL	.	.	.
.	.	16qggJJ	.	.	.
16G	8ryy	8bbJ	.	.	.
16eJJ	.	.	.	.	.
!!LO:LB:g=original
=208	=208	=208	=208	=208	=208
*M9/16	*	*	*	*	*
*^	*	*	*	*	*
8.r	16e-XLL	[4.g [4.gg	16.b-XLL 16.bb-X	.	4.r	.
.	16f	.	.	.	.	.
.	.	.	16.bnJJ 16.bbn	.	.	.
.	16dJJ	.	.	.	.	.
8r	4.d-X	.	[8.cc [8.ccc	.	.	.
16g	.	.	.	.	.	.
16d-LL	.	8.g] 8.gg]	16.ccLL] 16.ccc]	.	8.r	.
16E-XJJ	.	.	.	.	.	.
.	.	.	16.cc-XJJ 16.ccc-X	.	.	.
16r	.	.	.	.	.	.
=209	=209	=209	=209	=209	=209	=209
8.r	16d-XLL	[4.g [4.gg	16.cc-XLL 16.ccc-X	.	4.r	.
.	16e-	.	.	.	.	.
.	.	.	16.ccnJJ 16.cccn	.	.	.
.	16cJJ	.	.	.	.	.
8r	4.c-X	.	[8.dd- [8.ddd-	.	.	.
16e-	.	.	.	.	.	.
16GLL	.	8.g] 8.gg]	16.dd-LL] 16.ddd-]	.	8.r	.
16BB-XJJ	.	.	.	.	.	.
.	.	.	16.ccnJJ 16.cccn	.	.	.
16r	.	.	.	.	.	.
=210	=210	=210	=210	=210	=210	=210
8.r	4.B-XLL	[4.g [4.gg	16.ccLL 16.ccc	.	4.r	.
.	.	.	16.dd-JJ 16.ddd-	.	.	.
8r	.	.	[8.ddn [8.dddn	.	.	.
16B-	.	.	.	.	.	.
16E-LL	8.r	8.g] 8.gg]	16.ddLL] 16.ddd]	.	8.r	.
16GGJJ	.	.	.	.	.	.
.	.	.	16.dd-JJ 16.ddd-	.	.	.
16r	.	.	.	.	.	.
*v	*v	*	*	*	*	*
!!LO:LB:g=original
=211	=211	=211	=211	=211	=211
32GLLL	8.ryy	8.r	.	16dd-XLL 16gg 16ccc-X 16ddd-X	.
32BB-X	.	.	.	.	.
32EE-XJJJ	.	.	.	16ddn 16gg 16ccc- 16dddn	.
32r	.	.	.	.	.
16r	.	.	.	[16ee-XJJ [16gg [16ccc- [16eee-X	.
8.r	8.g	32ddLLL	.	16ee-LL] 16gg] 16ccc-] 16eee-]	.
.	.	32dd-XJJJ	.	.	.
.	.	8ddn	.	16dd 16gg 16ccc- 16ddd	.
.	.	.	.	16ee-JJ 16gg 16ccc- 16eee-	.
[8qBBB-X [8qEE- [8qBB-	.	.	.	.	.
8.BBB-] 8.EE-] 8.BB-] 8.G	16ryy	16r	.	16eenLL 16gg 16ccc- 16eeen	.
.	16gLL	32ddLLL	.	16ee-X 16gg 16ccc- 16eee-X	.
.	.	32dd-X	.	.	.
.	16gJJ	32ddn	.	16eenJJ 16gg 16ccc- 16eeen	.
.	.	32dd-XJJJ	.	.	.
*	*v	*v	*	*	*
=212||	=212||	=212||	=212||	=212||
*M3/4	*M3/4	*	*M3/4	*
*	*^	*	*	*
!	!	!	!LO:DY:b=3	!	!
12r	8g	16ddnLL	f	8ff 8gg 8ddd-X 8fff	f
.	.	16dd-XJJ	.	.	.
24d-XLL	.	.	.	.	.
*	*v	*v	*	*	*
24E-X	8r	.	8r	.
24GG	.	.	.	.
24GGGJJ	.	.	.	.
4r	4.A	.	8r<	.
.	.	<	16qa<LL	.
.	.	.	16qdd-X<JJ	.
.	.	[	48ff<LLL	.
*	*	*	*8va	*
.	.	.	48bb 48dddn 48fff 48ggg\	.
.	.	.	48ff< 48ddd-X<	.
.	.	.	48bb 48dddn 48fff 48ggg	.
.	.	.	48ff< 48ddd-X<	.
.	.	.	48bbJJJ 48dddn 48fff 48ggg	.
6r	.	.	48ff<LLL 48ddd-X<	.
.	.	.	48fff 48ggg\	.
.	.	.	48ff	.
.	.	.	48fff 48ggg	.
.	.	.	48ff	.
.	.	.	48fff 48ggg	.
.	[8B-X\	.	48ff	.
.	.	.	48fff 48ggg	.
12E-	.	.	48ff	.
.	.	.	48fff 48ggg	.
.	.	.	48ff	.
.	.	.	48fffJJJ 48ggg	.
*	*	*	*X8va	*
!!LO:LB:g=original
=213	=213	=213	=213	=213
*^	*	*	*	*
12.r	4D#X	24B-K\L]	.	4r	.
.	.	12B	.	.	.
24FFF#XLL 24FF#X	.	24d#XL	.	.	.
24D#	.	24e#X	.	.	.
24BJJ	.	24a#XJJ	.	.	.
8e#X	4ryy	4.an\	.	8r	.
.	.	.	<	16qb<LL	.
.	.	.	.	16qdd#X<JJ	.
8r	.	.	[	48ee#X<LLL	.
*	*	*	*	*8va	*
.	.	.	.	48aa 48ddd#X 48fff#X 48ggg#X\	.
.	.	.	.	48ee#< 48aa#X<	.
.	.	.	.	48aan 48ddd# 48fff# 48ggg#	.
.	.	.	.	48ee#< 48aa#X<	.
.	.	.	.	48aanJJJ 48ddd# 48fff# 48ggg#	.
4r	4ryy	.	.	48ee#<LLL 48aa#X<	.
.	.	.	.	48fff# 48ggg#\	.
.	.	.	.	48ee#	.
.	.	.	.	48fff# 48ggg#	.
.	.	.	.	48ee#	.
.	.	.	.	48fff# 48ggg#	.
.	.	[8g#X\	.	48ee#	.
.	.	.	.	48fff# 48ggg#	.
.	.	.	.	48ee#	.
.	.	.	.	48fff# 48ggg#	.
.	.	.	.	48ee#	.
.	.	.	.	48fff#JJJ 48ggg#	.
*v	*v	*	*	*	*
!!LO:LB:g=original
=214	=214	=214	=214	=214
12.r	4g#\]	.	48ff#XLLL	.
.	.	.	48fff#X 48ggg#X	.
.	.	.	48ff#	.
.	.	.	48fff# 48ggg#	.
.	.	.	48ff#	.
.	.	.	48fff#JJJ 48ggg#	.
24AAAnLL 24AAn	.	.	8r	.
24Dn	.	.	.	.
24AJJ	.	.	.	.
8f#X	4b\	.	8r	.
.	.	<	16qdd<LL	.
.	.	.	16qff#<JJ	.
8r	.	[	48gg#X<LLL	.
.	.	.	48ccc 48fff# 48gggn 48aaa\	.
.	.	.	48gg#< 48ccc#X<	.
.	.	.	48cccn 48fff# 48ggg 48aaa	.
.	.	.	48gg#< 48ccc#X<	.
.	.	.	48cccnJJJ 48fff# 48ggg 48aaa	.
*^	*^	*	*	*
4r	8r	4g#X	12r	.	48gg#LLL	.
.	.	.	.	.	48ggg 48aaa	.
.	.	.	.	.	48gg#	.
.	.	.	.	.	48ggg 48aaa	.
.	.	.	24ff#X/	.	48gg#	.
.	.	.	.	.	48ggg 48aaa	.
.	24.r	.	8dd 8gg#X/	.	48gg#	.
.	.	.	.	.	48ggg 48aaa	.
.	.	.	.	.	48gg#	.
.	48d/KLL	.	.	.	48ggg 48aaa	.
.	24eJJ	.	.	.	48gg#	.
.	.	.	.	.	48gggJJJ 48aaa	.
!!LO:LB:g=original
=215	=215	=215	=215	=215	=215	=215
[8qA	.	.	.	.	.	.
16ALL	4A]	4d 4f#X 4cc	8g#XL	.	48gg#XLLL	.
.	.	.	.	.	48ggg#X 48aaa	.
.	.	.	.	.	48gg#	.
16DJJ	.	.	.	.	48ggg# 48aaa	.
.	.	.	.	.	48gg#	.
.	.	.	.	.	48ggg# 48aaa	.
8r	.	.	8aJ	.	48gg#	.
.	.	.	.	.	48ggg# 48aaa	.
.	.	.	.	.	48gg#	.
.	.	.	.	.	48ggg# 48aaa	.
.	.	.	.	.	48gg#	.
.	.	.	.	.	48ggg#JJJ 48aaa	.
*	*	*	*	*	*X8va	*
*	*	*v	*v	*	*	*
*^	*	*	*	*	*
[4qBB\	.	16qBB/LL	.	.	.	.
.	[8.qF#\	16qF#	.	.	.	.
.	.	16qd#>	.	<	.	.
.	.	16qf#>JJ	.	.	.	.
*	*v	*v	*	*	*	*
*v	*v	*	*	*	*
4BB] 4F#X]	2ryy	[	48a#X<LLL	.
.	.	.	48ddn 48ggn 48aan 48bb\	.
.	.	.	48a#< 48dd#X<	.
.	.	.	48ddn 48gg 48aa 48bb	.
.	.	.	48a#< 48dd#X<	.
.	.	.	48ddn 48gg 48aa 48bb	.
.	.	.	48a#< 48dd#X<	.
.	.	.	48ddn 48gg 48aa 48bb	.
.	.	.	48a#< 48dd#X<	.
.	.	.	48ddn 48gg 48aa 48bb	.
.	.	.	48a#< 48dd#X<	.
.	.	.	48ddnJJJ 48gg 48aa 48bb	.
*^	*	*	*	*
*	*^	*	*	*	*
*	*	*^	*	*	*	*
[4qBB-\	.	.	16qBB-/LL	.	.	.	.
.	[4qGn\	.	16qGn	.	.	.	.
.	.	[8.qe-\	16qe-	.	.	.	.
.	.	.	16qgn>	.	<	.	.
16qBB-_\	.	.	16qb->JJ	.	.	.	.
*	*	*v	*v	*	*	*	*
*	*v	*v	*	*	*	*
*v	*v	*	*	*	*
4BB-] 4G] 4e-]	.	[	48dd<LLL	.
*	*	*	*8va	*
.	.	.	48gg-X 48ccc-X 48ddd-X 48eee-X\	.
.	.	.	48dd< 48ggn<	.
.	.	.	48gg-X 48ccc- 48ddd- 48eee-	.
.	.	.	48dd< 48ggn<	.
.	.	.	48gg-X 48ccc- 48ddd- 48eee-	.
.	.	.	48dd< 48ggn<	.
.	.	.	48gg-X 48ccc- 48ddd- 48eee-	.
.	.	.	48dd< 48ggn<	.
.	.	.	48gg-X 48ccc- 48ddd- 48eee-	.
.	.	.	48dd< 48ggn<	.
.	.	.	48gg-XJJJ 48ccc- 48ddd- 48eee-	.
!!LO:LB:g=original
=216	=216	=216	=216	=216
12AA#X 12F#X 12en	4b#X 4een 4gg#X	.	4bb#X 4eeen 4ggg#X	.
24e\LL	.	.	.	.
24F#	.	.	.	.
24AA#	.	.	.	.
24AAA#XJJ	.	.	.	.
4r	4.B#X	.	8r	.
.	.	<	16qb#X<LL	.
.	.	.	16qee<JJ	.
.	.	[	48gg#X<LLL	.
.	.	.	48ccc##X 48eee#X 48ggg# 48aaa#X\	.
.	.	.	48gg#< 48eeen<	.
.	.	.	48ccc## 48eee#X 48ggg# 48aaa#	.
.	.	.	48gg#< 48eeen<	.
.	.	.	48ccc##JJJ 48eee#X 48ggg# 48aaa#	.
6r	.	.	48gg#<LLL 48eeen<	.
.	.	.	48ggg# 48aaa#\	.
.	.	.	48gg#	.
.	.	.	48ggg# 48aaa#	.
.	.	.	48gg#	.
.	.	.	48ggg# 48aaa#	.
.	[8c#X\	.	48gg#	.
.	.	.	48ggg# 48aaa#	.
12F#	.	.	48gg#	.
.	.	.	48ggg# 48aaa#	.
.	.	.	48gg#	.
.	.	.	48ggg#JJJ 48aaa#	.
!!LO:LB:g=original
=217	=217	=217	=217	=217
*^	*	*	*	*
12.r	4F#X	24c#K\L]	.	4r	.
.	.	12d	.	.	.
24AAAnLL 24AAn	.	24f#XL	.	.	.
24F#	.	24g#X	.	.	.
24dJJ	.	24cc#XJJ	.	.	.
8g#X	4ryy	4.ccn	.	8r	.
.	.	.	<	16qdd<LL	.
.	.	.	.	16qff#X<JJ	.
8r	.	.	[	48gg#X<LLL	.
.	.	.	.	48ccc 48fff#X 48aaan 48bbb\	.
.	.	.	.	48gg#< 48ccc#X<	.
.	.	.	.	48cccn 48fff# 48aaa 48bbb	.
.	.	.	.	48gg#< 48ccc#X<	.
.	.	.	.	48cccnJJJ 48fff# 48aaa 48bbb	.
4r	4ryy	.	.	48gg#<LLL 48ccc#X<	.
.	.	.	.	48aaa 48bbb\	.
.	.	.	.	48gg#	.
.	.	.	.	48aaa 48bbb	.
.	.	.	.	48gg#	.
.	.	.	.	48aaa 48bbb	.
.	.	[8b	.	48gg#	.
.	.	.	.	48aaa 48bbb	.
.	.	.	.	48gg#	.
.	.	.	.	48aaa 48bbb	.
.	.	.	.	48gg#	.
.	.	.	.	48aaaJJJ 48bbb	.
*v	*v	*	*	*	*
!!LO:LB:g=original
=218	=218	=218	=218	=218
12.r	4b]	.	48gg#XLLL	.
.	.	.	48aaa 48bbb	.
.	.	.	48gg#	.
.	.	.	48aaa 48bbb	.
.	.	.	48gg#	.
.	.	.	48aaaJJJ 48bbb	.
24AAALL 24AA	.	.	8r	.
24D	.	.	.	.
24AJJ	.	.	.	.
8f#X	4dd	.	8r	.
.	.	<	16qdd<LL	.
.	.	.	16qff#X<JJ	.
8r	.	[	48gg#<LLL	.
.	.	.	48ccc 48fff#X 48aaa 48bbb\	.
.	.	.	48gg#< 48ccc#X<	.
.	.	.	48cccn 48fff# 48aaa 48bbb	.
.	.	.	48gg#< 48ccc#X<	.
.	.	.	48cccnJJJ 48fff# 48aaa 48bbb	.
4r	4b	.	48r	.
.	.	.	48cccLLL 48fff# 48aaa 48bbb\	.
.	.	.	48gg#< 48ccc#X<	.
.	.	.	48cccn 48fff# 48aaa 48bbb	.
.	.	.	48gg#< 48ccc#X<	.
.	.	.	48cccn 48fff# 48aaa 48bbb	.
.	.	.	48gg#< 48ccc#X<	.
.	.	.	48cccn 48fff# 48aaa 48bbb	.
.	.	.	48gg#< 48ccc#X<	.
.	.	.	48cccn 48fff# 48aaa 48bbb	.
.	.	.	48gg#< 48ccc#X<	.
.	.	.	48cccnJJJ 48fff# 48aaa 48bbb	.
!!LO:LB:g=original
=219	=219	=219	=219	=219
!LO:T:lv	!LO:T:lv	!	!	!
[2.FF#X [2.BB [2.F#X	[2.f#X [2.d#X [2.b [2.dd#X	.	4r	.
.	.	.	16qdd#X<LL	<
.	.	.	16qff#X<JJ	.
.	.	.	48aa#X<LLL	[
.	.	.	48dddn 48gggn 48aaan 48bbb\	.
.	.	.	48aa#< 48ddd#X<	.
.	.	.	48dddn 48ggg 48aaa 48bbb	.
.	.	.	48aa#< 48ddd#X<	.
.	.	.	48dddn 48ggg 48aaa 48bbb	.
.	.	.	48aa#< 48ddd#X<	.
.	.	.	48dddn 48ggg 48aaa 48bbb	.
.	.	.	48aa#< 48ddd#X<	.
.	.	.	48dddn 48ggg 48aaa 48bbb	.
.	.	.	48aa#< 48ddd#X<	.
.	.	.	48dddnJJJ 48ggg 48aaa 48bbb	.
.	.	.	16qdd#<LL	<
.	.	.	16qff#<JJ	.
.	.	.	48aa#<LLL	[
.	.	.	48ddd 48ggg 48aaa 48bbb\	.
.	.	.	48aa#< 48ddd#X<	.
.	.	.	48dddn 48ggg 48aaa 48bbb	.
.	.	.	48aa#< 48ddd#X<	.
.	.	.	48dddn 48ggg 48aaa 48bbb	.
.	.	.	48aa#< 48ddd#X<	.
.	.	.	48dddn 48ggg 48aaa 48bbb	.
.	.	.	48aa#< 48ddd#X<	.
.	.	.	48dddn 48ggg 48aaa 48bbb	.
.	.	.	48aa#< 48ddd#X<	.
.	.	.	48dddnJJJ 48ggg 48aaa 48bbb	.
!!LO:LB:g=original
=220	=220	=220	=220	=220
*	*^	*	*	*
.	.	.	.	16qdd#<LL	<
.	.	.	.	16qff#<JJ	.
2.FF#] 2.BB] 2.F#]	2.f#] 2.b]	4d#] 4dd#]	.	48aa#<LLL	[
.	.	.	.	48dddn 48ggg 48aaan 48aaa#X 48bbb\	.
.	.	.	.	48dd#X< 48aan< 48aa#X< 48ddd#X<	.
.	.	.	.	48dddn 48ggg 48aaan 48aaa#X 48bbb	.
.	.	.	.	48dd#X< 48aan< 48aa#X< 48ddd#X<	.
.	.	.	.	48dddn 48ggg 48aaan 48aaa#X 48bbb	.
.	.	.	.	48dd#X< 48aan< 48aa#X< 48ddd#X<	.
.	.	.	.	48dddn 48ggg 48aaan 48aaa#X 48bbb	.
.	.	.	.	48dd#X< 48aan< 48aa#X< 48ddd#X<	.
.	.	.	.	48dddn 48ggg 48aaan 48aaa#X 48bbb	.
.	.	.	.	48dd#X< 48aan< 48aa#X< 48ddd#X<	.
.	.	.	.	48dddnJJJ 48ggg 48aaan 48aaa#X 48bbb	.
.	.	4f# 4ff#	.	48aa#XLLL	.
.	.	.	.	48aaa#X 48bbb	.
.	.	.	.	48aa#	.
.	.	.	.	48aaa# 48bbb	.
.	.	.	.	48aa#	.
.	.	.	.	48aaa# 48bbb	.
.	.	.	.	48aa#	.
.	.	.	.	48aaa# 48bbb	.
.	.	.	.	48aa#	.
.	.	.	.	48aaa# 48bbb	.
.	.	.	.	48aa#	.
.	.	.	.	48aaa#JJJ 48bbb	.
.	.	4d# 4dd#	.	48aa#LLL	.
.	.	.	.	48aaa# 48bbb	.
.	.	.	.	48aa#	.
.	.	.	.	48aaa# 48bbb	.
.	.	.	.	48aa#	.
.	.	.	.	48aaa# 48bbb	.
.	.	.	.	48aa#	.
.	.	.	.	48aaa# 48bbb	.
.	.	.	.	48aa#	.
.	.	.	.	48aaa# 48bbb	.
.	.	.	.	48aa#	.
.	.	.	.	48aaa#JJJ 48bbb	.
*	*v	*v	*	*	*
!!LO:LB:g=original
=221	=221	=221	=221	=221
[8qCC [8qFFn [8qC	.	.	.	.
2.CC] 2.FF] 2.C] 2.An 2.c	2.g 2.an 2.cc 2.gg	.	4r	.
.	.	.	16qee<LL	<
.	.	.	16qgg<JJ	.
.	.	.	64bb<LLLL	[
.	.	.	64ccc 64eee 64ggg 64bbb\	.
.	.	.	64een< 64gg< 64bb< 64eee-X<	.
.	.	.	64ccc 64eeen 64ggg 64bbb	.
.	.	.	64een< 64gg< 64bb< 64eee-X<	.
.	.	.	64ccc 64eeen 64ggg 64bbb	.
.	.	.	64een< 64gg< 64bb< 64eee-X<	.
.	.	.	64ccc 64eeen 64ggg 64bbb	.
.	.	.	64een< 64gg< 64bb< 64eee-X<	.
.	.	.	64ccc 64eeen 64ggg 64bbb	.
.	.	.	64een< 64gg< 64bb< 64eee-X<	.
.	.	.	64ccc 64eeen 64ggg 64bbb	.
.	.	.	64een< 64gg< 64bb< 64eee-X<	.
.	.	.	64ccc 64eeen 64ggg 64bbb	.
.	.	.	64een< 64gg< 64bb< 64eee-X<	.
.	.	.	64cccJJJJ 64eeen 64ggg 64bbb	.
.	.	.	16qeen<LL	<
.	.	.	16qgg<JJ	.
.	.	.	64bb<LLLL	[
.	.	.	64ccc 64eee 64ggg 64bbb\	.
.	.	.	64een< 64gg< 64bb< 64eee-X<	.
.	.	.	64ccc 64eeen 64ggg 64bbb	.
.	.	.	64een< 64gg< 64bb< 64eee-X<	.
.	.	.	64ccc 64eeen 64ggg 64bbb	.
.	.	.	64een< 64gg< 64bb< 64eee-X<	.
.	.	.	64ccc 64eeen 64ggg 64bbb	.
.	.	.	64een< 64gg< 64bb< 64eee-X<	.
.	.	.	64ccc 64eeen 64ggg 64bbb	.
.	.	.	64een< 64gg< 64bb< 64eee-X<	.
.	.	.	64ccc 64eeen 64ggg 64bbb	.
.	.	.	64een< 64gg< 64bb< 64eee-X<	.
.	.	.	64ccc 64eeen 64ggg 64bbb	.
.	.	.	64een< 64gg< 64bb< 64eee-X<	.
.	.	.	64cccJJJJ 64eeen 64ggg 64bbb	.
*	*	*	*X8va	*
!!LO:LB:g=original
=222	=222	=222	=222	=222
*M9/16	*M9/16	*	*M9/16	*
*^	*	*	*	*
8.ryy	8.r	8r	.	4.r	.
.	.	32aLLL	<	.	.
.	.	32ccJJJ	.	.	.
[8qCC [8qFF [8qC\	.	.	.	.	.
4.CC] 4.FF] 4.C]	4.A 4.c 4.e 4.g	[8.ee	[ >	.	.
.	.	8ee]	]	8.r	.
.	.	32aLLL	<	.	.
.	.	32ccJJJ	.	.	.
=223	=223	=223	=223	=223	=223
4.r	4.A 4.c 4.e 4.g	[8.ee	[ >	4.rr	.
.	.	8ee]	]	.	.
.	.	32aLLL	<	.	.
.	.	32ccJJJ	.	.	.
8.r	8.A 8.c 8.e 8.g	8.ee	[ > ]	8.r	.
*v	*v	*	*	*	*
=224||	=224||	=224||	=224||	=224||
*	*^	*	*	*
8.r	16r	8eeL	p	4.r	.
.	16aLL	.	.	.	.
.	16fJJ	[16ee-XJk	.	.	.
16.ALL	16r	8ee-L]	.	.	.
.	16aLL	.	.	.	.
16.C	.	.	.	.	.
.	16fJJ	16eenJk	.	.	.
16.FF	16r	16ee-XLL	.	8.r	.
.	16aLL	16dd	.	.	.
16.CCJJ	.	.	.	.	.
.	16fJJ	16dd-XJJ	.	.	.
=225	=225	=225	=225	=225	=225
16.AAA-XLL	16r	4.cc	.	4.r	.
.	16a-XLL	.	.	.	.
16.DD-X	.	.	.	.	.
.	16f-XJJ	.	.	.	.
16.AA-X	16r	.	.	.	.
.	16a-LL	.	.	.	.
16.D-XJJ	.	.	.	.	.
.	16f-JJ	.	.	.	.
16.A-X	8.r	8.cc-X	.	8.r	.
16.r	.	.	.	.	.
!!LO:LB:g=original
=226	=226	=226	=226	=226	=226
8.r	16r	8eeL	.	4.r	.
.	16anLL	.	.	.	.
.	16fnJJ	[16ee-XJk	.	.	.
16.AnLL	16r	8ee-L]	.	.	.
.	16aLL	.	.	.	.
16.C	.	.	.	.	.
.	16fJJ	16eenJk	.	.	.
16.FF	16r	16ee-XLL	.	8.r	.
.	16aLL	16dd	.	.	.
16.CCJJ	.	.	.	.	.
.	16fJJ	16dd-XJJ	.	.	.
=227	=227	=227	=227	=227	=227
16.AAA-XLL	16r	[8.cc	.	4.r	.
.	16a-XLL	.	.	.	.
16.DD-X	.	.	.	.	.
.	16f-XJJ	.	.	.	.
16.AA-X	16r	8ccL]	.	.	.
.	16a-LL	.	.	.	.
16.D-XJJ	.	.	.	.	.
.	16f-JJ	16cc-J	.	.	.
16.A-X	8.r	8.a-	.	8.r	.
16.r	.	.	.	.	.
=228	=228	=228	=228	=228	=228
8.r	16r	8ccnL	.	4.r	.
.	16fnLL	.	.	.	.
.	16d-JJ	[16cc-Jk	.	.	.
16.FLL	16r	8cc-L]	.	.	.
.	16fLL	.	.	.	.
16.AA-	.	.	.	.	.
.	16d-JJ	16ccJk	.	.	.
16.DD-	16r	16cc-XLL	.	8.r	.
.	16fLL	16b-	.	.	.
16.AAA-JJ	.	.	.	.	.
.	16d-JJ	16b--XJJ	.	.	.
!!LO:LB:g=original
=229	=229	=229	=229	=229	=229
16.EEELL	16r	8g#L	.	4.r	.
.	16eLL	.	.	.	.
16.AAAn	.	.	.	.	.
.	16cnJJ	[16gJk	.	.	.
16.EE	16r	8gL]	.	.	.
.	16eLL	.	.	.	.
16.AAnJJ	.	.	.	.	.
.	16cJJ	16g#Jk	.	.	.
16.E	8.r	16gXLL	.	8.r	.
.	.	16f#	.	.	.
16.r	.	.	.	.	.
.	.	16fXJJ	.	.	.
=230	=230	=230	=230	=230	=230
16.CLL	16r	[8.e	.	4.r	.
.	16cLL	.	.	.	.
16.FF	.	.	.	.	.
.	16A-JJ	.	.	.	.
16.CC	16r	8eL]	.	.	.
.	16cLL	.	.	.	.
16.FFFJJ	.	.	.	.	.
.	16A-JJ	16e-Jk	.	.	.
8.r	8.r	[8.c	.	8.r	.
=231	=231	=231	=231	=231	=231
16.AAA-LL	16r	8.c_	.	4.r	.
.	16A-LL	.	.	.	.
16.DD-	.	.	.	.	.
.	16F-JJ	.	.	.	.
16.AA-	16r	8cL]	.	.	.
.	16A-LL	.	.	.	.
16.D-JJ	.	.	.	.	.
.	16F-JJ	16c-Jk	.	.	.
8.r	8.r	[8.en	.	8.r	.
=232	=232	=232	=232	=232	=232
16.CLL	16r	8.e_	.	4.r	.
.	16cnLL	.	.	.	.
16.FF	.	.	.	.	.
.	16A-JJ	.	.	.	.
16.CC	16r	8eL]	.	.	.
.	16cLL	.	.	.	.
16.FFFJJ	.	.	.	.	.
.	16A-JJ	16e-Jk	.	.	.
8.r	8.r	[8.c	.	8.r	.
!!LO:LB:g=original
=233	=233	=233	=233	=233	=233
16.AAA-LL	16r	8.c_	.	4.r	.
.	16A-LL	.	.	.	.
16.DD-	.	.	.	.	.
.	16F-JJ	.	.	.	.
16.AA-	16r	8cL]	.	.	.
.	16A-LL	.	.	.	.
16.D-JJ	.	.	.	.	.
.	16F-JJ	16c-Jk	.	.	.
8.r	8.r	8.f-	.	8.r	.
=234	=234	=234	=234	=234	=234
16.AAA-LL	16r	[8.cn	.	4.r	.
.	16A-LL	.	.	.	.
16.DD-	.	.	.	.	.
.	16F-JJ	.	.	.	.
16.AA-	16r	8cL]	.	.	.
.	16A-LL	.	.	.	.
16.D-JJ	.	.	.	.	.
.	16F-JJ	16c-Jk	.	.	.
[8.A-	8.r	[8.f-	.	8.r	.
*	*v	*v	*	*	*
=235	=235	=235	=235	=235
8.A-L]	8f-L]	.	4.r	.
.	16e-XJk	<	.	.
8.cn	8a-XL	.	.	.
.	16a--Jk	.	.	.
8.f-XJ	8ccnL	.	8.r	.
.	16cc-XJk	[	.	.
=236	=236	=236	=236	=236
*^	*^	*	*	*
8.ryy	8.r	8r	8.ryy	.	4.r	.
.	.	32fn\LLL	.	f <	.	.
.	.	32a-XJJJ	.	.	.	.
[8qAAA-X [8qDD-X [8qAA-X\	.	.	.	.	.	.
4.AAA-] 4.DD-] 4.AA-]	4.F 4.A-X 4.c 4.e-X	[8.ccn	4.ff	[	.	.
.	.	8cc]	.	.	8.r	.
.	.	32fLLL	.	<	.	.
.	.	32a-JJJ	.	.	.	.
!!LO:LB:g=original
=237	=237	=237	=237	=237	=237	=237
16%9r	4.F 4.A-X 4.c 4.e-X	[8.cc	4.ff	[	4.r	.
.	.	8cc]	.	.	.	.
.	.	32fLLL	.	<	.	.
.	.	32a-XJJJ	.	.	.	.
.	8.F 8.A- 8.c 8.e-	8.cc	8.ff	[	8.r	.
*v	*v	*	*	*	*	*
=238	=238	=238	=238	=238	=238
8.r	16r	8ccL	.	4.r	.
.	16fLL	.	p	.	.
.	16d-XJJ	[16cc-XJk	.	.	.
16.FLL	16r	8cc-L]	.	.	.
.	16fLL	.	.	.	.
16.AA-X	.	.	.	.	.
.	16d-JJ	16ccnJk	.	.	.
16.DD-X	16r	16cc-XLL	.	8.r	.
.	16fLL	16b-X	.	.	.
16.AAA-XJJ	.	.	.	.	.
.	16d-JJ	16anJJ	.	.	.
=239	=239	=239	=239	=239	=239
16.EEELL	16r	4.g#X	.	4.r	.
.	16eLL	.	.	.	.
16.AAAn	.	.	.	.	.
.	16cnJJ	.	.	.	.
16.EE	16r	.	.	.	.
.	16eLL	.	.	.	.
16.AAnJJ	.	.	.	.	.
.	16cJJ	.	.	.	.
8.E	8.r	8.gn	.	8.r	.
*	*v	*v	*	*	*
!!LO:LB:g=original
=240	=240	=240	=240	=240
8.r	8.r	.	4.r	.
.	16qeLL	<	.	.
.	16qgJJ	[	.	.
8.GGGL	4.b	>	.	.
8.CCJ	.	]	8.r	.
=241	=241	=241	=241	=241
*	*^	*	*	*
8.GGL	4.ryy	8.r	.	4.r	.
.	.	16qeLL	<	.	.
.	.	16qgJJ	.	.	.
8.EJ	.	4.b	[	.	.
8.r	16dLL	.	>	8.r	.
.	16e	.	.	.	.
.	16d-XJJ	.	]	.	.
=242	=242	=242	=242	=242	=242
8.r	16r	8bL	.	4.r	.
.	16eLL	.	.	.	.
.	16cJJ	[16b-XJk	.	.	.
16.ELL	16r	8b-L]	.	.	.
.	16eLL	.	.	.	.
16.GG	.	.	.	.	.
.	16cJJ	16bnJk	.	.	.
16.CC	16r	16b-XLL	.	8.r	.
.	16eLL	16a	.	.	.
16.GGGJJ	.	.	.	.	.
.	16cJJ	16a-XJJ	.	.	.
=243	=243	=243	=243	=243	=243
16.EEE-XLL	16r	4.g	.	4.r	.
.	16e-XLL	.	.	.	.
16.AAA-X	.	.	.	.	.
.	16c-XJJ	.	.	.	.
16.EE-X	16r	.	.	.	.
.	16e-LL	.	.	.	.
16.AA-XJJ	.	.	.	.	.
.	16c-JJ	.	.	.	.
8.E-X	8.r	8.g-X	.	8.r	.
*	*v	*v	*	*	*
!!LO:LB:g=original
=244	=244	=244	=244	=244
8.r	8.r	.	4.r	.
!	!	!LO:HP:a=2	!	!
.	16qd#XLL	<	.	.
.	16qf#XJJ	.	.	.
8.FFF#X\L	4.a#X	[	.	.
8.BBBJ	.	.	8.r	.
=245	=245	=245	=245	=245
*^	*	*	*	*
8.FF#XL	4.r	8.r	.	4.r	.
!	!	!	!LO:HP:a=2	!	!
.	.	16qd#XLL	<	.	.
.	.	16qf#XJJ	.	.	.
8.D#XJ	.	4.a#X	[	.	.
8.r	[8.c#X	.	.	8.r	.
*v	*v	*	*	*	*
=246	=246	=246	=246	=246
*M3/8	*M3/8	*	*M3/8	*
*^	*	*^	*	*
8FFF#X 8BBB 8FF#X 8D#X	24c#LL]	8r	.	.	4.r	.
.	24d#X	.	>	.	.	.
.	24cnJJ	.	.	.	.	.
!	!	!	!	!LO:HP:a=2	!	!
.	.	16qd#XLL	.	<	.	.
.	.	16qf#XJJ	.	.	.	.
4r	[4B	4a#X	]	[	.	.
.	.	.	.	.	.	.
*	*	*	*v	*v	*	*
=247	=247	=247	=247	=247	=247
4r	8B]	24anLL	.	4.r	.
.	.	24b	.	.	.
.	.	24g#XJJ	.	.	.
.	16qD#XLL	.	.	.	.
.	16qF#XJJ	.	.	.	.
.	4A#X	[4gn	.	.	.
8r	.	.	.	.	.
=248	=248	=248	=248	=248	=248
*	*	*^	*^	*	*
8FFFn 8CC 8C	8An	8ryy	24gLL]	>	.	4.r	.
.	.	.	24a	.	.	.	.
.	.	.	24g-XJJ	.	.	.	.
!	!	!	!	!	!LO:HP:a=2	!	!
.	.	.	16qaLL	.	<	.	.
.	.	.	16qccJJ	.	.	.	.
*v	*v	*	*	*	*	*	*
4r	4f	4ee	]	[	.	.
.	.	.	.	.	.	.
*	*	*	*v	*v	*	*
!!LO:LB:g=original
=249	=249	=249	=249	=249	=249
4.r	8r	24ee-XLL	.	4.rr	.
.	.	24ff	<	.	.
.	.	24ddJJ	.	.	.
.	16qALL	.	.	.	.
.	16qcnJJ	.	[	.	.
.	4en	[4cc#X	> ]	.	.
=250	=250	=250	=250	=250	=250
8FFF#X 8BBB 8BB\	[4.d#X	24cc#LL]	.	4.r	.
!	!	!	!LO:HP:b=3	!	!
.	.	24dd#X	<	.	.
.	.	24ccnJJ	.	.	.
16qD#XLL	.	.	.	.	.
16qF#XJJ	.	.	.	.	.
4A#X/	.	[4b	[	.	.
.	.	.	.	.	.
=251	=251	=251	=251	=251	=251
*^	*	*	*^	*	*
4.r	24AnLL	8d#]	8b]	.	.	4.rr	.
*	*	*v	*v	*	*	*	*
.	24B	.	.	.	.	.
!	!	!	!LO:HP:b=3	!LO:HP:a=2	!	!
.	24G#XJJ	.	>	<	.	.
.	.	16qd#XLL	.	.	.	.
.	.	16qf#XJJ	.	.	.	.
.	[4Gn	4a#X	.	[	.	.
.	.	.	.	.	.	.
*	*	*	*v	*v	*	*
=252	=252	=252	=252	=252	=252
8FFFn 8CC 8C	24GLL]	8an	.	4.r	.
.	24A	.	.	.	.
.	24G-XJJ	.	.	.	.
*	*	*^	*	*	*
.	.	[8qA\	16qALL	.	.	.
.	.	.	16qcJJ	.	.	.
4r	4F	4A]	4e	.	.	.
.	.	.	.	.	.	.
*v	*v	*	*	*	*	*
=253	=253	=253	=253	=253	=253
8FFF#XL	4.A	24d#XLL	.	4.r	.
.	.	24e#X	.	.	.
.	.	24dnJJ	.	.	.
8BBB	.	4c#X	.	.	.
8BBJ	.	.	.	.	.
!!LO:LB:g=original
=254	=254	=254	=254	=254	=254
8CnL	8ryy	8r	.	4.r	.
.	[8qA\	16qALL	.	.	.
.	.	16qcnJJ	.	.	.
8CCn	4A]	4e	.	.	.
8FFFnJ	.	.	.	.	.
=255	=255	=255	=255	=255	=255
8FFF#XL	4.A	24d#XLL	.	4.r	.
.	.	24e#X	.	.	.
.	.	24dnJJ	.	.	.
8BBB	.	4c#X	.	.	.
8BBJ	.	.	.	.	.
*	*v	*v	*	*	*
=256	=256	=256	=256	=256
8CnL	8r	.	4.r	.
.	16qALL	.	.	.
.	16qcnJJ	.	.	.
8CCn	4e	.	.	.
[8FFFJ	.	.	.	.
=257	=257	=257	=257	=257
.	16qALL	.	.	.
.	16qcJJ	.	.	.
8FFFL]	4e	.	4.r	.
8CC	.	.	.	.
.	16qALL	.	.	.
.	16qcJJ	.	.	.
8CJ	[8e	.	.	.
=258	=258	=258	=258	=258
4r	8e]	.	4.r	.
.	8r	.	.	.
.	16qALL	<	.	.
.	16qcJJ	.	.	.
[8FF [8C	[8e	[ >	.	.
=259	=259	=259	=259	=259
8FF] 8C]	8e]	]	4.r	.
.	16qc#XLL	<	.	.
.	16qeJJ	.	.	.
4EE 4C#X 4A	4g#X	[ > ]	.	.
!!LO:LB:g=original
=260||	=260||	=260||	=260||	=260||
*M3/4	*M3/4	*	*M3/4	*
.	.	.	16qf#XLL	<
.	.	.	16qb-XJJ	[
4EE 4Cn 4B-X	4r	.	4dd	> ]
.	.	.	16qf#LL	<
.	.	.	16qb-JJ	[
12r	4.F#X	mp	4dd	> ]
12dL	.	.	.	.
12B-J	.	<	.	.
*^	*	*	*	*
.	.	.	.	16qgLL	<
.	.	.	.	16qb-JJ	[
12CL	6C	.	.	4dd	> ]
12EEJ	.	.	.	.	.
.	.	[8G	.	.	.
12r	12C	.	[	.	.
=261	=261	=261	=261	=261	=261
*	*	*	*	*tremolo	*
.	.	.	.	16qa-LL	<
.	.	.	.	16qccJJ	[
2.EE-	2.C	24GL]	.	32ddLLL	>
.	.	.	.	32ee- 32ffn	.
.	.	12A-	.	.	.
.	.	.	.	32dd	.
.	.	.	.	32ee- 32ff	.
.	.	24c	.	32dd	.
.	.	.	.	32ee- 32ff	.
.	.	24d	.	.	.
.	.	.	.	32dd	.
.	.	24gJ	.	.	.
.	.	.	.	32ee-JJJ 32ff	]
.	.	.	.	16qa-LL	<
.	.	.	.	16qccJJ	[
.	.	4.g-	.	32ddLLL	>
.	.	.	.	32ee- 32ff	.
.	.	.	.	32dd	.
.	.	.	.	32ee- 32ff	.
.	.	.	.	32dd	.
.	.	.	.	32ee- 32ff	.
.	.	.	.	32dd	.
.	.	.	.	32ee-JJJ 32ff	]
.	.	.	.	16qa-LL	<
.	.	.	.	16qccJJ	[
.	.	.	.	32ddLLL	>
.	.	.	.	32ee- 32ff	.
.	.	.	.	32dd	.
.	.	.	.	32ee- 32ff	.
.	.	[8f	.	32dd	.
.	.	.	.	32ee- 32ff	.
.	.	.	.	32dd	.
.	.	.	.	32ee-JJJ 32ff	]
*	*	*	*	*Xtremolo	*
*v	*v	*	*	*	*
=262	=262	=262	=262	=262
.	.	.	16qbLL	<
.	.	.	16qdd#XJJ	[
16r	4f]	p	4ee#X	> ]
16FF#XLL	.	.	.	.
16BB	.	.	.	.
16F#XJJ	.	.	.	.
.	.	.	16qbLL	<
.	.	.	16qdd#JJ	[
8d#X	4g#X	.	4ee#	> ]
8r	.	.	.	.
.	.	.	16qbLL	<
.	.	.	16qdd#JJ	[
*^	*	*	*	*
4r	8r	4e#X	.	16ee#LL	>
.	.	.	.	16dd#J	.
.	24.r	.	.	8ee#J	]
.	48BKLL	.	.	.	.
.	24c#XJJ	.	.	.	.
*v	*v	*	*	*	*
!!LO:LB:g=original
=263	=263	=263	=263	=263
*	*^	*	*	*^
[8qF#X	.	.	.	16qbLL	.	.
.	.	.	.	16qdd#XJJ	.	.
16F#LL]	8B 8d#X 8e#X	4a	.	[8ee#L	.	.
16BBJJ	.	.	.	.	.	.
8r	8r	.	.	40ee#LL]	.	.
.	.	.	.	40dd#	.	.
.	.	.	.	40b	.	.
.	.	.	.	40e#X	.	.
.	.	.	.	40f#XJJJ	.	.
!	!	!	!	!	!	!LO:HP:b=1
.	.	.	.	16qcLL	.	<
.	.	.	.	16qe-JJ	.	[
*	*v	*v	*	*	*	*
!	!	!	!	!LO:HP:a=2	!LO:HP:b=1
4AA-X 4E-X	4r	.	4g	<	> ]
!	!	!	!	!	!LO:HP:b=1
.	.	.	16qenLL	.	<
.	.	.	16qgJJ	.	[
!	!	!	!	!	!LO:HP:b=1
4GG 4En 4c	4r	.	4b	.	> ]
*	*	*	*	*v	*v
=264	=264	=264	=264	=264
.	.	.	16qaLL	<
.	.	.	16qdd-XJJ	[
4GG 4E-X 4d-X	4r	.	4ffn	> ]
.	.	.	16qfLL	<
.	.	.	16qdd-JJ	[
12r	4.A	mp	4ff	> ]
12fL	.	.	.	.
12d-J	.	<	.	.
.	.	.	16qb-XLL	<
.	.	.	16qdd-JJ	[
*^	*	*	*	*
12E-L	6E-	.	.	4ff	> ]
12GGJ	.	.	.	.	.
.	.	[8B-X	.	.	.
12r	12E-	.	[	.	.
=265	=265	=265	=265	=265	=265
*	*	*	*	*tremolo	*
.	.	.	.	16qbnLL	<
.	.	.	.	16qdd#JJ	[
2.FF#	2.D#	24B-L]	mf	32ee#LLL	>
.	.	.	.	32ff# 32gg#	.
.	.	12Bn	.	.	.
.	.	.	.	32ee#	.
.	.	.	.	32ff# 32gg#	.
.	.	24d#	.	32ee#	.
.	.	.	.	32ff# 32gg#	.
.	.	24e#	.	.	.
.	.	.	.	32ee#	.
.	.	24a#J	.	.	.
.	.	.	.	32ff#JJJ 32gg#	]
.	.	.	.	16qbLL	<
.	.	.	.	16qdd#JJ	[
.	.	4.an	.	32ee#LLL	>
.	.	.	.	32ff# 32gg#	.
.	.	.	.	32ee#	.
.	.	.	.	32ff# 32gg#	.
.	.	.	.	32ee#	.
.	.	.	.	32ff# 32gg#	.
.	.	.	.	32ee#	.
.	.	.	.	32ff#JJJ 32gg#	]
.	.	.	.	116qbLL	<
.	.	.	.	16qdd#JJ	[
.	.	.	.	32ee#LLL	>
.	.	.	.	32ff# 32gg#	.
.	.	.	.	32ee#	.
.	.	.	.	32ff# 32gg#	.
.	.	[8g#	.	32ee#	.
.	.	.	.	32ff# 32gg#	.
.	.	.	.	32ee#	.
.	.	.	.	32ff#JJJ 32gg#	]
*v	*v	*	*	*	*
!!LO:LB:g=original
=266	=266	=266	=266	=266
.	.	.	16qbLL	<
.	.	.	16qdd#JJ	[
16r	4g#]	.	32ee#LLL	>
.	.	.	32ff# 32gg#	.
16FF#LL	.	.	32ee#	.
.	.	.	32ff# 32gg#	.
16BB	.	.	32ee#	.
.	.	.	32ff# 32gg#	.
16AJJ	.	.	32ee#	.
.	.	.	32ff#JJJ 32gg#	]
.	.	.	16qbLL	<
.	.	.	16qdd#JJ	[
8d#	4b	.	32ee#LLL	>
.	.	.	32ff# 32gg#	.
.	.	.	32ee#	.
.	.	.	32ff# 32gg#	.
8r	.	.	32ee#	.
.	.	.	32ff# 32gg#	.
.	.	.	32ee#	.
.	.	.	32ff#JJJ 32gg#	]
.	.	.	116qbLL	<
.	.	.	16qdd#JJ	[
4r	4g#	.	32ee#LLL	>
.	.	.	32ff# 32gg#	.
.	.	.	32ee#	.
.	.	.	32ff# 32gg#	.
.	.	.	32ee#	.
.	.	.	32ff# 32gg#	.
.	.	.	32ee#	.
.	.	.	32ff#JJJ 32gg#	]
*	*	*	*Xtremolo	*
=267	=267	=267	=267	=267
*	*	*	*	*^
.	.	.	16qccLL	.	.
.	.	.	16qee-XJJ	.	.
16e-XLL	4cc	.	[8ggnL	.	.
16A	.	.	.	.	.
16E-X	.	.	48ggLL]	.	.
.	.	.	48ffn	.	.
.	.	.	48dd	.	.
16FFnJJ	.	.	48cc	.	.
.	.	.	48f	.	.
.	.	.	48f#XJJJ	.	.
!	!	!	!	!	!LO:HP:b=1
.	.	.	16qcLL	.	<
.	.	.	16qe-XJJ	.	[
!	!	!	!	!LO:HP:a=2	!LO:HP:b=1
4AA-X 4E-	4r	.	4g	<	> ]
.	.	.	16qenLL	.	<
.	.	.	16qgJJ	.	[
4GG 4En 4c	4r	<	4b/	.	> ]
*	*	*	*	*v	*v
!!LO:LB:g=original
=268	=268	=268	=268	=268
.	.	.	16qanLL	f <
.	.	.	16qdd-XJJ	[
!	!	!LO:DY:b=3	!	!
4GG 4E-X 4d-X	4r	f	4ff	> ]
.	.	.	16qaLL	<
.	.	.	16qdd-JJ	[
12r	4.A	.	4ff	> ]
12fL	.	.	.	.
12d-J	.	.	.	.
.	.	.	16qb-XLL	<
.	.	.	16qdd-JJ	[
*^	*	*	*	*
12E-L	6E-	.	.	4ff	> ]
12GGJ	.	.	.	.	.
.	.	[8B-X	.	.	.
12r	12E-	.	.	.	.
=269	=269	=269	=269	=269	=269
*	*	*	*	*tremolo	*
.	.	.	.	16qbnLL	<
.	.	.	.	16qdd#JJ	[
!LO:T:lv	!LO:T:lv	!	!	!	!
[2.FF#	[2.D#	24B-L]	.	32ee#LLL	>
.	.	.	.	32ff# 32gg#	.
.	.	12Bn	.	.	.
.	.	.	.	32ee#	.
.	.	.	.	32ff# 32gg#	.
.	.	24d#	.	32ee#	.
.	.	.	.	32ff# 32gg#	.
.	.	24e#	.	.	.
.	.	.	.	32ee#	.
.	.	24a#J	.	.	.
.	.	.	.	32ff#JJJ 32gg#	]
.	.	.	.	16qbLL	<
.	.	.	.	16qdd#JJ	[
.	.	[2an	.	32ee#LLL	>
.	.	.	.	32ff# 32gg#	.
.	.	.	.	32ee#	.
.	.	.	.	32ff# 32gg#	.
.	.	.	.	32ee#	.
.	.	.	.	32ff# 32gg#	.
.	.	.	.	32ee#	.
.	.	.	.	32ff#JJJ 32gg#	]
.	.	.	.	116qbLL	<
.	.	.	.	16qdd#JJ	[
.	.	.	.	32ee#LLL	>
.	.	.	.	32ff# 32gg#	.
.	.	.	.	32ee#	.
.	.	.	.	32ff# 32gg#	.
.	.	.	.	32ee#	.
.	.	.	.	32ff# 32gg#	.
.	.	.	.	32ee#	.
.	.	.	.	32ff#JJJ 32gg#	]
=270	=270	=270	=270	=270	=270
*v	*v	*	*	*	*
.	.	.	16qbLL	<
.	.	.	16qdd#JJ	[
2.r	2a]	.	32ee#LLL	>
.	.	.	32ff# 32gg#	.
.	.	.	32ee#	.
.	.	.	32ff# 32gg#	.
.	.	.	32ee#	.
.	.	.	32ff# 32gg#	.
.	.	.	32ee#	.
.	.	.	32ff# 32gg#	.
.	.	.	32ee#	.
.	.	.	32ff# 32gg#	.
.	.	.	32ee#	.
.	.	.	32ff# 32gg#	.
.	.	.	32ee#	.
.	.	.	32ff# 32gg#	.
.	.	.	32ee#	.
.	.	.	32ff#JJJ 32gg#	.
.	.	.	116qbLL	.
.	.	.	16qdd#JJ	.
.	4g#	.	32ee#LLL	.
.	.	.	32ff# 32gg#	.
.	.	.	32ee#	.
.	.	.	32ff# 32gg#	.
.	.	.	32ee#	.
.	.	.	32ff# 32gg#	.
.	.	.	32ee#	.
.	.	.	32ff#JJJ 32gg#	]
*	*	*	*Xtremolo	*
!!LO:LB:g=original
=271	=271	=271	=271	=271
*M3/8	*M3/8	*	*M3/8	*
*	*^	*	*	*
4.FF#X 4.BB	4.A 4.d#X	8r	.	4.r	.
.	.	8bL	.	.	.
.	.	8g#XJ	.	.	.
=272	=272	=272	=272	=272	=272
4.EE-X 4.AA-X 4.G-X	8B-X 8dn	8ccL	.	4.r	.
.	4c-X 4g-X	8dd	.	.	.
.	.	8cc-XJ	.	.	.
=273	=273	=273	=273	=273	=273
*	*	*^	*	*	*
4.CCn 4.FF 4.E-X 4.An	4.Bn\	8gn	8ee-XL	.	4.r	.
.	.	4g-X	8dd	.	.	.
.	.	.	8bJ	.	.	.
*	*	*v	*v	*	*	*
=274	=274	=274	=274	=274	=274
8CC 8FF 8E-X 8A	8B 8gn	8ee-XL	.	4.r	.
4EE-X 4AA-X 4G-X	4c	8b-X 8gg-X	.	.	.
.	.	8b--J 8ee-	.	.	.
*	*v	*v	*	*	*
=275	=275	=275	=275	=275
*^	*	*	*	*
24E-XLL	8B-XL	24r	.	4.r	.
24FF	.	24ggnLL	.	.	.
24CCJJ	.	[24dd-XJJ	.	.	.
4r	8An	16dd-LL]	.	.	.
.	.	[16ccJJ	.	.	.
.	8A-XJ	12ccL]	.	.	.
.	.	24bnJk	.	.	.
=276	=276	=276	=276	=276	=276
*	*	*^	*	*	*
4.BBBn 4.FF 4.E-X	4A-X	8g 8b	4.ee-X	.	4.r	.
.	.	16qBLL	.	.	.	.
.	.	16qe-XJJ	.	.	.	.
.	.	4g	.	.	.	.
.	8A-	.	.	.	.	.
!!LO:LB:g=original
=277	=277	=277	=277	=277	=277	=277
24E-XLL	[4.An	12r	8ryy	.	4.r	.
24FF	.	.	.	.	.	.
24CCJJ	.	24b	.	.	.	.
4r	.	[4g	8ddL	.	.	.
.	.	.	8bJ	.	.	.
=278	=278	=278	=278	=278	=278	=278
8r	8A]	12gL]	8ee-XL	.	4.r	.
.	.	24g-XJk	.	.	.	.
4ryy	4EE-X 4AA-X 4G-X	4c 4e-X	8b-X 8gg-X	.	.	.
.	.	.	8b--J 8ee-	.	.	.
*	*	*v	*v	*	*	*
=279	=279	=279	=279	=279	=279
24E-XLL	8B-XL	24r	.	4.r	.
24FF	.	24ggnLL	.	.	.
24CCJJ	.	[24dd-XJJ	.	.	.
4r	8An	16dd-LL]	.	.	.
.	.	[16ccJJ	.	.	.
.	8A-XJ	12ccL]	.	.	.
.	.	24bnJk	.	.	.
=280	=280	=280	=280	=280	=280
*	*	*^	*	*	*
4.BBBn 4.FF 4.E-X	4A-X	8g 8b	4.ee-X	.	4.r	.
.	.	16qBLL	.	.	.	.
.	.	16qe-XJJ	.	.	.	.
.	.	4g	.	.	.	.
.	8A-	.	.	.	.	.
=281	=281	=281	=281	=281	=281	=281
24E-XLL	8B-XL	8ryy	16r	.	4.r	.
24FF	.	.	.	.	.	.
.	.	.	[16g	.	.	.
24CCJJ	.	.	.	.	.	.
4r	8An	4g]	16dd-XLL	.	.	.
.	.	.	16ccJJ	.	.	.
.	8A-XJ	.	[8cc-X	.	.	.
!!LO:LB:g=original
=282	=282	=282	=282	=282	=282	=282
24G\LL	16G/LL	8ryy	16cc-LL]	.	4.r	.
24AA-X	.	.	.	.	.	.
.	[16G-XJJ	.	[16b-X	.	.	.
24EE-XJJ	.	.	.	.	.	.
8G-]	16cnKL	4b-]	16ff-X	.	.	.
.	8c-X	.	16ee-XJJ	.	.	.
8r	.	.	[8ddn	.	.	.
.	16B-XJk	.	.	.	.	.
=283	=283	=283	=283	=283	=283	=283
24A#LL	16A#XLL	24ddKL]	24r	.	4.r	.
24BBn	.	[12cc#XJ	24ccc#XLL	.	.	.
.	[16AnJJ	.	.	.	.	.
24FF#XJJ	.	.	[24ggnJJ	.	.	.
8A]	8d#XL	4cc#]	16ggLL]	.	.	.
.	.	.	[16ff#XJJ	.	.	.
8r	8dnJ	.	12ff#L]	.	.	.
.	.	.	24ee#XJk	.	.	.
=284	=284	=284	=284	=284	=284	=284
4.EE#X 4.BB 4.An	4d	8cc#X 8ee#X	4.aa	.	4.r	.
.	.	16qe#XLL	.	.	.	.
.	.	16qaJJ	.	.	.	.
.	.	4cc#	.	.	.	.
.	8d	.	.	.	.	.
=285	=285	=285	=285	=285	=285	=285
24ALL	[4.d#X	12r	8rff	.	4.r	.
24BB	.	.	.	.	.	.
24FF#XJJ	.	24ee#X	.	.	.	.
4r	.	[4cc#X	8gg#XL	.	.	.
.	.	.	8ee#J	.	.	.
=286	=286	=286	=286	=286	=286	=286
*	*	*	*^	*	*	*
4.r	4d#]	4.e#X\	12cc#L]	8aaL	.	4.r	.
.	.	.	24ccnJk	.	.	.	.
.	.	.	4a	8cccn	.	.	.
.	8r	.	.	8aaJ	.	.	.
*	*	*	*v	*v	*	*	*
*	*	*v	*v	*	*	*
*v	*v	*	*	*	*
!!LO:LB:g=original
=287	=287	=287	=287	=287
*M3/4	*M3/4	*	*M3/4	*
*	*	*	*^	*
.	.	.	16qaLL	.	.
.	.	.	16qdd-XJJ	.	.
4GG 4E-X 4d-X	4r	.	4ff	4ddd-X	.
*	*	*	*v	*v	*
12r	4.A	.	8r	.
12fL	.	.	.	.
.	.	.	16qaLL	.
.	.	.	16qdd-JJ	.
.	.	.	[8ff	.
12d-J	.	.	.	.
*^	*	*	*	*
12E-L	6E-	.	.	4ff]	.
12GGJ	.	.	.	.	.
.	.	[8B-X	.	.	.
12r	12E-	.	.	.	.
=288	=288	=288	=288	=288	=288
16r	2.D#	24B-L]	.	4r	.
.	.	12Bn	.	.	.
16FF#LL	.	.	.	.	.
16D#	.	24d#	.	.	.
.	.	24e#	.	.	.
16BJJ	.	.	.	.	.
.	.	24a#J	.	.	.
8e#	.	[2an	.	8r	.
.	.	.	.	16qbLL	.
.	.	.	.	16qdd#JJ	.
*	*	*	*	*tremolo	*
8rC	.	.	.	32ee#LLL	.
.	.	.	.	32ff# 32gg#	.
.	.	.	.	32ee#	.
.	.	.	.	32ff#JJJ 32gg#	.
4rC	.	.	.	32ee#LLL	.
.	.	.	.	32ff# 32gg#	.
.	.	.	.	32ee#	.
.	.	.	.	32ff# 32gg#	.
.	.	.	.	32ee#	.
.	.	.	.	32ff# 32gg#	.
.	.	.	.	32ee#	.
.	.	.	.	32ff#JJJ 32gg#	.
*v	*v	*	*	*	*
=289	=289	=289	=289	=289
2.r	2a]	.	32ee#LLL	.
.	.	.	32ff# 32gg#	.
.	.	.	32ee#	.
.	.	.	32ff# 32gg#	.
.	.	.	32ee#	.
.	.	.	32ff# 32gg#	.
.	.	.	32ee#	.
.	.	.	32ff# 32gg#	.
.	.	.	32ee#	.
.	.	.	32ff# 32gg#	.
.	.	.	32ee#	.
.	.	.	32ff# 32gg#	.
.	.	.	32ee#	.
.	.	.	32ff# 32gg#	.
.	.	.	32ee#	.
.	.	.	32ff# 32gg#	.
.	4g#	.	32ee#	.
.	.	.	32ff# 32gg#	.
.	.	.	32ee#	.
.	.	.	32ff# 32gg#	.
.	.	.	32ee#	.
.	.	.	32ff# 32gg#	.
.	.	.	32ee#	.
.	.	.	32ff#JJJ 32gg#	.
*	*	*	*Xtremolo	*
!!LO:LB:g=original
=290	=290	=290	=290	=290
*M3/8	*M3/8	*	*M3/8	*
*	*^	*	*	*
4.FF#X 4.BB	4.A 4.d#X	8r	.	4.r	.
.	.	8bL	.	.	.
.	.	8g#XJ	.	.	.
=291	=291	=291	=291	=291	=291
4.EE-X 4.AA-X 4.G-X	8B-X 8dn	8ccL	.	4.r	.
.	4c-X 4g-X	8dd	.	.	.
.	.	8cc-XJ	.	.	.
=292	=292	=292	=292	=292	=292
*	*	*^	*	*	*
[4.CCn [4.FF [4.E-X [4.An	[4.Bn\	8gn	8ee-XL	.	4.r	.
.	.	[4g-X	8dd	.	.	.
.	.	.	[8cc-XJ	.	.	.
*	*	*v	*v	*	*	*
=293	=293	=293	=293	=293	=293
8CC] 8FF] 8E-] 8A]	8B] 8g-]	8cc-]	.	4.r	.
*	*v	*v	*	*	*
4r	4r	.	.	.
=294	=294	=294	=294	=294
*^	*^	*	*	*
*	*^	*	*	*	*	*
8r	24F/LL	4.A	[8gn	16ccnLL	.	4.r	.
.	24G	.	.	.	.	.	.
.	.	.	.	16cc#XJJ	.	.	.
.	24EnJJ	.	.	.	.	.	.
12E-\L	4E-X/	.	24gLL]	8.dd	.	.	.
.	.	.	24a	.	.	.	.
24FFJk	.	.	24g-XJJ	.	.	.	.
24CC\LL	.	.	16fLL	.	.	.	.
24FFFJJ	.	.	.	.	.	.	.
.	.	.	16g-JJ	16dd-X	.	.	.
24r	.	.	.	.	.	.	.
!!LO:LB:g=original
=295	=295	=295	=295	=296	=295	=295	=295
8r	24E-/LL	4.A	[8gn	16dd-LL	.	4.r	.
.	24F	.	.	.	.	.	.
.	.	.	.	16ddnJJ	.	.	.
.	24DJJ	.	.	.	.	.	.
12D-\L	4D-X/	.	24gLL]	8.ee-	.	.	.
.	.	.	24a	.	.	.	.
24FFJk	.	.	24g-XJJ	.	.	.	.
24CC\LL	.	.	16fLL	.	.	.	.
24FFFJJ	.	.	.	.	.	.	.
.	.	.	16g-JJ	16ddn	.	.	.
24r	.	.	.	.	.	.	.
*	*v	*v	*	*	*	*	*
*v	*v	*	*	*	*	*
=296	=296	=296	=296	=296	=296
8C 8A	24gnLL	16ddLL	.	4.r	.
.	24a	.	.	.	.
.	.	16ee-XJJ	.	.	.
.	24g-XJJ	.	.	.	.
.	8.qf\	16qfLL	.	.	.
.	.	16qa	.	.	.
.	.	16qccJJ	.	.	.
16FFFLL	8ryy	32eenLLL	.	.	.
.	.	32ffJ	.	.	.
16CCJJ	.	16eeJJ	.	.	.
.	.	16qaLL	.	.	.
.	.	16qccJJ	.	.	.
16FFLL	8ryy	32eeLLL	.	.	.
.	.	32ffJ	.	.	.
16CJJ	.	16eeJJ	.	.	.
*	*v	*v	*	*	*
=297	=297	=297	=297	=297
.	16qaLL	.	.	.
.	16qccJJ	.	.	.
8r	32eeLLL	.	4.r	.
.	32ffJ	.	.	.
.	16eeJJ	.	.	.
.	16qaLL	.	.	.
.	16qccJJ	.	.	.
16FFLL	32eeLLL	.	.	.
.	32ffJ	.	.	.
16CJJ	16eeJJ	.	.	.
.	16qaLL	.	.	.
.	16qccJJ	.	.	.
16FLL	32eeLLL	.	.	.
.	32ffJ	.	.	.
16cJJ	16eeJJ	.	.	.
!!LO:LB:g=original
=298	=298	=298	=298	=298
*^	*^	*	*	*
*	*^	*	*	*	*	*
8r	24A/LL	4.c#X	[8b	16eeLL	.	4.r	.
.	24B	.	.	.	.	.	.
.	.	.	.	16ee#XJJ	.	.	.
.	24G#XJJ	.	.	.	.	.	.
24G\LL	4Gn/	.	24bLL]	8.ff#X	.	.	.
24AA	.	.	24cc#X	.	.	.	.
24EEn	.	.	24b-XJJ	.	.	.	.
24AAA	.	.	16aLL	.	.	.	.
24EEEJJ	.	.	.	.	.	.	.
.	.	.	16b-JJ	16ee#X	.	.	.
24r	.	.	.	.	.	.	.
=299	=299	=299	=299	=299	=299	=299	=299
8r	24G/LL	4.c#X	[8bn	16ee#LL	.	4.r	.
.	24A	.	.	.	.	.	.
.	.	.	.	16ff#JJ	.	.	.
.	24F#XJJ	.	.	.	.	.	.
24F\LL	4Fn/	.	24bLL]	8.gg	.	.	.
24AA	.	.	24cc#X	.	.	.	.
24EEn	.	.	24b-XJJ	.	.	.	.
24AAA	.	.	16aLL	.	.	.	.
24EEEJJ	.	.	.	.	.	.	.
.	.	.	16b-JJ	16ff#X	.	.	.
24r	.	.	.	.	.	.	.
*	*v	*v	*	*	*	*	*
*v	*v	*	*	*	*	*
=300	=300	=300	=300	=300	=300
8r	24bnLL	16ff#LL	.	4.r	.
.	24cc#	.	.	.	.
.	.	16ggJJ	.	.	.
.	24b-XJJ	.	.	.	.
.	8.qa\	16qaLL	.	.	.
.	.	16qcc#	.	.	.
.	.	16qeenJJ	.	.	.
16EEELL	8ryy	32gg#LLL	.	.	.
.	.	32aaJ	.	.	.
16AAA	.	16gg#JJ	.	.	.
.	.	16qcc#LL	.	.	.
.	.	16qeeJJ	.	.	.
16EE	8ryy	32gg#LLL	.	.	.
.	.	32aaJ	.	.	.
16C#JJ	.	16gg#JJ	.	.	.
*	*v	*v	*	*	*
!!LO:LB:g=original
=301	=301	=301	=301	=301
.	16qcc#LL	.	.	.
.	16qeeJJ	.	.	.
8r	32gg#LLL	.	4.r	.
.	32aaJ	.	.	.
.	16gg#JJ	.	.	.
.	16qcc#LL	.	.	.
.	16qeeJJ	.	.	.
16EELL	32gg#LLL	.	.	.
.	32aaJ	.	.	.
16AA	16gg#JJ	.	.	.
.	16qcc#LL	.	.	.
.	16qeeJJ	.	.	.
16E	32gg#LLL	.	.	.
.	32aaJ	.	.	.
16c#JJ	16gg#JJ	.	.	.
=302	=302	=302	=302	=302
*^	*^	*	*	*
*	*^	*	*	*	*	*
8r	24cn/LL	4.e	[8dd	16ggnLL	.	4.r	.
.	24d	.	.	.	.	.	.
.	.	.	.	16gg#XJJ	.	.	.
.	24BJJ	.	.	.	.	.	.
12r	4B-X/	.	24ddLL]	8.aa	.	.	.
.	.	.	24ee	.	.	.	.
24e\	.	.	24dd-XJJ	.	.	.	.
24B-\LL	.	.	16ccLL	.	.	.	.
24CJJ	.	.	.	.	.	.	.
.	.	.	16dd-JJ	16aa-X	.	.	.
24r	.	.	.	.	.	.	.
=303	=303	=303	=303	=303	=303	=303	=303
8r	24B-X/LL	4.e	[8ddn	16aa-XLL	.	4.r	.
.	24c	.	.	.	.	.	.
.	.	.	.	16aanJJ	.	.	.
.	24AJJ	.	.	.	.	.	.
12r	4A-X/	.	24ddLL]	8.bb-X	.	.	.
.	.	.	24ee	.	.	.	.
24c\	.	.	24dd-XJJ	.	.	.	.
24E\LL	.	.	16ccLL	.	.	.	.
24GGJJ	.	.	.	.	.	.	.
.	.	.	16dd-XJJ	16aan	.	.	.
24r	.	.	.	.	.	.	.
*	*v	*v	*	*	*	*	*
!!LO:LB:g=original
=304	=304	=304	=304	=304	=304	=304
8r	4.G 4.e	24ddnLL	16aaLL	.	4.r	.
.	.	24ee	.	.	.	.
.	.	.	16bb-XJJ	.	.	.
.	.	24dd-XJJ	.	.	.	.
12r	.	4cc 4ee	8.bbn	.	.	.
24G	.	.	.	.	.	.
24CLL	.	.	.	.	.	.
24EEJJ	.	.	.	.	.	.
.	.	.	16bb-X	.	.	.
24r	.	.	.	.	.	.
*	*	*v	*v	*	*	*
*v	*v	*	*	*	*
=305	=305	=305	=305	=305
*M9/16	*M9/16	*	*M9/16	*
*^	*	*	*	*
*	*^	*	*	*	*
4.ryy	8.ryy	32ELLL	16b-XLL 16ee 16aa-X 16bb-X	.	4.r	.
.	.	32GG	.	.	.	.
.	.	32CCJJJ	16bn 16ee 16aa- 16bbn	.	.	.
.	.	32r	.	.	.	.
.	.	16r	[16ccJJ [16ee [16aa- [16ccc	.	.	.
*clefG2	*clefG2	*clefG2	*	*	*	*
.	4e	32bLLL	16ccLL] 16ee] 16aa-] 16ccc]	.	.	.
.	.	32b-XJ	.	.	.	.
.	.	16bnJJ	16b 16ee 16aa- 16bb	.	.	.
.	.	16r	16ccJJ 16ee 16aa- 16ccc	.	.	.
*clefF4	*clefF4	*clefF4	*	*	*	*
[8qGGG [8qCCn [8qGG	.	.	.	.	.	.
8GGG] 8CC] 8GG] 8E	.	16ryy	16cc#XLL 16ee 16aa- 16ccc#X	.	8.r	.
*clefG2	*clefG2	*clefG2	*	*	*	*
.	16eLL	32bnLLL	16ccn 16ee 16aa- 16cccn	.	.	.
.	.	32b-X	.	.	.	.
16ryy	16eJJ	32bn	16cc#XJJ 16ee 16aa- 16ccc#X	.	.	.
.	.	32b-XJJJ	.	.	.	.
*	*v	*v	*	*	*	*
*v	*v	*	*	*	*
=306||	=306||	=306||	=306||	=306||
*M3/16	*M3/16	*	*M3/16	*
8.r	8dd 8ee 8bb-X 8ddd	.	8.r	.
.	[16f#X	.	.	.
*clefF4	*	*	*	*
=307	=307	=307	=307	=307
32c\LLL	8f#L]	.	8.r	.
32EJJJ	.	.	.	.
8r	.	.	.	.
.	16gJk	.	.	.
!!LO:LB:g=original
=308	=308	=308	=308	=308
*M2/8	*M2/8	*	*M2/8	*
16E-X 16c	64a-XLLLL	.	4r	.
.	64cc	.	.	.
.	64dd	.	.	.
.	64ggJ	.	.	.
16r	32gg-XJJJ	.	.	.
.	32r	.	.	.
*clefG2	*	*	*	*
*	*8va	*	*	*
40cLLL	40cccLLL 40ddd 40ggg-X	.	.	.
40d	40ccc 40ddd 40ggg-	.	.	.
40a-X	40ccc 40ddd 40ggg-	.	.	.
40cc	40ccc 40ddd 40ggg-	.	.	.
40ddJJJ	40cccJJJ 40ddd 40ggg-	.	.	.
=309	=309	=309	=309	=309
*M3/16	*M3/16	*	*M3/16	*
*	*^	*	*	*
16aa-X	8ccc 8ddd	8ggg-XL	.	8.r	.
16r	.	.	.	.	.
16r	16r	16fffJk	.	.	.
*	*v	*v	*	*	*
=310	=310	=310	=310	=310
*^	*	*	*	*
8F#X 8B 8f#X	32bLLL	8.r	.	8.r	.
.	32dd#XJJ	.	.	.	.
.	[8eeJ	.	.	.	.
16r	.	.	.	.	.
=311	=311	=311	=311	=311	=311
*	*	*^	*	*	*
8.r	8.ee_	16bb 16ddd#X	32ggg#XLLL	.	8.r	.
.	.	.	32eee#XJJJ	.	.	.
.	.	8ryy	8r	.	.	.
.	.	.	.	.	.	.
*	*	*v	*v	*	*	*
=312	=312	=312	=312	=312	=312
*	*^	*	*	*	*
8.rA	16.rf	8.ee_	16bb 16ddd#X 16aaa	.	8.r	.
*	*	*	*X8va	*	*	*
.	.	.	8r	.	.	.
.	32b/	.	.	.	.	.
.	16cc#X/	.	.	.	.	.
=313	=313	=313	=313	=313	=313	=313
16f#\LL	8.f#X/	8.ee]	8.r	.	8.r	.
16BJJ	.	.	.	.	.	.
16r	.	.	.	.	.	.
*	*v	*v	*	*	*	*
*v	*v	*	*	*	*
!!LO:LB:g=original
=314	=314	=314	=314	=314
32GnLLL	8r	.	8.r	.
32e-XJJJ	.	.	.	.
8r	.	.	.	.
.	[16a	.	.	.
=315	=315	=315	=315	=315
32e-XLLL	8aL]	.	8.r	.
32GJJJ	.	.	.	.
8r	.	.	.	.
.	16b-XJk	.	.	.
=316||	=316||	=316||	=316||	=316||
*M2/8	*M2/8	*	*M2/8	*
16F#X 16d#X	64bnLLLL	.	4r	.
.	64dd#X	.	.	.
.	64ee#X	.	.	.
.	64aa#XJ	.	.	.
16r	32aanJJJ	.	.	.
.	32r	.	.	.
*	*8va	*	*	*
40d#LLL	40ddd#XLLL 40eee#X 40aaa	.	.	.
40e#X	40ddd# 40eee# 40aaa	.	.	.
40b	40ddd# 40eee# 40aaa	.	.	.
40dd#X	40ddd# 40eee# 40aaa	.	.	.
40ee#XJJJ	40ddd#JJJ 40eee# 40aaa	.	.	.
=317	=317	=317	=317	=317
*M3/16	*M3/16	*	*M3/16	*
*	*^	*	*	*
8bb	8ddd#X 8eee#X	8aaaL	.	8.r	.
16r	16r	16ggg#XJk	.	.	.
*	*v	*v	*	*	*
=318	=318	=318	=318	=318
*^	*	*	*	*
8F#X 8B	32bLLL	8.r	.	8.r	.
.	32dd#XJJ	.	.	.	.
.	[8ee#XJ	.	.	.	.
16r	.	.	.	.	.
=319	=319	=319	=319	=319	=319
*	*	*^	*	*	*
8.r	8.ee#_	16ddd#X	32bbbLLL	.	8.r	.
.	.	.	32ggg#XJJJ	.	.	.
.	.	8ryy	8r	.	.	.
.	.	.	.	.	.	.
*	*	*v	*v	*	*	*
!!LO:LB:g=original
=320	=320	=320	=320	=320	=320
8.r	8.ee#]	8.eee-X 8.aaa 8.cccc	.	8.r	.
*	*	*X8va	*	*	*
=321	=321	=321	=321	=321	=321
32FLLL	16e-X 16a	8.r	.	8.r	.
32F#XJJJ	.	.	.	.	.
*v	*v	*	*	*	*
8r	.	.	.	.
.	.	.	.	.
=322	=322	=322	=322	=322
32GLLL	8r	.	8.r	.
32e-XJJJ	.	.	.	.
8r	.	.	.	.
.	[16a	.	.	.
=323	=323	=323	=323	=323
32e-XLLL	8aL]	.	8.r	.
32GJJJ	.	.	.	.
8r	.	.	.	.
.	16b-XJk	.	.	.
=324	=324	=324	=324	=324
*M2/8	*M2/8	*	*M2/8	*
16F#X 16d#X	64bnLLLL	.	4r	.
.	64dd#X	.	.	.
.	64ee#X	.	.	.
.	64aa#XJ	.	.	.
16r	32aanJJJ	.	.	.
.	32r	.	.	.
*	*8va	*	*	*
40d#LLL	40ddd#XLLL 40eee#X 40aaa	.	.	.
40e#X	40ddd# 40eee# 40aaa	.	.	.
40b	40ddd# 40eee# 40aaa	.	.	.
40dd#X	40ddd# 40eee# 40aaa	.	.	.
40ee#XJJJ	40ddd#JJJ 40eee# 40aaa	.	.	.
!!LO:LB:g=original
=325	=325	=325	=325	=325
*M3/16	*M3/16	*	*M3/16	*
*	*^	*	*	*
8bb	8ddd#X 8eee#X	8aaaL	.	8.r	.
16r	16r	16ggg#XJk	.	.	.
*	*X8va	*X8va	*	*	*
=326	=326	=326	=326	=326	=326
*M2/8	*M2/8	*M2/8	*	*M2/8	*
16F#X 16B 16a	16dd#X	8ryy	.	4r	.
16r	16r	.	.	.	.
8r	16dd#	32bbLLL	.	.	.
.	.	32gg#XJJJ	.	.	.
.	16r	16ryy	.	.	.
=327	=327	=327	=327	=327	=327
*^	*	*	*	*	*
16E-X 16A-X 16g-X	8b-XL	16ddn 16ccc	8ryy	.	4r	.
16r	.	16r	.	.	.	.
8r	8cc-XJ	16gg-X	32dddLLL	.	.	.
.	.	.	32ccc-XJJJ	.	.	.
.	.	16r	16ryy	.	.	.
*v	*v	*	*	*	*	*
*clefF4	*	*	*	*	*
=328	=328	=328	=328	=328	=328
16Cn 16F 16e-X 16an	16bn 16ggn 16eee-X	8ryy	.	4r	.
16r	16r	.	.	.	.
8r	16gg-X	32dddLLL	.	.	.
.	.	32bbJJJ	.	.	.
.	16r	16ryy	.	.	.
=329	=329	=329	=329	=329	=329
16C 16F 16e-X 16a	16b 16gg 16eee-X	8ryy	.	4r	.
16r	16r	.	.	.	.
8r	16gg-X	32ggg-LLL	.	.	.
.	.	32eee-JJJ	.	.	.
.	16r	16ryy	.	.	.
!!LO:LB:g=original
=330	=330	=330	=330	=330	=330
*^	*	*	*	*	*
8CC 8FF	8r	8r	12r	.	4r	.
*	*	*8va	*8va	*	*	*
.	.	.	24gggn	.	.	.
8r	8E-X 8A 8e-X	8gg	24ddd-XLL	.	.	.
.	.	.	24cccJ	.	.	.
.	.	.	48r	.	.	.
.	.	.	[48bbJkk	.	.	.
=331	=331	=331	=331	=331	=331	=331
8r	4E-X 4A-X 4e-X	8gg 8bb]	8eee-X	.	4r	.
*	*	*X8va	*X8va	*	*	*
8BBB 8FF	.	8b 8ee-X	32ggLLL	.	.	.
.	.	.	32aa-XJ	.	.	.
.	.	.	16ggJJ	.	.	.
=332	=332	=332	=332	=332	=332	=332
8CC 8FF	8E-X 8An 8e-X	16.r	8r	.	4r	.
.	.	32b	.	.	.	.
8r	8r	[8g	32ddLLL 32ddd	.	.	.
.	.	.	32bbJJJ	.	.	.
.	.	.	16r	.	.	.
=333	=333	=333	=333	=333	=333	=333
4ryy	4r	12gL]	16ee-X 16eee-X	.	4r	.
.	.	.	16r	.	.	.
.	.	24g-XJk	.	.	.	.
.	.	8e-X	32gg-XLLL 32ggg-X	.	.	.
.	.	.	32eee-JJJ	.	.	.
.	.	.	16r	.	.	.
=334	=334	=334	=334	=334	=334	=334
8CC 8FF	8r	8r	12r	.	4r	.
.	.	.	24ggn	.	.	.
8r	8E-X 8A 8e-X	8gn	24dd-XLL	.	.	.
.	.	.	24ccJ	.	.	.
.	.	.	48r	.	.	.
.	.	.	[48bJkk	.	.	.
!!LO:LB:g=original
=335	=335	=335	=335	=335	=335	=335
8r	4E-X 4A-X 4e-X	8g 8b]	8ee-X	.	4r	.
8BBB 8FF	.	8B 8e-X	32gLLL	.	.	.
.	.	.	32a-XJ	.	.	.
.	.	.	16gJJ	.	.	.
=336	=336	=336	=336	=336	=336	=336
8CC 8FF	16EnLL	12r	8ryy	.	4r	.
.	16E-X	.	.	.	.	.
.	.	[24g/	.	.	.	.
8r	16An	8g]	24dd-XLL	.	.	.
.	.	.	24cc	.	.	.
.	16A-XJJ	.	.	.	.	.
.	.	.	24cc-XJJ	.	.	.
=337	=337	=337	=337	=337	=337	=337
8EE-X 8AA-X	16GLL	12r	8ryy	.	4r	.
.	16G-X	.	.	.	.	.
.	.	[24b-X/	.	.	.	.
8r	16cn	8b-]	24ff-XLL	.	.	.
.	.	.	24ee-X	.	.	.
.	16c-XJJ	.	.	.	.	.
.	.	.	24ddnJJ	.	.	.
=338	=338	=338	=338	=338	=338	=338
8FF#X 8BBn	8A#X	12ryy	12r	.	4r	.
.	.	[24cc#X	24ccc#X	.	.	.
8r	8An 8d#X 8an	8cc#]	24ggnLL	.	.	.
.	.	.	24ff#XJ	.	.	.
.	.	.	48r	.	.	.
.	.	.	[48ee#XJkk	.	.	.
=339	=339	=339	=339	=339	=339	=339
8r	4A 4dn 4a	8r	8cc#X 8ee#] 8aa	.	4r	.
8EE#X 8BB	.	8e#X 8a	32cc#LLL	.	.	.
.	.	.	32ddJ	.	.	.
.	.	.	16cc#JJ	.	.	.
!!LO:LB:g=original
=340	=340	=340	=340	=340	=340	=340
8FF#X 8BB	8A 8d#X 8a	12r	8r	.	4r	.
.	.	24ee#X	.	.	.	.
8r	8r	[8cc#X	32gg#XLLL	.	.	.
.	.	.	32ee#JJJ	.	.	.
.	.	.	16r	.	.	.
*v	*v	*	*	*	*	*
=341	=341	=341	=341	=341	=341
4r	12cc#L]	16aa	.	4r	.
.	.	16r	.	.	.
.	24ccnJk	.	.	.	.
.	8a	32cccnLLL	.	.	.
.	.	32aaJJJ	.	.	.
.	.	16r	.	.	.
*	*v	*v	*	*	*
=342	=342	=342	=342	=342
*M3/16	*M3/16	*	*M3/16	*
8.r	8ddd-X	.	8.r	.
.	[16a	.	.	.
*clefG2	*	*	*	*
=343	=343	=343	=343	=343
32e-XLLL	8aL]	.	8.r	.
32GJJJ	.	.	.	.
8r	.	.	.	.
.	16b-XJk	.	.	.
=344	=344	=344	=344	=344
*M2/8	*M2/8	*	*M2/8	*
16F#X 16d#X	64bnLLLL	.	4r	.
.	64dd#X	.	.	.
.	64ee#X	.	.	.
.	64aa#XJ	.	.	.
16r	32aanJJJ	.	.	.
.	32r	.	.	.
*	*8va	*	*	*
40d#LLL	40ddd#XLLL 40eee#X 40aaa	.	.	.
40e#X	40ddd# 40eee# 40aaa	.	.	.
40b	40ddd# 40eee# 40aaa	.	.	.
40dd#X	40ddd# 40eee# 40aaa	.	.	.
40ee#XJJJ	40ddd#JJJ 40eee# 40aaa	.	.	.
!!LO:LB:g=original
=345	=345	=345	=345	=345
*M3/16	*M3/16	*	*M3/16	*
*	*^	*	*	*
8bb	8ddd#X 8eee#X	8aaaL	.	8.r	.
16r	16r	16ggg#XJk	.	.	.
*	*X8va	*X8va	*	*	*
=346	=346	=346	=346	=346	=346
*M2/8	*M2/8	*M2/8	*	*M2/8	*
16F#X 16B 16a	16dd#X	8ryy	.	4r	.
16r	16r	.	.	.	.
8r	16dd#	32bbLLL	.	.	.
.	.	32gg#XJJJ	.	.	.
.	16ryy	16r	.	.	.
=347	=347	=347	=347	=347	=347
*^	*	*	*	*	*
16E-X 16A-X 16g-X	8b-XL	16ddn 16ccc	8ryy	.	4r	.
16r	.	16r	.	.	.	.
8r	8cc-XJ	16gg-X	32dddLLL	.	.	.
.	.	.	32ccc-XJJJ	.	.	.
.	.	16ryy	16r	.	.	.
*v	*v	*	*	*	*	*
*clefF4	*	*	*	*	*
=348	=348	=348	=348	=348	=348
16Cn 16F 16e-X 16an	32ggLLL	8ggn 8eee-X	.	4r	.
.	32bnJJJ	.	.	.	.
16r	16r	.	.	.	.
8r	16gg-X	32dddLLL	.	.	.
.	.	32bbJJJ	.	.	.
.	16ryy	16r	.	.	.
=349	=349	=349	=349	=349	=349
16C 16F 16e-X 16a	32ggLLL	8ggn 8eee-X	.	4r	.
.	32bJJJ	.	.	.	.
16r	16r	.	.	.	.
8r	16gg-X	32ggg-LLL	.	.	.
.	.	32eee-JJJ	.	.	.
.	16ryy	16r	.	.	.
!!LO:LB:g=original
=350	=350	=350	=350	=350	=350
*^	*	*	*	*	*
*	*	*8va	*8va	*	*	*
8CC 8FF	8r	8r	12r	.	4r	.
.	.	.	24gggn	.	.	.
8r	8E-X 8A 8e-X	8gg	24ddd-XLL	.	.	.
.	.	.	24cccJ	.	.	.
.	.	.	48r	.	.	.
.	.	.	[48bbJkk	.	.	.
=351	=351	=351	=351	=351	=351	=351
8r	4E-X 4A-X 4e-X	8gg 8bb]	8eee-X	.	4r	.
*	*	*X8va	*X8va	*	*	*
8BBB 8FF	.	8b 8ee-X	32ggLLL	.	.	.
.	.	.	32aa-XJ	.	.	.
.	.	.	16ggJJ	.	.	.
=352	=352	=352	=352	=352	=352	=352
8CC 8FF	8E-X 8An 8e-X	8r	12r	.	4r	.
.	.	.	24bb	.	.	.
8ryy	8r	32dLLL	[8gg	.	.	.
.	.	32BJJJ	.	.	.	.
.	.	16r	.	.	.	.
=353	=353	=353	=353	=353	=353	=353
4ryy	4r	16e-X	12ggL]	.	4r	.
.	.	16r	.	.	.	.
.	.	.	24gg-XJk	.	.	.
.	.	32g-XLLL	8ee-X	.	.	.
.	.	32e-JJJ	.	.	.	.
.	.	16r	.	.	.	.
=354	=354	=354	=354	=354	=354	=354
16CC 16FF 16E-X	16A	8r	12r	.	4r	.
16r	16r	.	.	.	.	.
.	.	.	24ggn	.	.	.
8r	16ALL	16gn	24dd-XLL	.	.	.
.	.	.	24ccJ	.	.	.
.	16A-XJJ	16r	.	.	.	.
.	.	.	48r	.	.	.
.	.	.	[48bJkk	.	.	.
!!LO:LB:g=original
=355	=355	=355	=355	=355	=355	=355
16EE-X 16AA-X 16G\	8ryy	8g 8b]	8ee-X	.	4r	.
16r	.	.	.	.	.	.
16EE- 16AA- 16G	16BKL	8ryy	8r	.	.	.
16r	32r	.	.	.	.	.
.	32cJkk	.	.	.	.	.
=356	=356	=356	=356	=356	=356	=356
16CC 16FF 16E-X 16An	8e-X	8r	12r	.	4r	.
16r	.	.	.	.	.	.
.	.	.	24gg	.	.	.
8r	16ALL	8g	24dd-XLL	.	.	.
.	.	.	24ccJ	.	.	.
.	16A-XJJ	.	.	.	.	.
.	.	.	48r	.	.	.
.	.	.	[48bJkk	.	.	.
=357	=357	=357	=357	=357	=357	=357
16EE-X 16AA-X 16G\	8ryy	8g 8b]	8ee-X	.	4r	.
16r	.	.	.	.	.	.
16EE- 16AA- 16G	16BKL	8ryy	8r	.	.	.
16r	32r	.	.	.	.	.
.	32cJkk	.	.	.	.	.
*	*	*v	*v	*	*	*
=358	=358	=358	=358	=358	=358
16CC 16FF 16E-X 16An	8e-X	4r	.	4r	.
16r	.	.	.	.	.
16EE-X 16AA-X 16G	16BKL	.	.	.	.
16r	32r	.	.	.	.
.	32cJkk	.	.	.	.
=359	=359	=359	=359	=359	=359
16CC 16FF 16E-X 16An	8e-X	4r	.	4r	.
16r	.	.	.	.	.
16EE-X 16AA-X 16G	16BKL	.	.	.	.
16r	32r	.	.	.	.
.	32cJkk	.	.	.	.
*v	*v	*	*	*	*
!!LO:LB:g=original
=360||	=360||	=360||	=360||	=360||
*M9/16	*M9/16	*	*M9/16	*
*^	*^	*	*	*
*	*^	*	*	*	*	*
[4.CC [4.FF\	8ryy	8r	4.g	16ffLL	.	4.r	.
.	.	.	.	16gg	.	.	.
.	[16E-X 16An/	16ryy	.	16ff-XJJ	.	.	.
.	8.E-_	8B-XL	.	[8.ee-X	.	.	.
.	.	[16AJk	.	.	.	.	.
8.CC] 8.FF\]	16E-]	16A]	[8.g	16ee-LL]	.	8.r	.
.	16r	16r	.	16ffn	.	.	.
.	[16E- 16A/	16ryy	.	16ddJJ	.	.	.
=361	=361	=361	=361	=361	=361	=361	=361
[4.CC [4.FF\	8.E-_	8B-XL	8.g]	[8.dd-X	.	4.r	.
.	.	[16AJk	.	.	.	.	.
.	16E-]	16A]	4.g	16dd-LL]	.	.	.
.	16r	16r	.	16ee-X	.	.	.
.	[16E-X 16A/	16ryy	.	16ccJJ	.	.	.
8.CC] 8.FF\]	8.E-]	8B-L	.	8.cc-X	.	8.r	.
.	.	16AJk	.	.	.	.	.
*	*v	*v	*	*	*	*	*
=362	=362	=362	=362	=362	=362	=362
[4.CC [4.FF\	8D-XL	8AL	16cc-XLL	.	4.r	.
.	.	.	16dd-X	.	.	.
.	16DnJk	16B-XJk	16b-XJJ	.	.	.
.	8E-XL	8.c-X	[8.a	.	.	.
.	[16DJk	.	.	.	.	.
8.CC] 8.FF\]	8DL]	[8.c-	16aLL]	.	8.r	.
.	.	.	16cc-	.	.	.
.	16DJk	.	16a-XJJ	.	.	.
!!LO:LB:g=original
=363	=363	=363	=363	=363	=363	=363
[4.CCn [4.FF\	8E-XL	8.c-]	[8.g	.	4.r	.
.	[16DJk	.	.	.	.	.
.	8DL]	[8.c-X	16gLL]	.	.	.
.	.	.	16an	.	.	.
.	16DJk	.	16g-XJJ	.	.	.
8.CC] 8.FF\]	16E-LL	64%3c-LL]	[8.f	.	8.r	.
.	.	64%3B-X	.	.	.	.
.	16D	.	.	.	.	.
.	.	64%3A	.	.	.	.
.	16D-XJJ	.	.	.	.	.
.	.	64%3A-XJJ	.	.	.	.
*	*	*v	*v	*	*	*
*v	*v	*	*	*	*
=364||	=364||	=364||	=364||	=364||
*M3/4	*M6/8	*	*M3/4	*
*^	*^	*	*	*
[2.CC [2.FF	4Dn	2.An	8fL]	.	2.r	.
.	.	.	8gn	.	.	.
.	4D-	.	8eJ	.	.	.
.	.	.	[4.e-	.	.	.
.	4C	.	.	.	.	.
=365	=365	=365	=365	=365	=365	=365
2.CC] 2.FF]	4BB	2.A-X	4.e-]	.	2.r	.
.	4C	.	.	.	.	.
.	.	.	4.en	.	.	.
.	4D-	.	.	.	.	.
=366	=366	=366	=366	=366	=366	=366
[2.CC [2.FF	4Dn	2.An	8fL	.	2.r	.
.	.	.	8g	.	.	.
.	4D-	.	8eJ	.	.	.
.	.	.	[4.e-	.	.	.
.	4C	.	.	.	.	.
!!LO:LB:g=original
=367	=367	=367	=367	=367	=367	=367
2.CC] 2.FF]	4BB	2.A-X	4.e-]	.	2.r	.
.	4C	.	.	.	.	.
.	.	.	4.en	.	.	.
.	4D-	.	.	.	.	.
=368	=368	=368	=368	=368	=368	=368
*M2/4	*M2/4	*M2/4	*M2/4	*	*M2/4	*
[2CC [2FF	4Dn	2An	12fL	.	2r	.
.	.	.	12g	.	.	.
.	.	.	12eJ	.	.	.
.	4D-	.	4e-	.	.	.
=369	=369	=369	=369	=369	=369	=369
2CC] 2FF]	4C	2A-	12dnL	.	2r	.
.	.	.	12en	.	.	.
.	.	.	12d-J	.	.	.
.	4D-	.	[4c	.	.	.
=370	=370	=370	=370	=370	=370	=370
[2CC [2FF	[2Dn	[2A-	12cL]	.	2r	.
.	.	.	12dn	.	.	.
.	.	.	12BJ	.	.	.
.	.	.	[4B-	.	.	.
=371	=371	=371	=371	=371	=371	=371
2CC] 2FF]	2D]	2A-]	2B-]	.	2r	.
*	*	*v	*v	*	*	*
*v	*v	*	*	*	*
!!LO:LB:g=original
=372||	=372||	=372||	=372||	=372||
*M9/16	*M9/16	*	*M9/16	*
[4.e-X	8r	.	4.r	.
.	16bn	.	.	.
.	[4.g	.	.	.
8.e-]	.	.	8.r	.
=373	=373	=373	=373	=373
[4.c	8gL]	.	4.r	.
.	16g-XJk	.	.	.
.	4.e-X	.	.	.
8.c_	.	.	8.r	.
=374	=374	=374	=374	=374
*	*	*	*^	*
4.c_	16gnLL	.	8.ryy	8.r	.
.	16a	.	.	.	.
.	16g-XJJ	.	.	.	.
.	[4.f	.	8.r	8r	.
.	.	.	.	16aaa	.
8.c_	.	.	16.r	[8.aa [8.eee-X [8.bbb	.
.	.	.	32ff	.	.
.	.	.	16ggn	.	.
=375||	=375||	=375||	=375||	=375||	=375||
*M3/8	*M3/8	*	*M3/8	*M3/8	*
4.c_	4.f_	.	[4.cc	4.aa_ 4.eee-_ 4.bbb_	.
=376	=376	=376	=376	=376	=376
4.c_	4.f_	.	4.cc_	4.aa_ 4.eee-_ 4.bbb_	.
=377	=377	=377	=377	=377	=377
*^	*	*	*	*	*
8FFF 8FF	4.c_	4.f_	.	4.cc_	4.aa_ 4.eee-_ 4.bbb_	.
8r	.	.	.	.	.	.
8r	.	.	.	.	.	.
=378	=378	=378	=378	=378	=378	=378
8CCC 8CC	4.c]	4.f]	.	4.cc]	4.aa] 4.eee-] 4.bbb]	.
8r	.	.	.	.	.	.
8r	.	.	.	.	.	.
*	*	*	*	*v	*v	*
*v	*v	*	*	*	*
==	==	==	==	==
*-	*-	*-	*-	*-
!!!system-decoration: {(*)}
!!!filter: flipper -a
!!!RDF**kern: > = above
!!!RDF**kern: < = below
!!!RDF**kern: N = linked
!!!RDF**kern: > = dim.
!!!ENC: Bryan Jacob Bell
!!!END: November 2021 to April 2022
!!!PED: Gnter Philipp
!!!PTL: Ausgewhlte Klavierwerke (Edition Peters)
